{
  "type": "map",
  "version": "1.10",
  "orientation": "orthogonal",
  "renderorder": "right-down",
  "width": 175,
  "height": 15,
  "tilewidth": 16,
  "tileheight": 16,
  "infinite": false,
  "nextlayerid": 4,
  "nextobjectid": 86,
  "tilesets": [],
  "layers": [
    {
      "id": 1,
      "name": "collision",
      "type": "objectgroup",
      "visible": true,
      "opacity": 1,
      "x": 0,
      "y": 0,
      "draworder": "index",
      "objects": [
        {
          "id": 1,
          "name": "r000",
          "type": "solid",
          "x": 0,
          "y": 208,
          "width": 256,
          "height": 32,
          "rotation": 0,
          "visible": true,
          "properties": [
            {
              "name": "sourceJson",
              "type": "string",
              "value": "{\"id\":\"r000\",\"x\":0,\"y\":208,\"w\":256,\"h\":32,\"collision\":\"solid\"}"
            }
          ]
        },
        {
          "id": 2,
          "name": "r002",
          "type": "solid",
          "x": 288,
          "y": 192,
          "width": 64,
          "height": 16,
          "rotation": 0,
          "visible": true,
          "properties": [
            {
              "name": "sourceJson",
              "type": "string",
              "value": "{\"id\":\"r002\",\"x\":288,\"y\":192,\"w\":64,\"h\":16,\"collision\":\"solid\"}"
            }
          ]
        },
        {
          "id": 3,
          "name": "r003",
          "type": "solid",
          "x": 384,
          "y": 144,
          "width": 128,
          "height": 16,
          "rotation": 0,
          "visible": true,
          "properties": [
            {
              "name": "sourceJson",
              "type": "string",
              "value": "{\"id\":\"r003\",\"x\":384,\"y\":144,\"w\":128,\"h\":16,\"collision\":\"solid\"}"
            }
          ]
        },
        {
          "id": 4,
          "name": "r004",
          "type": "solid",
          "x": 416,
          "y": 80,
          "width": 80,
          "height": 16,
          "rotation": 0,
          "visible": true,
          "properties": [
            {
              "name": "sourceJson",
              "type": "string",
              "value": "{\"id\":\"r004\",\"x\":416,\"y\":80,\"w\":80,\"h\":16,\"collision\":\"solid\"}"
            }
          ]
        },
        {
          "id": 5,
          "name": "r007",
          "type": "solid",
          "x": 512,
          "y": 192,
          "width": 48,
          "height": 16,
          "rotation": 0,
          "visible": true,
          "properties": [
            {
              "name": "sourceJson",
              "type": "string",
              "value": "{\"id\":\"r007\",\"x\":512,\"y\":192,\"w\":48,\"h\":16,\"collision\":\"solid\"}"
            }
          ]
        },
        {
          "id": 6,
          "name": "r009",
          "type": "solid",
          "x": 560,
          "y": 128,
          "width": 80,
          "height": 16,
          "rotation": 0,
          "visible": true,
          "properties": [
            {
              "name": "sourceJson",
              "type": "string",
              "value": "{\"id\":\"r009\",\"x\":560,\"y\":128,\"w\":80,\"h\":16,\"collision\":\"solid\"}"
            }
          ]
        },
        {
          "id": 7,
          "name": "r011",
          "type": "solid",
          "x": 640,
          "y": 64,
          "width": 112,
          "height": 16,
          "rotation": 0,
          "visible": true,
          "properties": [
            {
              "name": "sourceJson",
              "type": "string",
              "value": "{\"id\":\"r011\",\"x\":640,\"y\":64,\"w\":112,\"h\":16,\"collision\":\"solid\"}"
            }
          ]
        },
        {
          "id": 8,
          "name": "r013",
          "type": "solid",
          "x": 800,
          "y": 208,
          "width": 64,
          "height": 16,
          "rotation": 0,
          "visible": true,
          "properties": [
            {
              "name": "sourceJson",
              "type": "string",
              "value": "{\"id\":\"r013\",\"x\":800,\"y\":208,\"w\":64,\"h\":16,\"collision\":\"solid\"}"
            }
          ]
        },
        {
          "id": 9,
          "name": "r015",
          "type": "oneway",
          "x": 880,
          "y": 96,
          "width": 48,
          "height": 8,
          "rotation": 0,
          "visible": true,
          "properties": [
            {
              "name": "sourceJson",
              "type": "string",
              "value": "{\"id\":\"r015\",\"x\":880,\"y\":96,\"w\":48,\"h\":8,\"collision\":\"oneway\",\"motion\":{\"axis\":\"y\",\"min\":96,\"max\":216,\"speed\":0.75}}"
            }
          ]
        },
        {
          "id": 10,
          "name": "r016",
          "type": "solid",
          "x": 944,
          "y": 208,
          "width": 80,
          "height": 16,
          "rotation": 0,
          "visible": true,
          "properties": [
            {
              "name": "sourceJson",
              "type": "string",
              "value": "{\"id\":\"r016\",\"x\":944,\"y\":208,\"w\":80,\"h\":16,\"collision\":\"solid\"}"
            }
          ]
        },
        {
          "id": 11,
          "name": "r017",
          "type": "solid",
          "x": 944,
          "y": 160,
          "width": 16,
          "height": 16,
          "rotation": 0,
          "visible": true,
          "properties": [
            {
              "name": "sourceJson",
              "type": "string",
              "value": "{\"id\":\"r017\",\"x\":944,\"y\":160,\"w\":16,\"h\":16,\"collision\":\"solid\"}"
            }
          ]
        },
        {
          "id": 12,
          "name": "r018",
          "type": "solid",
          "x": 960,
          "y": 80,
          "width": 64,
          "height": 16,
          "rotation": 0,
          "visible": true,
          "properties": [
            {
              "name": "sourceJson",
              "type": "string",
              "value": "{\"id\":\"r018\",\"x\":960,\"y\":80,\"w\":64,\"h\":16,\"collision\":\"solid\"}"
            }
          ]
        },
        {
          "id": 13,
          "name": "r020",
          "type": "solid",
          "x": 1040,
          "y": 208,
          "width": 80,
          "height": 16,
          "rotation": 0,
          "visible": true,
          "properties": [
            {
              "name": "sourceJson",
              "type": "string",
              "value": "{\"id\":\"r020\",\"x\":1040,\"y\":208,\"w\":80,\"h\":16,\"collision\":\"solid\"}"
            }
          ]
        },
        {
          "id": 14,
          "name": "r021",
          "type": "solid",
          "x": 1120,
          "y": 144,
          "width": 48,
          "height": 16,
          "rotation": 0,
          "visible": true,
          "properties": [
            {
              "name": "sourceJson",
              "type": "string",
              "value": "{\"id\":\"r021\",\"x\":1120,\"y\":144,\"w\":48,\"h\":16,\"collision\":\"solid\"}"
            }
          ]
        },
        {
          "id": 15,
          "name": "r023",
          "type": "solid",
          "x": 1216,
          "y": 96,
          "width": 96,
          "height": 16,
          "rotation": 0,
          "visible": true,
          "properties": [
            {
              "name": "sourceJson",
              "type": "string",
              "value": "{\"id\":\"r023\",\"x\":1216,\"y\":96,\"w\":96,\"h\":16,\"collision\":\"solid\"}"
            }
          ]
        },
        {
          "id": 16,
          "name": "r026",
          "type": "oneway",
          "x": 1376,
          "y": 128,
          "width": 48,
          "height": 8,
          "rotation": 0,
          "visible": true,
          "properties": [
            {
              "name": "sourceJson",
              "type": "string",
              "value": "{\"id\":\"r026\",\"x\":1376,\"y\":128,\"w\":48,\"h\":8,\"collision\":\"oneway\",\"motion\":{\"axis\":\"x\",\"min\":1320,\"max\":1440,\"speed\":0.75}}"
            }
          ]
        },
        {
          "id": 17,
          "name": "r028",
          "type": "oneway",
          "x": 1504,
          "y": 144,
          "width": 48,
          "height": 8,
          "rotation": 0,
          "visible": true,
          "properties": [
            {
              "name": "sourceJson",
              "type": "string",
              "value": "{\"id\":\"r028\",\"x\":1504,\"y\":144,\"w\":48,\"h\":8,\"collision\":\"oneway\",\"motion\":{\"axis\":\"x\",\"min\":1416,\"max\":1552,\"speed\":0.75}}"
            }
          ]
        },
        {
          "id": 18,
          "name": "r030",
          "type": "solid",
          "x": 1568,
          "y": 176,
          "width": 64,
          "height": 16,
          "rotation": 0,
          "visible": true,
          "properties": [
            {
              "name": "sourceJson",
              "type": "string",
              "value": "{\"id\":\"r030\",\"x\":1568,\"y\":176,\"w\":64,\"h\":16,\"collision\":\"solid\"}"
            }
          ]
        },
        {
          "id": 19,
          "name": "r031",
          "type": "solid",
          "x": 1664,
          "y": 112,
          "width": 128,
          "height": 16,
          "rotation": 0,
          "visible": true,
          "properties": [
            {
              "name": "sourceJson",
              "type": "string",
              "value": "{\"id\":\"r031\",\"x\":1664,\"y\":112,\"w\":128,\"h\":16,\"collision\":\"solid\"}"
            }
          ]
        },
        {
          "id": 20,
          "name": "r033",
          "type": "solid",
          "x": 1808,
          "y": 208,
          "width": 48,
          "height": 16,
          "rotation": 0,
          "visible": true,
          "properties": [
            {
              "name": "sourceJson",
              "type": "string",
              "value": "{\"id\":\"r033\",\"x\":1808,\"y\":208,\"w\":48,\"h\":16,\"collision\":\"solid\"}"
            }
          ]
        },
        {
          "id": 21,
          "name": "r036",
          "type": "solid",
          "x": 1856,
          "y": 144,
          "width": 64,
          "height": 16,
          "rotation": 0,
          "visible": true,
          "properties": [
            {
              "name": "sourceJson",
              "type": "string",
              "value": "{\"id\":\"r036\",\"x\":1856,\"y\":144,\"w\":64,\"h\":16,\"collision\":\"solid\"}"
            }
          ]
        },
        {
          "id": 22,
          "name": "r038",
          "type": "solid",
          "x": 1952,
          "y": 144,
          "width": 64,
          "height": 16,
          "rotation": 0,
          "visible": true,
          "properties": [
            {
              "name": "sourceJson",
              "type": "string",
              "value": "{\"id\":\"r038\",\"x\":1952,\"y\":144,\"w\":64,\"h\":16,\"collision\":\"solid\"}"
            }
          ]
        },
        {
          "id": 23,
          "name": "r039",
          "type": "solid",
          "x": 2064,
          "y": 208,
          "width": 736,
          "height": 32,
          "rotation": 0,
          "visible": true,
          "properties": [
            {
              "name": "sourceJson",
              "type": "string",
              "value": "{\"id\":\"r039\",\"x\":2064,\"y\":208,\"w\":736,\"h\":32,\"collision\":\"solid\"}"
            }
          ]
        },
        {
          "id": 24,
          "name": "r040",
          "type": "oneway",
          "x": 2096,
          "y": 96,
          "width": 48,
          "height": 8,
          "rotation": 0,
          "visible": true,
          "properties": [
            {
              "name": "sourceJson",
              "type": "string",
              "value": "{\"id\":\"r040\",\"x\":2096,\"y\":96,\"w\":48,\"h\":8,\"collision\":\"oneway\",\"motion\":{\"axis\":\"x\",\"min\":2048,\"max\":2136,\"speed\":0.75}}"
            }
          ]
        },
        {
          "id": 25,
          "name": "r042",
          "type": "solid",
          "x": 2208,
          "y": 144,
          "width": 32,
          "height": 64,
          "rotation": 0,
          "visible": true,
          "properties": [
            {
              "name": "sourceJson",
              "type": "string",
              "value": "{\"id\":\"r042\",\"x\":2208,\"y\":144,\"w\":32,\"h\":64,\"collision\":\"solid\"}"
            }
          ]
        },
        {
          "id": 26,
          "name": "r043",
          "type": "solid",
          "x": 2240,
          "y": 112,
          "width": 32,
          "height": 96,
          "rotation": 0,
          "visible": true,
          "properties": [
            {
              "name": "sourceJson",
              "type": "string",
              "value": "{\"id\":\"r043\",\"x\":2240,\"y\":112,\"w\":32,\"h\":96,\"collision\":\"solid\"}"
            }
          ]
        },
        {
          "id": 27,
          "name": "r044",
          "type": "solid",
          "x": 2272,
          "y": 80,
          "width": 32,
          "height": 128,
          "rotation": 0,
          "visible": true,
          "properties": [
            {
              "name": "sourceJson",
              "type": "string",
              "value": "{\"id\":\"r044\",\"x\":2272,\"y\":80,\"w\":32,\"h\":128,\"collision\":\"solid\"}"
            }
          ]
        },
        {
          "id": 28,
          "name": "r045-base",
          "type": "solid",
          "x": 2448,
          "y": 192,
          "width": 16,
          "height": 16,
          "rotation": 0,
          "visible": true,
          "properties": [
            {
              "name": "sourceJson",
              "type": "string",
              "value": "{\"id\":\"r045-base\",\"x\":2448,\"y\":192,\"w\":16,\"h\":16,\"collision\":\"solid\"}"
            }
          ]
        }
      ]
    },
    {
      "id": 2,
      "name": "objects",
      "type": "objectgroup",
      "visible": true,
      "opacity": 1,
      "x": 0,
      "y": 0,
      "draworder": "index",
      "objects": [
        {
          "id": 29,
          "name": "r005-0-0",
          "type": "coin",
          "x": 434,
          "y": 66,
          "width": 10,
          "height": 14,
          "rotation": 0,
          "visible": true,
          "properties": [
            {
              "name": "sourceJson",
              "type": "string",
              "value": "{\"id\":\"r005-0-0\",\"kind\":\"coin\",\"x\":434,\"y\":66,\"w\":10,\"h\":14}"
            }
          ]
        },
        {
          "id": 30,
          "name": "r005-1-0",
          "type": "coin",
          "x": 450,
          "y": 66,
          "width": 10,
          "height": 14,
          "rotation": 0,
          "visible": true,
          "properties": [
            {
              "name": "sourceJson",
              "type": "string",
              "value": "{\"id\":\"r005-1-0\",\"kind\":\"coin\",\"x\":450,\"y\":66,\"w\":10,\"h\":14}"
            }
          ]
        },
        {
          "id": 31,
          "name": "r005-2-0",
          "type": "coin",
          "x": 466,
          "y": 66,
          "width": 10,
          "height": 14,
          "rotation": 0,
          "visible": true,
          "properties": [
            {
              "name": "sourceJson",
              "type": "string",
              "value": "{\"id\":\"r005-2-0\",\"kind\":\"coin\",\"x\":466,\"y\":66,\"w\":10,\"h\":14}"
            }
          ]
        },
        {
          "id": 32,
          "name": "r008",
          "type": "coin",
          "x": 532,
          "y": 178,
          "width": 10,
          "height": 14,
          "rotation": 0,
          "visible": true,
          "properties": [
            {
              "name": "sourceJson",
              "type": "string",
              "value": "{\"id\":\"r008\",\"kind\":\"coin\",\"x\":532,\"y\":178,\"w\":10,\"h\":14}"
            }
          ]
        },
        {
          "id": 33,
          "name": "r010-0-0",
          "type": "coin",
          "x": 594,
          "y": 34,
          "width": 10,
          "height": 14,
          "rotation": 0,
          "visible": true,
          "properties": [
            {
              "name": "sourceJson",
              "type": "string",
              "value": "{\"id\":\"r010-0-0\",\"kind\":\"coin\",\"x\":594,\"y\":34,\"w\":10,\"h\":14}"
            }
          ]
        },
        {
          "id": 34,
          "name": "r010-1-0",
          "type": "coin",
          "x": 610,
          "y": 34,
          "width": 10,
          "height": 14,
          "rotation": 0,
          "visible": true,
          "properties": [
            {
              "name": "sourceJson",
              "type": "string",
              "value": "{\"id\":\"r010-1-0\",\"kind\":\"coin\",\"x\":610,\"y\":34,\"w\":10,\"h\":14}"
            }
          ]
        },
        {
          "id": 35,
          "name": "r014-0-0",
          "type": "coin",
          "x": 804,
          "y": 98,
          "width": 10,
          "height": 14,
          "rotation": 0,
          "visible": true,
          "properties": [
            {
              "name": "sourceJson",
              "type": "string",
              "value": "{\"id\":\"r014-0-0\",\"kind\":\"coin\",\"x\":804,\"y\":98,\"w\":10,\"h\":14}"
            }
          ]
        },
        {
          "id": 36,
          "name": "r014-1-0",
          "type": "coin",
          "x": 820,
          "y": 98,
          "width": 10,
          "height": 14,
          "rotation": 0,
          "visible": true,
          "properties": [
            {
              "name": "sourceJson",
              "type": "string",
              "value": "{\"id\":\"r014-1-0\",\"kind\":\"coin\",\"x\":820,\"y\":98,\"w\":10,\"h\":14}"
            }
          ]
        },
        {
          "id": 37,
          "name": "r019-0-0",
          "type": "coin",
          "x": 964,
          "y": 66,
          "width": 10,
          "height": 14,
          "rotation": 0,
          "visible": true,
          "properties": [
            {
              "name": "sourceJson",
              "type": "string",
              "value": "{\"id\":\"r019-0-0\",\"kind\":\"coin\",\"x\":964,\"y\":66,\"w\":10,\"h\":14}"
            }
          ]
        },
        {
          "id": 38,
          "name": "r019-1-0",
          "type": "coin",
          "x": 980,
          "y": 66,
          "width": 10,
          "height": 14,
          "rotation": 0,
          "visible": true,
          "properties": [
            {
              "name": "sourceJson",
              "type": "string",
              "value": "{\"id\":\"r019-1-0\",\"kind\":\"coin\",\"x\":980,\"y\":66,\"w\":10,\"h\":14}"
            }
          ]
        },
        {
          "id": 39,
          "name": "r019-2-0",
          "type": "coin",
          "x": 996,
          "y": 66,
          "width": 10,
          "height": 14,
          "rotation": 0,
          "visible": true,
          "properties": [
            {
              "name": "sourceJson",
              "type": "string",
              "value": "{\"id\":\"r019-2-0\",\"kind\":\"coin\",\"x\":996,\"y\":66,\"w\":10,\"h\":14}"
            }
          ]
        },
        {
          "id": 40,
          "name": "r019-3-0",
          "type": "coin",
          "x": 1012,
          "y": 66,
          "width": 10,
          "height": 14,
          "rotation": 0,
          "visible": true,
          "properties": [
            {
              "name": "sourceJson",
              "type": "string",
              "value": "{\"id\":\"r019-3-0\",\"kind\":\"coin\",\"x\":1012,\"y\":66,\"w\":10,\"h\":14}"
            }
          ]
        },
        {
          "id": 41,
          "name": "r025-0-0",
          "type": "coin",
          "x": 1362,
          "y": 82,
          "width": 10,
          "height": 14,
          "rotation": 0,
          "visible": true,
          "properties": [
            {
              "name": "sourceJson",
              "type": "string",
              "value": "{\"id\":\"r025-0-0\",\"kind\":\"coin\",\"x\":1362,\"y\":82,\"w\":10,\"h\":14}"
            }
          ]
        },
        {
          "id": 42,
          "name": "r025-1-0",
          "type": "coin",
          "x": 1378,
          "y": 82,
          "width": 10,
          "height": 14,
          "rotation": 0,
          "visible": true,
          "properties": [
            {
              "name": "sourceJson",
              "type": "string",
              "value": "{\"id\":\"r025-1-0\",\"kind\":\"coin\",\"x\":1378,\"y\":82,\"w\":10,\"h\":14}"
            }
          ]
        },
        {
          "id": 43,
          "name": "r027-0-0",
          "type": "coin",
          "x": 1490,
          "y": 66,
          "width": 10,
          "height": 14,
          "rotation": 0,
          "visible": true,
          "properties": [
            {
              "name": "sourceJson",
              "type": "string",
              "value": "{\"id\":\"r027-0-0\",\"kind\":\"coin\",\"x\":1490,\"y\":66,\"w\":10,\"h\":14}"
            }
          ]
        },
        {
          "id": 44,
          "name": "r027-1-0",
          "type": "coin",
          "x": 1506,
          "y": 66,
          "width": 10,
          "height": 14,
          "rotation": 0,
          "visible": true,
          "properties": [
            {
              "name": "sourceJson",
              "type": "string",
              "value": "{\"id\":\"r027-1-0\",\"kind\":\"coin\",\"x\":1506,\"y\":66,\"w\":10,\"h\":14}"
            }
          ]
        },
        {
          "id": 45,
          "name": "r029-0-0",
          "type": "coin",
          "x": 1554,
          "y": 66,
          "width": 10,
          "height": 14,
          "rotation": 0,
          "visible": true,
          "properties": [
            {
              "name": "sourceJson",
              "type": "string",
              "value": "{\"id\":\"r029-0-0\",\"kind\":\"coin\",\"x\":1554,\"y\":66,\"w\":10,\"h\":14}"
            }
          ]
        },
        {
          "id": 46,
          "name": "r029-1-0",
          "type": "coin",
          "x": 1570,
          "y": 66,
          "width": 10,
          "height": 14,
          "rotation": 0,
          "visible": true,
          "properties": [
            {
              "name": "sourceJson",
              "type": "string",
              "value": "{\"id\":\"r029-1-0\",\"kind\":\"coin\",\"x\":1570,\"y\":66,\"w\":10,\"h\":14}"
            }
          ]
        },
        {
          "id": 47,
          "name": "r034-0-0",
          "type": "coin",
          "x": 1812,
          "y": 194,
          "width": 10,
          "height": 14,
          "rotation": 0,
          "visible": true,
          "properties": [
            {
              "name": "sourceJson",
              "type": "string",
              "value": "{\"id\":\"r034-0-0\",\"kind\":\"coin\",\"x\":1812,\"y\":194,\"w\":10,\"h\":14}"
            }
          ]
        },
        {
          "id": 48,
          "name": "r034-1-0",
          "type": "coin",
          "x": 1828,
          "y": 194,
          "width": 10,
          "height": 14,
          "rotation": 0,
          "visible": true,
          "properties": [
            {
              "name": "sourceJson",
              "type": "string",
              "value": "{\"id\":\"r034-1-0\",\"kind\":\"coin\",\"x\":1828,\"y\":194,\"w\":10,\"h\":14}"
            }
          ]
        },
        {
          "id": 49,
          "name": "r034-2-0",
          "type": "coin",
          "x": 1844,
          "y": 194,
          "width": 10,
          "height": 14,
          "rotation": 0,
          "visible": true,
          "properties": [
            {
              "name": "sourceJson",
              "type": "string",
              "value": "{\"id\":\"r034-2-0\",\"kind\":\"coin\",\"x\":1844,\"y\":194,\"w\":10,\"h\":14}"
            }
          ]
        },
        {
          "id": 50,
          "name": "r037-0-0",
          "type": "coin",
          "x": 1926,
          "y": 82,
          "width": 10,
          "height": 14,
          "rotation": 0,
          "visible": true,
          "properties": [
            {
              "name": "sourceJson",
              "type": "string",
              "value": "{\"id\":\"r037-0-0\",\"kind\":\"coin\",\"x\":1926,\"y\":82,\"w\":10,\"h\":14}"
            }
          ]
        },
        {
          "id": 51,
          "name": "r037-1-0",
          "type": "coin",
          "x": 1942,
          "y": 82,
          "width": 10,
          "height": 14,
          "rotation": 0,
          "visible": true,
          "properties": [
            {
              "name": "sourceJson",
              "type": "string",
              "value": "{\"id\":\"r037-1-0\",\"kind\":\"coin\",\"x\":1942,\"y\":82,\"w\":10,\"h\":14}"
            }
          ]
        },
        {
          "id": 52,
          "name": "r045-exit",
          "type": "exit",
          "x": 2448,
          "y": 40,
          "width": 16,
          "height": 168,
          "rotation": 0,
          "visible": true,
          "properties": [
            {
              "name": "sourceJson",
              "type": "string",
              "value": "{\"id\":\"r045-exit\",\"kind\":\"exit\",\"x\":2448,\"y\":40,\"w\":16,\"h\":168}"
            }
          ]
        },
        {
          "id": 53,
          "name": "location-0",
          "type": "spawn",
          "x": 32,
          "y": 184,
          "width": 12,
          "height": 24,
          "rotation": 0,
          "visible": true,
          "properties": [
            {
              "name": "sourceJson",
              "type": "string",
              "value": "{\"id\":\"location-0\",\"kind\":\"spawn\",\"x\":32,\"y\":184,\"w\":12,\"h\":24}"
            }
          ]
        }
      ]
    },
    {
      "id": 3,
      "name": "pending-mechanics",
      "type": "objectgroup",
      "visible": true,
      "opacity": 1,
      "x": 0,
      "y": 0,
      "draworder": "index",
      "objects": [
        {
          "id": 54,
          "name": "r001",
          "type": "decorative-castle",
          "x": 0,
          "y": 208,
          "width": 0,
          "height": 0,
          "rotation": 0,
          "visible": true,
          "point": true,
          "properties": [
            {
              "name": "sourceJson",
              "type": "string",
              "value": "{\"id\":\"r001\",\"kind\":\"decorative-castle\",\"source\":{\"macro\":\"CastleSmall\",\"x\":0,\"y\":0},\"x\":0,\"y\":208}"
            }
          ]
        },
        {
          "id": 55,
          "name": "r002-trunk",
          "type": "decorative-trunk",
          "x": 288,
          "y": 192,
          "width": 0,
          "height": 0,
          "rotation": 0,
          "visible": true,
          "point": true,
          "properties": [
            {
              "name": "sourceJson",
              "type": "string",
              "value": "{\"id\":\"r002-trunk\",\"kind\":\"decorative-trunk\",\"source\":{\"macro\":\"Tree\",\"x\":144,\"y\":8,\"width\":32},\"x\":288,\"y\":192}"
            }
          ]
        },
        {
          "id": 56,
          "name": "r003-trunk",
          "type": "decorative-trunk",
          "x": 384,
          "y": 144,
          "width": 0,
          "height": 0,
          "rotation": 0,
          "visible": true,
          "point": true,
          "properties": [
            {
              "name": "sourceJson",
              "type": "string",
              "value": "{\"id\":\"r003-trunk\",\"kind\":\"decorative-trunk\",\"source\":{\"macro\":\"Tree\",\"x\":192,\"y\":32,\"width\":64,\"solidTrunk\":true},\"x\":384,\"y\":144}"
            }
          ]
        },
        {
          "id": 57,
          "name": "r004-trunk",
          "type": "decorative-trunk",
          "x": 416,
          "y": 80,
          "width": 0,
          "height": 0,
          "rotation": 0,
          "visible": true,
          "point": true,
          "properties": [
            {
              "name": "sourceJson",
              "type": "string",
              "value": "{\"id\":\"r004-trunk\",\"kind\":\"decorative-trunk\",\"source\":{\"macro\":\"Tree\",\"x\":208,\"y\":64,\"width\":40},\"x\":416,\"y\":80}"
            }
          ]
        },
        {
          "id": 58,
          "name": "r006",
          "type": "enemy-koopa",
          "x": 480,
          "y": 56,
          "width": 0,
          "height": 0,
          "rotation": 0,
          "visible": true,
          "point": true,
          "properties": [
            {
              "name": "sourceJson",
              "type": "string",
              "value": "{\"id\":\"r006\",\"kind\":\"enemy-koopa\",\"source\":{\"thing\":\"Koopa\",\"x\":240,\"y\":76,\"smart\":true},\"x\":480,\"y\":56}"
            }
          ]
        },
        {
          "id": 59,
          "name": "r007-trunk",
          "type": "decorative-trunk",
          "x": 512,
          "y": 192,
          "width": 0,
          "height": 0,
          "rotation": 0,
          "visible": true,
          "point": true,
          "properties": [
            {
              "name": "sourceJson",
              "type": "string",
              "value": "{\"id\":\"r007-trunk\",\"kind\":\"decorative-trunk\",\"source\":{\"macro\":\"Tree\",\"x\":256,\"y\":8,\"width\":24},\"x\":512,\"y\":192}"
            }
          ]
        },
        {
          "id": 60,
          "name": "r009-trunk",
          "type": "decorative-trunk",
          "x": 560,
          "y": 128,
          "width": 0,
          "height": 0,
          "rotation": 0,
          "visible": true,
          "point": true,
          "properties": [
            {
              "name": "sourceJson",
              "type": "string",
              "value": "{\"id\":\"r009-trunk\",\"kind\":\"decorative-trunk\",\"source\":{\"macro\":\"Tree\",\"x\":280,\"y\":40,\"width\":40},\"x\":560,\"y\":128}"
            }
          ]
        },
        {
          "id": 61,
          "name": "r011-trunk",
          "type": "decorative-trunk",
          "x": 640,
          "y": 64,
          "width": 0,
          "height": 0,
          "rotation": 0,
          "visible": true,
          "point": true,
          "properties": [
            {
              "name": "sourceJson",
              "type": "string",
              "value": "{\"id\":\"r011-trunk\",\"kind\":\"decorative-trunk\",\"source\":{\"macro\":\"Tree\",\"x\":320,\"y\":72,\"width\":56},\"x\":640,\"y\":64}"
            }
          ]
        },
        {
          "id": 62,
          "name": "r012-0-0",
          "type": "enemy-goomba",
          "x": 704,
          "y": 48,
          "width": 0,
          "height": 0,
          "rotation": 0,
          "visible": true,
          "point": true,
          "properties": [
            {
              "name": "sourceJson",
              "type": "string",
              "value": "{\"id\":\"r012-0-0\",\"kind\":\"enemy-goomba\",\"source\":{\"x\":352,\"y\":80,\"thing\":\"Goomba\"},\"x\":704,\"y\":48}"
            }
          ]
        },
        {
          "id": 63,
          "name": "r012-1-0",
          "type": "enemy-goomba",
          "x": 736,
          "y": 48,
          "width": 0,
          "height": 0,
          "rotation": 0,
          "visible": true,
          "point": true,
          "properties": [
            {
              "name": "sourceJson",
              "type": "string",
              "value": "{\"id\":\"r012-1-0\",\"kind\":\"enemy-goomba\",\"source\":{\"x\":368,\"y\":80,\"thing\":\"Goomba\"},\"x\":736,\"y\":48}"
            }
          ]
        },
        {
          "id": 64,
          "name": "r013-trunk",
          "type": "decorative-trunk",
          "x": 800,
          "y": 208,
          "width": 0,
          "height": 0,
          "rotation": 0,
          "visible": true,
          "point": true,
          "properties": [
            {
              "name": "sourceJson",
              "type": "string",
              "value": "{\"id\":\"r013-trunk\",\"kind\":\"decorative-trunk\",\"source\":{\"macro\":\"Tree\",\"x\":400,\"y\":0,\"width\":32},\"x\":800,\"y\":208}"
            }
          ]
        },
        {
          "id": 65,
          "name": "r015-timing",
          "type": "platform-timing",
          "x": 880,
          "y": 96,
          "width": 0,
          "height": 0,
          "rotation": 0,
          "visible": true,
          "point": true,
          "properties": [
            {
              "name": "sourceJson",
              "type": "string",
              "value": "{\"id\":\"r015-timing\",\"kind\":\"platform-timing\",\"source\":{\"thing\":\"Platform\",\"x\":440,\"y\":56,\"width\":24,\"floating\":true,\"begin\":-4,\"end\":56},\"x\":880,\"y\":96}"
            }
          ]
        },
        {
          "id": 66,
          "name": "r016-trunk",
          "type": "decorative-trunk",
          "x": 944,
          "y": 208,
          "width": 0,
          "height": 0,
          "rotation": 0,
          "visible": true,
          "point": true,
          "properties": [
            {
              "name": "sourceJson",
              "type": "string",
              "value": "{\"id\":\"r016-trunk\",\"kind\":\"decorative-trunk\",\"source\":{\"macro\":\"Tree\",\"x\":472,\"y\":0,\"width\":40},\"x\":944,\"y\":208}"
            }
          ]
        },
        {
          "id": 67,
          "name": "r017-contents",
          "type": "block-contents",
          "x": 944,
          "y": 160,
          "width": 0,
          "height": 0,
          "rotation": 0,
          "visible": true,
          "point": true,
          "properties": [
            {
              "name": "sourceJson",
              "type": "string",
              "value": "{\"id\":\"r017-contents\",\"kind\":\"block-contents\",\"source\":{\"thing\":\"Block\",\"x\":472,\"y\":24,\"contents\":\"Mushroom\"},\"x\":944,\"y\":160}"
            }
          ]
        },
        {
          "id": 68,
          "name": "r018-trunk",
          "type": "decorative-trunk",
          "x": 960,
          "y": 80,
          "width": 0,
          "height": 0,
          "rotation": 0,
          "visible": true,
          "point": true,
          "properties": [
            {
              "name": "sourceJson",
              "type": "string",
              "value": "{\"id\":\"r018-trunk\",\"kind\":\"decorative-trunk\",\"source\":{\"macro\":\"Tree\",\"x\":480,\"y\":64,\"width\":32},\"x\":960,\"y\":80}"
            }
          ]
        },
        {
          "id": 69,
          "name": "r020-trunk",
          "type": "decorative-trunk",
          "x": 1040,
          "y": 208,
          "width": 0,
          "height": 0,
          "rotation": 0,
          "visible": true,
          "point": true,
          "properties": [
            {
              "name": "sourceJson",
              "type": "string",
              "value": "{\"id\":\"r020-trunk\",\"kind\":\"decorative-trunk\",\"source\":{\"macro\":\"Tree\",\"x\":520,\"y\":0,\"width\":40},\"x\":1040,\"y\":208}"
            }
          ]
        },
        {
          "id": 70,
          "name": "r021-trunk",
          "type": "decorative-trunk",
          "x": 1120,
          "y": 144,
          "width": 0,
          "height": 0,
          "rotation": 0,
          "visible": true,
          "point": true,
          "properties": [
            {
              "name": "sourceJson",
              "type": "string",
              "value": "{\"id\":\"r021-trunk\",\"kind\":\"decorative-trunk\",\"source\":{\"macro\":\"Tree\",\"x\":560,\"y\":32,\"width\":24},\"x\":1120,\"y\":144}"
            }
          ]
        },
        {
          "id": 71,
          "name": "r022",
          "type": "enemy-koopa",
          "x": 1184,
          "y": 56,
          "width": 0,
          "height": 0,
          "rotation": 0,
          "visible": true,
          "point": true,
          "properties": [
            {
              "name": "sourceJson",
              "type": "string",
              "value": "{\"id\":\"r022\",\"kind\":\"enemy-koopa\",\"source\":{\"thing\":\"Koopa\",\"x\":592,\"y\":76,\"smart\":true,\"jumping\":true,\"floating\":true,\"begin\":16,\"end\":88},\"x\":1184,\"y\":56}"
            }
          ]
        },
        {
          "id": 72,
          "name": "r023-trunk",
          "type": "decorative-trunk",
          "x": 1216,
          "y": 96,
          "width": 0,
          "height": 0,
          "rotation": 0,
          "visible": true,
          "point": true,
          "properties": [
            {
              "name": "sourceJson",
              "type": "string",
              "value": "{\"id\":\"r023-trunk\",\"kind\":\"decorative-trunk\",\"source\":{\"macro\":\"Tree\",\"x\":608,\"y\":56,\"width\":48},\"x\":1216,\"y\":96}"
            }
          ]
        },
        {
          "id": 73,
          "name": "r024",
          "type": "enemy-goomba",
          "x": 1280,
          "y": 80,
          "width": 0,
          "height": 0,
          "rotation": 0,
          "visible": true,
          "point": true,
          "properties": [
            {
              "name": "sourceJson",
              "type": "string",
              "value": "{\"id\":\"r024\",\"kind\":\"enemy-goomba\",\"source\":{\"thing\":\"Goomba\",\"x\":640,\"y\":64},\"x\":1280,\"y\":80}"
            }
          ]
        },
        {
          "id": 74,
          "name": "r026-timing",
          "type": "platform-timing",
          "x": 1376,
          "y": 128,
          "width": 0,
          "height": 0,
          "rotation": 0,
          "visible": true,
          "point": true,
          "properties": [
            {
              "name": "sourceJson",
              "type": "string",
              "value": "{\"id\":\"r026-timing\",\"kind\":\"platform-timing\",\"source\":{\"thing\":\"Platform\",\"x\":688,\"y\":40,\"width\":24,\"sliding\":true,\"begin\":660,\"end\":720},\"x\":1376,\"y\":128}"
            }
          ]
        },
        {
          "id": 75,
          "name": "r028-timing",
          "type": "platform-timing",
          "x": 1504,
          "y": 144,
          "width": 0,
          "height": 0,
          "rotation": 0,
          "visible": true,
          "point": true,
          "properties": [
            {
              "name": "sourceJson",
              "type": "string",
              "value": "{\"id\":\"r028-timing\",\"kind\":\"platform-timing\",\"source\":{\"thing\":\"Platform\",\"x\":752,\"y\":32,\"width\":24,\"sliding\":true,\"begin\":708,\"end\":776},\"x\":1504,\"y\":144}"
            }
          ]
        },
        {
          "id": 76,
          "name": "r030-trunk",
          "type": "decorative-trunk",
          "x": 1568,
          "y": 176,
          "width": 0,
          "height": 0,
          "rotation": 0,
          "visible": true,
          "point": true,
          "properties": [
            {
              "name": "sourceJson",
              "type": "string",
              "value": "{\"id\":\"r030-trunk\",\"kind\":\"decorative-trunk\",\"source\":{\"macro\":\"Tree\",\"x\":784,\"y\":16,\"width\":32},\"x\":1568,\"y\":176}"
            }
          ]
        },
        {
          "id": 77,
          "name": "r031-trunk",
          "type": "decorative-trunk",
          "x": 1664,
          "y": 112,
          "width": 0,
          "height": 0,
          "rotation": 0,
          "visible": true,
          "point": true,
          "properties": [
            {
              "name": "sourceJson",
              "type": "string",
              "value": "{\"id\":\"r031-trunk\",\"kind\":\"decorative-trunk\",\"source\":{\"macro\":\"Tree\",\"x\":832,\"y\":48,\"width\":64,\"solidTrunk\":true},\"x\":1664,\"y\":112}"
            }
          ]
        },
        {
          "id": 78,
          "name": "r032",
          "type": "enemy-koopa",
          "x": 1760,
          "y": 88,
          "width": 0,
          "height": 0,
          "rotation": 0,
          "visible": true,
          "point": true,
          "properties": [
            {
              "name": "sourceJson",
              "type": "string",
              "value": "{\"id\":\"r032\",\"kind\":\"enemy-koopa\",\"source\":{\"thing\":\"Koopa\",\"x\":880,\"y\":60,\"smart\":true},\"x\":1760,\"y\":88}"
            }
          ]
        },
        {
          "id": 79,
          "name": "r033-trunk",
          "type": "decorative-trunk",
          "x": 1808,
          "y": 208,
          "width": 0,
          "height": 0,
          "rotation": 0,
          "visible": true,
          "point": true,
          "properties": [
            {
              "name": "sourceJson",
              "type": "string",
              "value": "{\"id\":\"r033-trunk\",\"kind\":\"decorative-trunk\",\"source\":{\"macro\":\"Tree\",\"x\":904,\"y\":0,\"width\":24},\"x\":1808,\"y\":208}"
            }
          ]
        },
        {
          "id": 80,
          "name": "r035",
          "type": "enemy-koopa",
          "x": 1824,
          "y": 72,
          "width": 0,
          "height": 0,
          "rotation": 0,
          "visible": true,
          "point": true,
          "properties": [
            {
              "name": "sourceJson",
              "type": "string",
              "value": "{\"id\":\"r035\",\"kind\":\"enemy-koopa\",\"source\":{\"thing\":\"Koopa\",\"x\":912,\"y\":68,\"smart\":true,\"jumping\":true,\"floating\":true,\"begin\":4,\"end\":76},\"x\":1824,\"y\":72}"
            }
          ]
        },
        {
          "id": 81,
          "name": "r036-trunk",
          "type": "decorative-trunk",
          "x": 1856,
          "y": 144,
          "width": 0,
          "height": 0,
          "rotation": 0,
          "visible": true,
          "point": true,
          "properties": [
            {
              "name": "sourceJson",
              "type": "string",
              "value": "{\"id\":\"r036-trunk\",\"kind\":\"decorative-trunk\",\"source\":{\"macro\":\"Tree\",\"x\":928,\"y\":32,\"width\":32},\"x\":1856,\"y\":144}"
            }
          ]
        },
        {
          "id": 82,
          "name": "r038-trunk",
          "type": "decorative-trunk",
          "x": 1952,
          "y": 144,
          "width": 0,
          "height": 0,
          "rotation": 0,
          "visible": true,
          "point": true,
          "properties": [
            {
              "name": "sourceJson",
              "type": "string",
              "value": "{\"id\":\"r038-trunk\",\"kind\":\"decorative-trunk\",\"source\":{\"macro\":\"Tree\",\"x\":976,\"y\":32,\"width\":32,\"solidTrunk\":true},\"x\":1952,\"y\":144}"
            }
          ]
        },
        {
          "id": 83,
          "name": "r040-timing",
          "type": "platform-timing",
          "x": 2096,
          "y": 96,
          "width": 0,
          "height": 0,
          "rotation": 0,
          "visible": true,
          "point": true,
          "properties": [
            {
              "name": "sourceJson",
              "type": "string",
              "value": "{\"id\":\"r040-timing\",\"kind\":\"platform-timing\",\"source\":{\"thing\":\"Platform\",\"x\":1048,\"y\":56,\"width\":24,\"sliding\":true,\"begin\":1024,\"end\":1068},\"x\":2096,\"y\":96}"
            }
          ]
        },
        {
          "id": 84,
          "name": "r041",
          "type": "enemy-koopa",
          "x": 2128,
          "y": 184,
          "width": 0,
          "height": 0,
          "rotation": 0,
          "visible": true,
          "point": true,
          "properties": [
            {
              "name": "sourceJson",
              "type": "string",
              "value": "{\"id\":\"r041\",\"kind\":\"enemy-koopa\",\"source\":{\"thing\":\"Koopa\",\"x\":1064,\"y\":12,\"smart\":true},\"x\":2128,\"y\":184}"
            }
          ]
        },
        {
          "id": 85,
          "name": "r045",
          "type": "flagpole-finish",
          "x": 2448,
          "y": 208,
          "width": 0,
          "height": 0,
          "rotation": 0,
          "visible": true,
          "point": true,
          "properties": [
            {
              "name": "sourceJson",
              "type": "string",
              "value": "{\"id\":\"r045\",\"kind\":\"flagpole-finish\",\"source\":{\"macro\":\"EndOutsideCastle\",\"x\":1224,\"y\":0,\"large\":true,\"walls\":12,\"transport\":{\"map\":\"1-4\"}},\"x\":2448,\"y\":208}"
            }
          ]
        }
      ]
    }
  ],
  "properties": [
    {
      "name": "room",
      "type": "string",
      "value": "area-0"
    },
    {
      "name": "underwater",
      "type": "bool",
      "value": false
    },
    {
      "name": "inspectionOnly",
      "type": "bool",
      "value": true
    },
    {
      "name": "referenceReview",
      "type": "string",
      "value": "pending"
    }
  ]
}
