{
  "type": "map",
  "version": "1.10",
  "orientation": "orthogonal",
  "renderorder": "right-down",
  "width": 192,
  "height": 15,
  "tilewidth": 16,
  "tileheight": 16,
  "infinite": false,
  "nextlayerid": 4,
  "nextobjectid": 87,
  "tilesets": [],
  "layers": [
    {
      "id": 1,
      "name": "collision",
      "type": "objectgroup",
      "visible": true,
      "opacity": 1,
      "x": 0,
      "y": 0,
      "draworder": "index",
      "objects": [
        {
          "id": 1,
          "name": "r000-0",
          "type": "solid",
          "x": 0,
          "y": 112,
          "width": 48,
          "height": 128,
          "rotation": 0,
          "visible": true,
          "properties": [
            {
              "name": "sourceJson",
              "type": "string",
              "value": "{\"id\":\"r000-0\",\"x\":0,\"y\":112,\"w\":48,\"h\":128,\"collision\":\"solid\"}"
            }
          ]
        },
        {
          "id": 2,
          "name": "r000-24",
          "type": "solid",
          "x": 48,
          "y": 128,
          "width": 16,
          "height": 112,
          "rotation": 0,
          "visible": true,
          "properties": [
            {
              "name": "sourceJson",
              "type": "string",
              "value": "{\"id\":\"r000-24\",\"x\":48,\"y\":128,\"w\":16,\"h\":112,\"collision\":\"solid\"}"
            }
          ]
        },
        {
          "id": 3,
          "name": "r000-32",
          "type": "solid",
          "x": 64,
          "y": 144,
          "width": 16,
          "height": 96,
          "rotation": 0,
          "visible": true,
          "properties": [
            {
              "name": "sourceJson",
              "type": "string",
              "value": "{\"id\":\"r000-32\",\"x\":64,\"y\":144,\"w\":16,\"h\":96,\"collision\":\"solid\"}"
            }
          ]
        },
        {
          "id": 4,
          "name": "r000-floor",
          "type": "solid",
          "x": 80,
          "y": 160,
          "width": 16,
          "height": 80,
          "rotation": 0,
          "visible": true,
          "properties": [
            {
              "name": "sourceJson",
              "type": "string",
              "value": "{\"id\":\"r000-floor\",\"x\":80,\"y\":160,\"w\":16,\"h\":80,\"collision\":\"solid\"}"
            }
          ]
        },
        {
          "id": 5,
          "name": "r001",
          "type": "solid",
          "x": 0,
          "y": 32,
          "width": 96,
          "height": 48,
          "rotation": 0,
          "visible": true,
          "properties": [
            {
              "name": "sourceJson",
              "type": "string",
              "value": "{\"id\":\"r001\",\"x\":0,\"y\":32,\"w\":96,\"h\":48,\"collision\":\"solid\"}"
            }
          ]
        },
        {
          "id": 6,
          "name": "r002",
          "type": "solid",
          "x": 96,
          "y": 160,
          "width": 16,
          "height": 80,
          "rotation": 0,
          "visible": true,
          "properties": [
            {
              "name": "sourceJson",
              "type": "string",
              "value": "{\"id\":\"r002\",\"x\":96,\"y\":160,\"w\":16,\"h\":80,\"collision\":\"solid\"}"
            }
          ]
        },
        {
          "id": 7,
          "name": "r003",
          "type": "solid",
          "x": 96,
          "y": 32,
          "width": 160,
          "height": 16,
          "rotation": 0,
          "visible": true,
          "properties": [
            {
              "name": "sourceJson",
              "type": "string",
              "value": "{\"id\":\"r003\",\"x\":96,\"y\":32,\"w\":160,\"h\":16,\"collision\":\"solid\"}"
            }
          ]
        },
        {
          "id": 8,
          "name": "r005",
          "type": "solid",
          "x": 144,
          "y": 160,
          "width": 32,
          "height": 80,
          "rotation": 0,
          "visible": true,
          "properties": [
            {
              "name": "sourceJson",
              "type": "string",
              "value": "{\"id\":\"r005\",\"x\":144,\"y\":160,\"w\":32,\"h\":80,\"collision\":\"solid\"}"
            }
          ]
        },
        {
          "id": 9,
          "name": "r007",
          "type": "solid",
          "x": 208,
          "y": 160,
          "width": 48,
          "height": 80,
          "rotation": 0,
          "visible": true,
          "properties": [
            {
              "name": "sourceJson",
              "type": "string",
              "value": "{\"id\":\"r007\",\"x\":208,\"y\":160,\"w\":48,\"h\":80,\"collision\":\"solid\"}"
            }
          ]
        },
        {
          "id": 10,
          "name": "r009",
          "type": "solid",
          "x": 256,
          "y": 208,
          "width": 800,
          "height": 32,
          "rotation": 0,
          "visible": true,
          "properties": [
            {
              "name": "sourceJson",
              "type": "string",
              "value": "{\"id\":\"r009\",\"x\":256,\"y\":208,\"w\":800,\"h\":32,\"collision\":\"solid\"}"
            }
          ]
        },
        {
          "id": 11,
          "name": "r010",
          "type": "solid",
          "x": 256,
          "y": 32,
          "width": 800,
          "height": 16,
          "rotation": 0,
          "visible": true,
          "properties": [
            {
              "name": "sourceJson",
              "type": "string",
              "value": "{\"id\":\"r010\",\"x\":256,\"y\":32,\"w\":800,\"h\":16,\"collision\":\"solid\"}"
            }
          ]
        },
        {
          "id": 12,
          "name": "r011",
          "type": "solid",
          "x": 288,
          "y": 96,
          "width": 96,
          "height": 64,
          "rotation": 0,
          "visible": true,
          "properties": [
            {
              "name": "sourceJson",
              "type": "string",
              "value": "{\"id\":\"r011\",\"x\":288,\"y\":96,\"w\":96,\"h\":64,\"collision\":\"solid\"}"
            }
          ]
        },
        {
          "id": 13,
          "name": "r012-0-0",
          "type": "solid",
          "x": 400,
          "y": 96,
          "width": 16,
          "height": 64,
          "rotation": 0,
          "visible": true,
          "properties": [
            {
              "name": "sourceJson",
              "type": "string",
              "value": "{\"id\":\"r012-0-0\",\"x\":400,\"y\":96,\"w\":16,\"h\":64,\"collision\":\"solid\"}"
            }
          ]
        },
        {
          "id": 14,
          "name": "r012-1-0",
          "type": "solid",
          "x": 432,
          "y": 96,
          "width": 16,
          "height": 64,
          "rotation": 0,
          "visible": true,
          "properties": [
            {
              "name": "sourceJson",
              "type": "string",
              "value": "{\"id\":\"r012-1-0\",\"x\":432,\"y\":96,\"w\":16,\"h\":64,\"collision\":\"solid\"}"
            }
          ]
        },
        {
          "id": 15,
          "name": "r012-2-0",
          "type": "solid",
          "x": 464,
          "y": 96,
          "width": 16,
          "height": 64,
          "rotation": 0,
          "visible": true,
          "properties": [
            {
              "name": "sourceJson",
              "type": "string",
              "value": "{\"id\":\"r012-2-0\",\"x\":464,\"y\":96,\"w\":16,\"h\":64,\"collision\":\"solid\"}"
            }
          ]
        },
        {
          "id": 16,
          "name": "r012-3-0",
          "type": "solid",
          "x": 496,
          "y": 96,
          "width": 16,
          "height": 64,
          "rotation": 0,
          "visible": true,
          "properties": [
            {
              "name": "sourceJson",
              "type": "string",
              "value": "{\"id\":\"r012-3-0\",\"x\":496,\"y\":96,\"w\":16,\"h\":64,\"collision\":\"solid\"}"
            }
          ]
        },
        {
          "id": 17,
          "name": "r012-4-0",
          "type": "solid",
          "x": 528,
          "y": 96,
          "width": 16,
          "height": 64,
          "rotation": 0,
          "visible": true,
          "properties": [
            {
              "name": "sourceJson",
              "type": "string",
              "value": "{\"id\":\"r012-4-0\",\"x\":528,\"y\":96,\"w\":16,\"h\":64,\"collision\":\"solid\"}"
            }
          ]
        },
        {
          "id": 18,
          "name": "r013",
          "type": "solid",
          "x": 560,
          "y": 96,
          "width": 48,
          "height": 64,
          "rotation": 0,
          "visible": true,
          "properties": [
            {
              "name": "sourceJson",
              "type": "string",
              "value": "{\"id\":\"r013\",\"x\":560,\"y\":96,\"w\":48,\"h\":64,\"collision\":\"solid\"}"
            }
          ]
        },
        {
          "id": 19,
          "name": "r014",
          "type": "solid",
          "x": 608,
          "y": 96,
          "width": 96,
          "height": 16,
          "rotation": 0,
          "visible": true,
          "properties": [
            {
              "name": "sourceJson",
              "type": "string",
              "value": "{\"id\":\"r014\",\"x\":608,\"y\":96,\"w\":96,\"h\":16,\"collision\":\"solid\"}"
            }
          ]
        },
        {
          "id": 20,
          "name": "r015",
          "type": "solid",
          "x": 640,
          "y": 160,
          "width": 32,
          "height": 48,
          "rotation": 0,
          "visible": true,
          "properties": [
            {
              "name": "sourceJson",
              "type": "string",
              "value": "{\"id\":\"r015\",\"x\":640,\"y\":160,\"w\":32,\"h\":48,\"collision\":\"solid\"}"
            }
          ]
        },
        {
          "id": 21,
          "name": "r016",
          "type": "solid",
          "x": 704,
          "y": 96,
          "width": 352,
          "height": 64,
          "rotation": 0,
          "visible": true,
          "properties": [
            {
              "name": "sourceJson",
              "type": "string",
              "value": "{\"id\":\"r016\",\"x\":704,\"y\":96,\"w\":352,\"h\":64,\"collision\":\"solid\"}"
            }
          ]
        },
        {
          "id": 22,
          "name": "r021",
          "type": "solid",
          "x": 1056,
          "y": 208,
          "width": 256,
          "height": 32,
          "rotation": 0,
          "visible": true,
          "properties": [
            {
              "name": "sourceJson",
              "type": "string",
              "value": "{\"id\":\"r021\",\"x\":1056,\"y\":208,\"w\":256,\"h\":32,\"collision\":\"solid\"}"
            }
          ]
        },
        {
          "id": 23,
          "name": "r022",
          "type": "solid",
          "x": 1056,
          "y": 96,
          "width": 256,
          "height": 64,
          "rotation": 0,
          "visible": true,
          "properties": [
            {
              "name": "sourceJson",
              "type": "string",
              "value": "{\"id\":\"r022\",\"x\":1056,\"y\":96,\"w\":256,\"h\":64,\"collision\":\"solid\"}"
            }
          ]
        },
        {
          "id": 24,
          "name": "r023",
          "type": "solid",
          "x": 1056,
          "y": 32,
          "width": 256,
          "height": 16,
          "rotation": 0,
          "visible": true,
          "properties": [
            {
              "name": "sourceJson",
              "type": "string",
              "value": "{\"id\":\"r023\",\"x\":1056,\"y\":32,\"w\":256,\"h\":16,\"collision\":\"solid\"}"
            }
          ]
        },
        {
          "id": 25,
          "name": "r024",
          "type": "solid",
          "x": 1312,
          "y": 208,
          "width": 80,
          "height": 32,
          "rotation": 0,
          "visible": true,
          "properties": [
            {
              "name": "sourceJson",
              "type": "string",
              "value": "{\"id\":\"r024\",\"x\":1312,\"y\":208,\"w\":80,\"h\":32,\"collision\":\"solid\"}"
            }
          ]
        },
        {
          "id": 26,
          "name": "r025",
          "type": "solid",
          "x": 1312,
          "y": 32,
          "width": 80,
          "height": 16,
          "rotation": 0,
          "visible": true,
          "properties": [
            {
              "name": "sourceJson",
              "type": "string",
              "value": "{\"id\":\"r025\",\"x\":1312,\"y\":32,\"w\":80,\"h\":16,\"collision\":\"solid\"}"
            }
          ]
        },
        {
          "id": 27,
          "name": "r026",
          "type": "solid",
          "x": 1344,
          "y": 48,
          "width": 48,
          "height": 48,
          "rotation": 0,
          "visible": true,
          "properties": [
            {
              "name": "sourceJson",
              "type": "string",
              "value": "{\"id\":\"r026\",\"x\":1344,\"y\":48,\"w\":48,\"h\":48,\"collision\":\"solid\"}"
            }
          ]
        },
        {
          "id": 28,
          "name": "r027",
          "type": "solid",
          "x": 1344,
          "y": 160,
          "width": 48,
          "height": 48,
          "rotation": 0,
          "visible": true,
          "properties": [
            {
              "name": "sourceJson",
              "type": "string",
              "value": "{\"id\":\"r027\",\"x\":1344,\"y\":160,\"w\":48,\"h\":48,\"collision\":\"solid\"}"
            }
          ]
        },
        {
          "id": 29,
          "name": "r029",
          "type": "solid",
          "x": 1392,
          "y": 208,
          "width": 128,
          "height": 32,
          "rotation": 0,
          "visible": true,
          "properties": [
            {
              "name": "sourceJson",
              "type": "string",
              "value": "{\"id\":\"r029\",\"x\":1392,\"y\":208,\"w\":128,\"h\":32,\"collision\":\"solid\"}"
            }
          ]
        },
        {
          "id": 30,
          "name": "r030",
          "type": "solid",
          "x": 1392,
          "y": 32,
          "width": 672,
          "height": 16,
          "rotation": 0,
          "visible": true,
          "properties": [
            {
              "name": "sourceJson",
              "type": "string",
              "value": "{\"id\":\"r030\",\"x\":1392,\"y\":32,\"w\":672,\"h\":16,\"collision\":\"solid\"}"
            }
          ]
        },
        {
          "id": 31,
          "name": "r031",
          "type": "solid",
          "x": 1488,
          "y": 160,
          "width": 32,
          "height": 16,
          "rotation": 0,
          "visible": true,
          "properties": [
            {
              "name": "sourceJson",
              "type": "string",
              "value": "{\"id\":\"r031\",\"x\":1488,\"y\":160,\"w\":32,\"h\":16,\"collision\":\"solid\"}"
            }
          ]
        },
        {
          "id": 32,
          "name": "r033",
          "type": "solid",
          "x": 1536,
          "y": 128,
          "width": 32,
          "height": 16,
          "rotation": 0,
          "visible": true,
          "properties": [
            {
              "name": "sourceJson",
              "type": "string",
              "value": "{\"id\":\"r033\",\"x\":1536,\"y\":128,\"w\":32,\"h\":16,\"collision\":\"solid\"}"
            }
          ]
        },
        {
          "id": 33,
          "name": "r034",
          "type": "solid",
          "x": 1552,
          "y": 176,
          "width": 16,
          "height": 64,
          "rotation": 0,
          "visible": true,
          "properties": [
            {
              "name": "sourceJson",
              "type": "string",
              "value": "{\"id\":\"r034\",\"x\":1552,\"y\":176,\"w\":16,\"h\":64,\"collision\":\"solid\"}"
            }
          ]
        },
        {
          "id": 34,
          "name": "r035",
          "type": "solid",
          "x": 1552,
          "y": 160,
          "width": 80,
          "height": 16,
          "rotation": 0,
          "visible": true,
          "properties": [
            {
              "name": "sourceJson",
              "type": "string",
              "value": "{\"id\":\"r035\",\"x\":1552,\"y\":160,\"w\":80,\"h\":16,\"collision\":\"solid\"}"
            }
          ]
        },
        {
          "id": 35,
          "name": "r037",
          "type": "solid",
          "x": 1600,
          "y": 112,
          "width": 16,
          "height": 16,
          "rotation": 0,
          "visible": true,
          "properties": [
            {
              "name": "sourceJson",
              "type": "string",
              "value": "{\"id\":\"r037\",\"x\":1600,\"y\":112,\"w\":16,\"h\":16,\"collision\":\"solid\"}"
            }
          ]
        },
        {
          "id": 36,
          "name": "r038",
          "type": "solid",
          "x": 1616,
          "y": 128,
          "width": 16,
          "height": 32,
          "rotation": 0,
          "visible": true,
          "properties": [
            {
              "name": "sourceJson",
              "type": "string",
              "value": "{\"id\":\"r038\",\"x\":1616,\"y\":128,\"w\":16,\"h\":32,\"collision\":\"solid\"}"
            }
          ]
        },
        {
          "id": 37,
          "name": "r039",
          "type": "solid",
          "x": 1632,
          "y": 208,
          "width": 432,
          "height": 32,
          "rotation": 0,
          "visible": true,
          "properties": [
            {
              "name": "sourceJson",
              "type": "string",
              "value": "{\"id\":\"r039\",\"x\":1632,\"y\":208,\"w\":432,\"h\":32,\"collision\":\"solid\"}"
            }
          ]
        },
        {
          "id": 38,
          "name": "r040",
          "type": "solid",
          "x": 1632,
          "y": 96,
          "width": 16,
          "height": 32,
          "rotation": 0,
          "visible": true,
          "properties": [
            {
              "name": "sourceJson",
              "type": "string",
              "value": "{\"id\":\"r040\",\"x\":1632,\"y\":96,\"w\":16,\"h\":32,\"collision\":\"solid\"}"
            }
          ]
        },
        {
          "id": 39,
          "name": "r041",
          "type": "solid",
          "x": 1648,
          "y": 160,
          "width": 416,
          "height": 16,
          "rotation": 0,
          "visible": true,
          "properties": [
            {
              "name": "sourceJson",
              "type": "string",
              "value": "{\"id\":\"r041\",\"x\":1648,\"y\":160,\"w\":416,\"h\":16,\"collision\":\"solid\"}"
            }
          ]
        },
        {
          "id": 40,
          "name": "r042",
          "type": "solid",
          "x": 1648,
          "y": 96,
          "width": 32,
          "height": 16,
          "rotation": 0,
          "visible": true,
          "properties": [
            {
              "name": "sourceJson",
              "type": "string",
              "value": "{\"id\":\"r042\",\"x\":1648,\"y\":96,\"w\":32,\"h\":16,\"collision\":\"solid\"}"
            }
          ]
        },
        {
          "id": 41,
          "name": "r043",
          "type": "solid",
          "x": 1712,
          "y": 96,
          "width": 64,
          "height": 16,
          "rotation": 0,
          "visible": true,
          "properties": [
            {
              "name": "sourceJson",
              "type": "string",
              "value": "{\"id\":\"r043\",\"x\":1712,\"y\":96,\"w\":64,\"h\":16,\"collision\":\"solid\"}"
            }
          ]
        },
        {
          "id": 42,
          "name": "r044",
          "type": "solid",
          "x": 1792,
          "y": 112,
          "width": 16,
          "height": 48,
          "rotation": 0,
          "visible": true,
          "properties": [
            {
              "name": "sourceJson",
              "type": "string",
              "value": "{\"id\":\"r044\",\"x\":1792,\"y\":112,\"w\":16,\"h\":48,\"collision\":\"solid\"}"
            }
          ]
        },
        {
          "id": 43,
          "name": "r045",
          "type": "solid",
          "x": 1792,
          "y": 96,
          "width": 48,
          "height": 16,
          "rotation": 0,
          "visible": true,
          "properties": [
            {
              "name": "sourceJson",
              "type": "string",
              "value": "{\"id\":\"r045\",\"x\":1792,\"y\":96,\"w\":48,\"h\":16,\"collision\":\"solid\"}"
            }
          ]
        },
        {
          "id": 44,
          "name": "r046",
          "type": "solid",
          "x": 1872,
          "y": 96,
          "width": 192,
          "height": 16,
          "rotation": 0,
          "visible": true,
          "properties": [
            {
              "name": "sourceJson",
              "type": "string",
              "value": "{\"id\":\"r046\",\"x\":1872,\"y\":96,\"w\":192,\"h\":16,\"collision\":\"solid\"}"
            }
          ]
        },
        {
          "id": 45,
          "name": "r052",
          "type": "solid",
          "x": 2032,
          "y": 208,
          "width": 256,
          "height": 32,
          "rotation": 0,
          "visible": true,
          "properties": [
            {
              "name": "sourceJson",
              "type": "string",
              "value": "{\"id\":\"r052\",\"x\":2032,\"y\":208,\"w\":256,\"h\":32,\"collision\":\"solid\"}"
            }
          ]
        },
        {
          "id": 46,
          "name": "r053",
          "type": "solid",
          "x": 2032,
          "y": 160,
          "width": 256,
          "height": 16,
          "rotation": 0,
          "visible": true,
          "properties": [
            {
              "name": "sourceJson",
              "type": "string",
              "value": "{\"id\":\"r053\",\"x\":2032,\"y\":160,\"w\":256,\"h\":16,\"collision\":\"solid\"}"
            }
          ]
        },
        {
          "id": 47,
          "name": "r054",
          "type": "solid",
          "x": 2032,
          "y": 96,
          "width": 256,
          "height": 16,
          "rotation": 0,
          "visible": true,
          "properties": [
            {
              "name": "sourceJson",
              "type": "string",
              "value": "{\"id\":\"r054\",\"x\":2032,\"y\":96,\"w\":256,\"h\":16,\"collision\":\"solid\"}"
            }
          ]
        },
        {
          "id": 48,
          "name": "r055",
          "type": "solid",
          "x": 2032,
          "y": 32,
          "width": 256,
          "height": 16,
          "rotation": 0,
          "visible": true,
          "properties": [
            {
              "name": "sourceJson",
              "type": "string",
              "value": "{\"id\":\"r055\",\"x\":2032,\"y\":32,\"w\":256,\"h\":16,\"collision\":\"solid\"}"
            }
          ]
        },
        {
          "id": 49,
          "name": "r056",
          "type": "solid",
          "x": 2288,
          "y": 208,
          "width": 160,
          "height": 32,
          "rotation": 0,
          "visible": true,
          "properties": [
            {
              "name": "sourceJson",
              "type": "string",
              "value": "{\"id\":\"r056\",\"x\":2288,\"y\":208,\"w\":160,\"h\":32,\"collision\":\"solid\"}"
            }
          ]
        },
        {
          "id": 50,
          "name": "r057",
          "type": "solid",
          "x": 2288,
          "y": 80,
          "width": 16,
          "height": 80,
          "rotation": 0,
          "visible": true,
          "properties": [
            {
              "name": "sourceJson",
              "type": "string",
              "value": "{\"id\":\"r057\",\"x\":2288,\"y\":80,\"w\":16,\"h\":80,\"collision\":\"solid\"}"
            }
          ]
        },
        {
          "id": 51,
          "name": "r058",
          "type": "solid",
          "x": 2288,
          "y": 32,
          "width": 16,
          "height": 16,
          "rotation": 0,
          "visible": true,
          "properties": [
            {
              "name": "sourceJson",
              "type": "string",
              "value": "{\"id\":\"r058\",\"x\":2288,\"y\":32,\"w\":16,\"h\":16,\"collision\":\"solid\"}"
            }
          ]
        },
        {
          "id": 52,
          "name": "r059",
          "type": "solid",
          "x": 2304,
          "y": 32,
          "width": 32,
          "height": 48,
          "rotation": 0,
          "visible": true,
          "properties": [
            {
              "name": "sourceJson",
              "type": "string",
              "value": "{\"id\":\"r059\",\"x\":2304,\"y\":32,\"w\":32,\"h\":48,\"collision\":\"solid\"}"
            }
          ]
        },
        {
          "id": 53,
          "name": "r060",
          "type": "solid",
          "x": 2432,
          "y": 160,
          "width": 64,
          "height": 80,
          "rotation": 0,
          "visible": true,
          "properties": [
            {
              "name": "sourceJson",
              "type": "string",
              "value": "{\"id\":\"r060\",\"x\":2432,\"y\":160,\"w\":64,\"h\":80,\"collision\":\"solid\"}"
            }
          ]
        },
        {
          "id": 54,
          "name": "r061",
          "type": "solid",
          "x": 2432,
          "y": 32,
          "width": 128,
          "height": 16,
          "rotation": 0,
          "visible": true,
          "properties": [
            {
              "name": "sourceJson",
              "type": "string",
              "value": "{\"id\":\"r061\",\"x\":2432,\"y\":32,\"w\":128,\"h\":16,\"collision\":\"solid\"}"
            }
          ]
        },
        {
          "id": 55,
          "name": "r062",
          "type": "solid",
          "x": 2480,
          "y": 208,
          "width": 64,
          "height": 32,
          "rotation": 0,
          "visible": true,
          "properties": [
            {
              "name": "sourceJson",
              "type": "string",
              "value": "{\"id\":\"r062\",\"x\":2480,\"y\":208,\"w\":64,\"h\":32,\"collision\":\"solid\"}"
            }
          ]
        },
        {
          "id": 56,
          "name": "r063",
          "type": "solid",
          "x": 2528,
          "y": 160,
          "width": 32,
          "height": 80,
          "rotation": 0,
          "visible": true,
          "properties": [
            {
              "name": "sourceJson",
              "type": "string",
              "value": "{\"id\":\"r063\",\"x\":2528,\"y\":160,\"w\":32,\"h\":80,\"collision\":\"solid\"}"
            }
          ]
        },
        {
          "id": 57,
          "name": "r065-roof",
          "type": "solid",
          "x": 2560,
          "y": 32,
          "width": 512,
          "height": 16,
          "rotation": 0,
          "visible": true,
          "properties": [
            {
              "name": "sourceJson",
              "type": "string",
              "value": "{\"id\":\"r065-roof\",\"x\":2560,\"y\":32,\"w\":512,\"h\":16,\"collision\":\"solid\"}"
            }
          ]
        },
        {
          "id": 58,
          "name": "r065-bridge",
          "type": "solid",
          "x": 2560,
          "y": 160,
          "width": 208,
          "height": 16,
          "rotation": 0,
          "visible": true,
          "properties": [
            {
              "name": "sourceJson",
              "type": "string",
              "value": "{\"id\":\"r065-bridge\",\"x\":2560,\"y\":160,\"w\":208,\"h\":16,\"collision\":\"solid\"}"
            }
          ]
        },
        {
          "id": 59,
          "name": "r065-floor",
          "type": "solid",
          "x": 2768,
          "y": 208,
          "width": 304,
          "height": 32,
          "rotation": 0,
          "visible": true,
          "properties": [
            {
              "name": "sourceJson",
              "type": "string",
              "value": "{\"id\":\"r065-floor\",\"x\":2768,\"y\":208,\"w\":304,\"h\":32,\"collision\":\"solid\"}"
            }
          ]
        },
        {
          "id": 60,
          "name": "r065-step",
          "type": "solid",
          "x": 2768,
          "y": 144,
          "width": 48,
          "height": 64,
          "rotation": 0,
          "visible": true,
          "properties": [
            {
              "name": "sourceJson",
              "type": "string",
              "value": "{\"id\":\"r065-step\",\"x\":2768,\"y\":144,\"w\":48,\"h\":64,\"collision\":\"solid\"}"
            }
          ]
        },
        {
          "id": 61,
          "name": "r065-ceiling",
          "type": "solid",
          "x": 2784,
          "y": 48,
          "width": 32,
          "height": 48,
          "rotation": 0,
          "visible": true,
          "properties": [
            {
              "name": "sourceJson",
              "type": "string",
              "value": "{\"id\":\"r065-ceiling\",\"x\":2784,\"y\":48,\"w\":32,\"h\":48,\"collision\":\"solid\"}"
            }
          ]
        }
      ]
    },
    {
      "id": 2,
      "name": "objects",
      "type": "objectgroup",
      "visible": true,
      "opacity": 1,
      "x": 0,
      "y": 0,
      "draworder": "index",
      "objects": [
        {
          "id": 62,
          "name": "inspection-start",
          "type": "spawn",
          "x": 24,
          "y": 88,
          "width": 12,
          "height": 24,
          "rotation": 0,
          "visible": true,
          "properties": [
            {
              "name": "sourceJson",
              "type": "string",
              "value": "{\"id\":\"inspection-start\",\"kind\":\"spawn\",\"x\":24,\"y\":88,\"w\":12,\"h\":24}"
            }
          ]
        }
      ]
    },
    {
      "id": 3,
      "name": "pending-mechanics",
      "type": "objectgroup",
      "visible": true,
      "opacity": 1,
      "x": 0,
      "y": 0,
      "draworder": "index",
      "objects": [
        {
          "id": 63,
          "name": "r004",
          "type": "lava-volume",
          "x": 112,
          "y": 208,
          "width": 0,
          "height": 0,
          "rotation": 0,
          "visible": true,
          "point": true,
          "properties": [
            {
              "name": "sourceJson",
              "type": "string",
              "value": "{\"id\":\"r004\",\"kind\":\"lava-volume\",\"source\":{\"macro\":\"Water\",\"width\":16,\"x\":56,\"y\":0},\"sourcePath\":{\"area\":0,\"part\":\"base\",\"record\":\"r004\"},\"x\":112,\"y\":208}"
            }
          ]
        },
        {
          "id": 64,
          "name": "r006",
          "type": "lava-volume",
          "x": 176,
          "y": 208,
          "width": 0,
          "height": 0,
          "rotation": 0,
          "visible": true,
          "point": true,
          "properties": [
            {
              "name": "sourceJson",
              "type": "string",
              "value": "{\"id\":\"r006\",\"kind\":\"lava-volume\",\"source\":{\"macro\":\"Water\",\"width\":16,\"x\":88,\"y\":0},\"sourcePath\":{\"area\":0,\"part\":\"base\",\"record\":\"r006\"},\"x\":176,\"y\":208}"
            }
          ]
        },
        {
          "id": 65,
          "name": "r008",
          "type": "conditional-section",
          "x": 256,
          "y": 208,
          "width": 0,
          "height": 0,
          "rotation": 0,
          "visible": true,
          "point": true,
          "properties": [
            {
              "name": "sourceJson",
              "type": "string",
              "value": "{\"id\":\"r008\",\"kind\":\"conditional-section\",\"source\":{\"macro\":\"Section\",\"section\":0,\"x\":128,\"y\":0},\"sourcePath\":{\"area\":0,\"part\":\"base\",\"record\":\"r008\"},\"x\":256,\"y\":208}"
            }
          ]
        },
        {
          "id": 66,
          "name": "r015-plant",
          "type": "enemy-piranha",
          "x": 640,
          "y": 160,
          "width": 0,
          "height": 0,
          "rotation": 0,
          "visible": true,
          "point": true,
          "properties": [
            {
              "name": "sourceJson",
              "type": "string",
              "value": "{\"id\":\"r015-plant\",\"kind\":\"enemy-piranha\",\"source\":{\"macro\":\"Pipe\",\"height\":24,\"piranha\":true,\"x\":320,\"y\":24},\"sourcePath\":{\"area\":0,\"part\":\"base\",\"record\":\"r015\"},\"x\":640,\"y\":160}"
            }
          ]
        },
        {
          "id": 67,
          "name": "r017",
          "type": "hidden-block",
          "x": 848,
          "y": 96,
          "width": 0,
          "height": 0,
          "rotation": 0,
          "visible": true,
          "point": true,
          "properties": [
            {
              "name": "sourceJson",
              "type": "string",
              "value": "{\"id\":\"r017\",\"kind\":\"hidden-block\",\"source\":{\"thing\":\"CastleBlock\",\"fireballs\":6,\"hidden\":true,\"x\":424,\"y\":56},\"sourcePath\":{\"area\":0,\"part\":\"base\",\"record\":\"r017\"},\"x\":848,\"y\":96}"
            }
          ]
        },
        {
          "id": 68,
          "name": "r018",
          "type": "hidden-block",
          "x": 960,
          "y": 144,
          "width": 0,
          "height": 0,
          "rotation": 0,
          "visible": true,
          "point": true,
          "properties": [
            {
              "name": "sourceJson",
              "type": "string",
              "value": "{\"id\":\"r018\",\"kind\":\"hidden-block\",\"source\":{\"thing\":\"CastleBlock\",\"fireballs\":6,\"hidden\":true,\"x\":480,\"y\":32},\"sourcePath\":{\"area\":0,\"part\":\"base\",\"record\":\"r018\"},\"x\":960,\"y\":144}"
            }
          ]
        },
        {
          "id": 69,
          "name": "r019",
          "type": "conditional-sectionfail",
          "x": 1024,
          "y": 160,
          "width": 0,
          "height": 0,
          "rotation": 0,
          "visible": true,
          "point": true,
          "properties": [
            {
              "name": "sourceJson",
              "type": "string",
              "value": "{\"id\":\"r019\",\"kind\":\"conditional-sectionfail\",\"source\":{\"macro\":\"SectionFail\",\"width\":40,\"height\":24,\"x\":512,\"y\":24},\"sourcePath\":{\"area\":0,\"part\":\"base\",\"record\":\"r019\"},\"x\":1024,\"y\":160}"
            }
          ]
        },
        {
          "id": 70,
          "name": "r020",
          "type": "conditional-sectionpass",
          "x": 1044,
          "y": 48,
          "width": 0,
          "height": 0,
          "rotation": 0,
          "visible": true,
          "point": true,
          "properties": [
            {
              "name": "sourceJson",
              "type": "string",
              "value": "{\"id\":\"r020\",\"kind\":\"conditional-sectionpass\",\"source\":{\"macro\":\"SectionPass\",\"width\":40,\"height\":24,\"x\":522,\"y\":80},\"sourcePath\":{\"area\":0,\"part\":\"base\",\"record\":\"r020\"},\"x\":1044,\"y\":48}"
            }
          ]
        },
        {
          "id": 71,
          "name": "r028",
          "type": "conditional-sectiondecider",
          "x": 1392,
          "y": 208,
          "width": 0,
          "height": 0,
          "rotation": 0,
          "visible": true,
          "point": true,
          "properties": [
            {
              "name": "sourceJson",
              "type": "string",
              "value": "{\"id\":\"r028\",\"kind\":\"conditional-sectiondecider\",\"source\":{\"macro\":\"SectionDecider\",\"pass\":1,\"fail\":0,\"x\":696,\"y\":0},\"sourcePath\":{\"area\":0,\"part\":\"base\",\"record\":\"r028\"},\"x\":1392,\"y\":208}"
            }
          ]
        },
        {
          "id": 72,
          "name": "r032",
          "type": "lava-volume",
          "x": 1520,
          "y": 208,
          "width": 0,
          "height": 0,
          "rotation": 0,
          "visible": true,
          "point": true,
          "properties": [
            {
              "name": "sourceJson",
              "type": "string",
              "value": "{\"id\":\"r032\",\"kind\":\"lava-volume\",\"source\":{\"macro\":\"Water\",\"width\":16,\"x\":760,\"y\":0},\"sourcePath\":{\"area\":0,\"part\":\"base\",\"record\":\"r032\"},\"x\":1520,\"y\":208}"
            }
          ]
        },
        {
          "id": 73,
          "name": "r036",
          "type": "lava-volume",
          "x": 1568,
          "y": 208,
          "width": 0,
          "height": 0,
          "rotation": 0,
          "visible": true,
          "point": true,
          "properties": [
            {
              "name": "sourceJson",
              "type": "string",
              "value": "{\"id\":\"r036\",\"kind\":\"lava-volume\",\"source\":{\"macro\":\"Water\",\"width\":32,\"x\":784,\"y\":0},\"sourcePath\":{\"area\":0,\"part\":\"base\",\"record\":\"r036\"},\"x\":1568,\"y\":208}"
            }
          ]
        },
        {
          "id": 74,
          "name": "r047",
          "type": "hidden-block",
          "x": 1952,
          "y": 96,
          "width": 0,
          "height": 0,
          "rotation": 0,
          "visible": true,
          "point": true,
          "properties": [
            {
              "name": "sourceJson",
              "type": "string",
              "value": "{\"id\":\"r047\",\"kind\":\"hidden-block\",\"source\":{\"thing\":\"CastleBlock\",\"fireballs\":6,\"hidden\":true,\"x\":976,\"y\":56},\"sourcePath\":{\"area\":0,\"part\":\"base\",\"record\":\"r047\"},\"x\":1952,\"y\":96}"
            }
          ]
        },
        {
          "id": 75,
          "name": "r048",
          "type": "hidden-block",
          "x": 2048,
          "y": 160,
          "width": 0,
          "height": 0,
          "rotation": 0,
          "visible": true,
          "point": true,
          "properties": [
            {
              "name": "sourceJson",
              "type": "string",
              "value": "{\"id\":\"r048\",\"kind\":\"hidden-block\",\"source\":{\"thing\":\"CastleBlock\",\"fireballs\":6,\"hidden\":true,\"x\":1024,\"y\":24},\"sourcePath\":{\"area\":0,\"part\":\"base\",\"record\":\"r048\"},\"x\":2048,\"y\":160}"
            }
          ]
        },
        {
          "id": 76,
          "name": "r049",
          "type": "conditional-sectionpass",
          "x": 2112,
          "y": 176,
          "width": 0,
          "height": 0,
          "rotation": 0,
          "visible": true,
          "point": true,
          "properties": [
            {
              "name": "sourceJson",
              "type": "string",
              "value": "{\"id\":\"r049\",\"kind\":\"conditional-sectionpass\",\"source\":{\"macro\":\"SectionPass\",\"width\":40,\"height\":16,\"x\":1056,\"y\":16},\"sourcePath\":{\"area\":0,\"part\":\"base\",\"record\":\"r049\"},\"x\":2112,\"y\":176}"
            }
          ]
        },
        {
          "id": 77,
          "name": "r050",
          "type": "conditional-sectionfail",
          "x": 2112,
          "y": 112,
          "width": 0,
          "height": 0,
          "rotation": 0,
          "visible": true,
          "point": true,
          "properties": [
            {
              "name": "sourceJson",
              "type": "string",
              "value": "{\"id\":\"r050\",\"kind\":\"conditional-sectionfail\",\"source\":{\"macro\":\"SectionFail\",\"width\":40,\"height\":24,\"x\":1056,\"y\":48},\"sourcePath\":{\"area\":0,\"part\":\"base\",\"record\":\"r050\"},\"x\":2112,\"y\":112}"
            }
          ]
        },
        {
          "id": 78,
          "name": "r051",
          "type": "conditional-sectionfail",
          "x": 2112,
          "y": 48,
          "width": 0,
          "height": 0,
          "rotation": 0,
          "visible": true,
          "point": true,
          "properties": [
            {
              "name": "sourceJson",
              "type": "string",
              "value": "{\"id\":\"r051\",\"kind\":\"conditional-sectionfail\",\"source\":{\"macro\":\"SectionFail\",\"width\":40,\"height\":24,\"x\":1056,\"y\":80},\"sourcePath\":{\"area\":0,\"part\":\"base\",\"record\":\"r051\"},\"x\":2112,\"y\":48}"
            }
          ]
        },
        {
          "id": 79,
          "name": "r064",
          "type": "conditional-sectiondecider",
          "x": 2560,
          "y": 208,
          "width": 0,
          "height": 0,
          "rotation": 0,
          "visible": true,
          "point": true,
          "properties": [
            {
              "name": "sourceJson",
              "type": "string",
              "value": "{\"id\":\"r064\",\"kind\":\"conditional-sectiondecider\",\"source\":{\"macro\":\"SectionDecider\",\"pass\":2,\"x\":1280,\"y\":0},\"sourcePath\":{\"area\":0,\"part\":\"base\",\"record\":\"r064\"},\"x\":2560,\"y\":208}"
            }
          ]
        },
        {
          "id": 80,
          "name": "r065-boss",
          "type": "enemy-bowser",
          "x": 2698,
          "y": 124,
          "width": 0,
          "height": 0,
          "rotation": 0,
          "visible": true,
          "point": true,
          "properties": [
            {
              "name": "sourceJson",
              "type": "string",
              "value": "{\"id\":\"r065-boss\",\"kind\":\"enemy-bowser\",\"source\":{\"thing\":\"Bowser\",\"x\":1349,\"y\":42},\"sourcePath\":{\"area\":0,\"part\":\"base\",\"record\":\"r065\"},\"x\":2698,\"y\":124}"
            }
          ]
        },
        {
          "id": 81,
          "name": "r065-lava",
          "type": "lava-volume",
          "x": 2560,
          "y": 208,
          "width": 0,
          "height": 0,
          "rotation": 0,
          "visible": true,
          "point": true,
          "properties": [
            {
              "name": "sourceJson",
              "type": "string",
              "value": "{\"id\":\"r065-lava\",\"kind\":\"lava-volume\",\"source\":{\"macro\":\"Water\",\"x\":1280,\"y\":0,\"width\":104},\"sourcePath\":{\"area\":0,\"part\":\"base\",\"record\":\"r065\"},\"x\":2560,\"y\":208}"
            }
          ]
        },
        {
          "id": 82,
          "name": "r065-chain",
          "type": "marker-CastleChain",
          "x": 2752,
          "y": 144,
          "width": 0,
          "height": 0,
          "rotation": 0,
          "visible": true,
          "point": true,
          "properties": [
            {
              "name": "sourceJson",
              "type": "string",
              "value": "{\"id\":\"r065-chain\",\"kind\":\"marker-CastleChain\",\"source\":{\"thing\":\"CastleChain\",\"x\":1376,\"y\":32},\"sourcePath\":{\"area\":0,\"part\":\"base\",\"record\":\"r065\"},\"x\":2752,\"y\":144}"
            }
          ]
        },
        {
          "id": 83,
          "name": "r065-axe",
          "type": "bridge-axe-finish",
          "x": 2768,
          "y": 128,
          "width": 0,
          "height": 0,
          "rotation": 0,
          "visible": true,
          "point": true,
          "properties": [
            {
              "name": "sourceJson",
              "type": "string",
              "value": "{\"id\":\"r065-axe\",\"kind\":\"bridge-axe-finish\",\"source\":{\"thing\":\"CastleAxe\",\"x\":1384,\"y\":40},\"sourcePath\":{\"area\":0,\"part\":\"base\",\"record\":\"r065\"},\"x\":2768,\"y\":128}"
            }
          ]
        },
        {
          "id": 84,
          "name": "r065",
          "type": "castle-finish",
          "x": 2560,
          "y": 208,
          "width": 0,
          "height": 0,
          "rotation": 0,
          "visible": true,
          "point": true,
          "properties": [
            {
              "name": "sourceJson",
              "type": "string",
              "value": "{\"id\":\"r065\",\"kind\":\"castle-finish\",\"source\":{\"macro\":\"EndInsideCastle\",\"spawnType\":\"SpinyEgg\",\"transport\":{\"map\":\"5-1\"},\"x\":1280,\"y\":0},\"sourcePath\":{\"area\":0,\"part\":\"base\",\"record\":\"r065\"},\"x\":2560,\"y\":208}"
            }
          ]
        },
        {
          "id": 85,
          "name": "r065-transport",
          "type": "source-transport-not-simulated",
          "x": 2560,
          "y": 208,
          "width": 0,
          "height": 0,
          "rotation": 0,
          "visible": true,
          "point": true,
          "properties": [
            {
              "name": "sourceJson",
              "type": "string",
              "value": "{\"id\":\"r065-transport\",\"kind\":\"source-transport-not-simulated\",\"source\":{\"macro\":\"EndInsideCastle\",\"spawnType\":\"SpinyEgg\",\"transport\":{\"map\":\"5-1\"},\"x\":1280,\"y\":0},\"sourcePath\":{\"area\":0,\"part\":\"base\",\"record\":\"r065\"},\"x\":2560,\"y\":208}"
            }
          ]
        },
        {
          "id": 86,
          "name": "section-mode",
          "type": "conditional-section-runtime",
          "x": 0,
          "y": 32,
          "width": 0,
          "height": 0,
          "rotation": 0,
          "visible": true,
          "point": true,
          "properties": [
            {
              "name": "sourceJson",
              "type": "string",
              "value": "{\"id\":\"section-mode\",\"kind\":\"conditional-section-runtime\",\"source\":{\"x\":0,\"y\":88},\"sourcePath\":{\"area\":0,\"part\":\"base\",\"record\":\"section\"},\"x\":0,\"y\":32}"
            }
          ]
        }
      ]
    }
  ],
  "properties": [
    {
      "name": "room",
      "type": "string",
      "value": "area-0"
    },
    {
      "name": "underwater",
      "type": "bool",
      "value": false
    },
    {
      "name": "inspectionOnly",
      "type": "bool",
      "value": true
    },
    {
      "name": "referenceReview",
      "type": "string",
      "value": "pending"
    }
  ]
}
