{
  "type": "map",
  "version": "1.10",
  "orientation": "orthogonal",
  "renderorder": "right-down",
  "width": 42,
  "height": 15,
  "tilewidth": 16,
  "tileheight": 16,
  "infinite": false,
  "nextlayerid": 4,
  "nextobjectid": 26,
  "tilesets": [],
  "layers": [
    {
      "id": 1,
      "name": "collision",
      "type": "objectgroup",
      "visible": true,
      "opacity": 1,
      "x": 0,
      "y": 0,
      "draworder": "index",
      "objects": [
        {
          "id": 1,
          "name": "r000",
          "type": "solid",
          "x": 0,
          "y": 208,
          "width": 128,
          "height": 32,
          "rotation": 0,
          "visible": true,
          "properties": [
            {
              "name": "sourceJson",
              "type": "string",
              "value": "{\"id\":\"r000\",\"x\":0,\"y\":208,\"w\":128,\"h\":32,\"collision\":\"solid\"}"
            }
          ]
        },
        {
          "id": 2,
          "name": "r001",
          "type": "solid",
          "x": 0,
          "y": 32,
          "width": 672,
          "height": 16,
          "rotation": 0,
          "visible": true,
          "properties": [
            {
              "name": "sourceJson",
              "type": "string",
              "value": "{\"id\":\"r001\",\"x\":0,\"y\":32,\"w\":672,\"h\":16,\"collision\":\"solid\"}"
            }
          ]
        },
        {
          "id": 3,
          "name": "r002",
          "type": "solid",
          "x": 96,
          "y": 160,
          "width": 32,
          "height": 16,
          "rotation": 0,
          "visible": true,
          "properties": [
            {
              "name": "sourceJson",
              "type": "string",
              "value": "{\"id\":\"r002\",\"x\":96,\"y\":160,\"w\":32,\"h\":16,\"collision\":\"solid\"}"
            }
          ]
        },
        {
          "id": 4,
          "name": "r004",
          "type": "solid",
          "x": 144,
          "y": 128,
          "width": 32,
          "height": 16,
          "rotation": 0,
          "visible": true,
          "properties": [
            {
              "name": "sourceJson",
              "type": "string",
              "value": "{\"id\":\"r004\",\"x\":144,\"y\":128,\"w\":32,\"h\":16,\"collision\":\"solid\"}"
            }
          ]
        },
        {
          "id": 5,
          "name": "r005",
          "type": "solid",
          "x": 160,
          "y": 176,
          "width": 16,
          "height": 64,
          "rotation": 0,
          "visible": true,
          "properties": [
            {
              "name": "sourceJson",
              "type": "string",
              "value": "{\"id\":\"r005\",\"x\":160,\"y\":176,\"w\":16,\"h\":64,\"collision\":\"solid\"}"
            }
          ]
        },
        {
          "id": 6,
          "name": "r006",
          "type": "solid",
          "x": 160,
          "y": 160,
          "width": 80,
          "height": 16,
          "rotation": 0,
          "visible": true,
          "properties": [
            {
              "name": "sourceJson",
              "type": "string",
              "value": "{\"id\":\"r006\",\"x\":160,\"y\":160,\"w\":80,\"h\":16,\"collision\":\"solid\"}"
            }
          ]
        },
        {
          "id": 7,
          "name": "r008",
          "type": "solid",
          "x": 208,
          "y": 112,
          "width": 16,
          "height": 16,
          "rotation": 0,
          "visible": true,
          "properties": [
            {
              "name": "sourceJson",
              "type": "string",
              "value": "{\"id\":\"r008\",\"x\":208,\"y\":112,\"w\":16,\"h\":16,\"collision\":\"solid\"}"
            }
          ]
        },
        {
          "id": 8,
          "name": "r009",
          "type": "solid",
          "x": 224,
          "y": 128,
          "width": 16,
          "height": 32,
          "rotation": 0,
          "visible": true,
          "properties": [
            {
              "name": "sourceJson",
              "type": "string",
              "value": "{\"id\":\"r009\",\"x\":224,\"y\":128,\"w\":16,\"h\":32,\"collision\":\"solid\"}"
            }
          ]
        },
        {
          "id": 9,
          "name": "r010",
          "type": "solid",
          "x": 240,
          "y": 208,
          "width": 432,
          "height": 32,
          "rotation": 0,
          "visible": true,
          "properties": [
            {
              "name": "sourceJson",
              "type": "string",
              "value": "{\"id\":\"r010\",\"x\":240,\"y\":208,\"w\":432,\"h\":32,\"collision\":\"solid\"}"
            }
          ]
        },
        {
          "id": 10,
          "name": "r011",
          "type": "solid",
          "x": 240,
          "y": 96,
          "width": 16,
          "height": 32,
          "rotation": 0,
          "visible": true,
          "properties": [
            {
              "name": "sourceJson",
              "type": "string",
              "value": "{\"id\":\"r011\",\"x\":240,\"y\":96,\"w\":16,\"h\":32,\"collision\":\"solid\"}"
            }
          ]
        },
        {
          "id": 11,
          "name": "r012",
          "type": "solid",
          "x": 256,
          "y": 160,
          "width": 416,
          "height": 16,
          "rotation": 0,
          "visible": true,
          "properties": [
            {
              "name": "sourceJson",
              "type": "string",
              "value": "{\"id\":\"r012\",\"x\":256,\"y\":160,\"w\":416,\"h\":16,\"collision\":\"solid\"}"
            }
          ]
        },
        {
          "id": 12,
          "name": "r013",
          "type": "solid",
          "x": 256,
          "y": 96,
          "width": 32,
          "height": 16,
          "rotation": 0,
          "visible": true,
          "properties": [
            {
              "name": "sourceJson",
              "type": "string",
              "value": "{\"id\":\"r013\",\"x\":256,\"y\":96,\"w\":32,\"h\":16,\"collision\":\"solid\"}"
            }
          ]
        },
        {
          "id": 13,
          "name": "r014",
          "type": "solid",
          "x": 320,
          "y": 96,
          "width": 64,
          "height": 16,
          "rotation": 0,
          "visible": true,
          "properties": [
            {
              "name": "sourceJson",
              "type": "string",
              "value": "{\"id\":\"r014\",\"x\":320,\"y\":96,\"w\":64,\"h\":16,\"collision\":\"solid\"}"
            }
          ]
        },
        {
          "id": 14,
          "name": "r015",
          "type": "solid",
          "x": 400,
          "y": 112,
          "width": 16,
          "height": 48,
          "rotation": 0,
          "visible": true,
          "properties": [
            {
              "name": "sourceJson",
              "type": "string",
              "value": "{\"id\":\"r015\",\"x\":400,\"y\":112,\"w\":16,\"h\":48,\"collision\":\"solid\"}"
            }
          ]
        },
        {
          "id": 15,
          "name": "r016",
          "type": "solid",
          "x": 400,
          "y": 96,
          "width": 48,
          "height": 16,
          "rotation": 0,
          "visible": true,
          "properties": [
            {
              "name": "sourceJson",
              "type": "string",
              "value": "{\"id\":\"r016\",\"x\":400,\"y\":96,\"w\":48,\"h\":16,\"collision\":\"solid\"}"
            }
          ]
        },
        {
          "id": 16,
          "name": "r017",
          "type": "solid",
          "x": 480,
          "y": 96,
          "width": 192,
          "height": 16,
          "rotation": 0,
          "visible": true,
          "properties": [
            {
              "name": "sourceJson",
              "type": "string",
              "value": "{\"id\":\"r017\",\"x\":480,\"y\":96,\"w\":192,\"h\":16,\"collision\":\"solid\"}"
            }
          ]
        }
      ]
    },
    {
      "id": 2,
      "name": "objects",
      "type": "objectgroup",
      "visible": true,
      "opacity": 1,
      "x": 0,
      "y": 0,
      "draworder": "index",
      "objects": [
        {
          "id": 17,
          "name": "inspection-start",
          "type": "spawn",
          "x": 24,
          "y": 184,
          "width": 12,
          "height": 24,
          "rotation": 0,
          "visible": true,
          "properties": [
            {
              "name": "sourceJson",
              "type": "string",
              "value": "{\"id\":\"inspection-start\",\"kind\":\"spawn\",\"x\":24,\"y\":184,\"w\":12,\"h\":24}"
            }
          ]
        }
      ]
    },
    {
      "id": 3,
      "name": "pending-mechanics",
      "type": "objectgroup",
      "visible": true,
      "opacity": 1,
      "x": 0,
      "y": 0,
      "draworder": "index",
      "objects": [
        {
          "id": 18,
          "name": "r003",
          "type": "lava-volume",
          "x": 128,
          "y": 208,
          "width": 0,
          "height": 0,
          "rotation": 0,
          "visible": true,
          "point": true,
          "properties": [
            {
              "name": "sourceJson",
              "type": "string",
              "value": "{\"id\":\"r003\",\"kind\":\"lava-volume\",\"source\":{\"macro\":\"Water\",\"width\":16,\"x\":64,\"y\":0},\"sourcePath\":{\"area\":0,\"section\":1,\"part\":\"before\",\"record\":\"r003\"},\"x\":128,\"y\":208}"
            }
          ]
        },
        {
          "id": 19,
          "name": "r007",
          "type": "lava-volume",
          "x": 176,
          "y": 208,
          "width": 0,
          "height": 0,
          "rotation": 0,
          "visible": true,
          "point": true,
          "properties": [
            {
              "name": "sourceJson",
              "type": "string",
              "value": "{\"id\":\"r007\",\"kind\":\"lava-volume\",\"source\":{\"macro\":\"Water\",\"width\":32,\"x\":88,\"y\":0},\"sourcePath\":{\"area\":0,\"section\":1,\"part\":\"before\",\"record\":\"r007\"},\"x\":176,\"y\":208}"
            }
          ]
        },
        {
          "id": 20,
          "name": "r018",
          "type": "hidden-block",
          "x": 560,
          "y": 96,
          "width": 0,
          "height": 0,
          "rotation": 0,
          "visible": true,
          "point": true,
          "properties": [
            {
              "name": "sourceJson",
              "type": "string",
              "value": "{\"id\":\"r018\",\"kind\":\"hidden-block\",\"source\":{\"thing\":\"CastleBlock\",\"fireballs\":6,\"hidden\":true,\"x\":280,\"y\":56},\"sourcePath\":{\"area\":0,\"section\":1,\"part\":\"before\",\"record\":\"r018\"},\"x\":560,\"y\":96}"
            }
          ]
        },
        {
          "id": 21,
          "name": "r019",
          "type": "hidden-block",
          "x": 656,
          "y": 160,
          "width": 0,
          "height": 0,
          "rotation": 0,
          "visible": true,
          "point": true,
          "properties": [
            {
              "name": "sourceJson",
              "type": "string",
              "value": "{\"id\":\"r019\",\"kind\":\"hidden-block\",\"source\":{\"thing\":\"CastleBlock\",\"fireballs\":6,\"hidden\":true,\"x\":328,\"y\":24},\"sourcePath\":{\"area\":0,\"section\":1,\"part\":\"before\",\"record\":\"r019\"},\"x\":656,\"y\":160}"
            }
          ]
        },
        {
          "id": 22,
          "name": "r020",
          "type": "conditional-sectionpass",
          "x": 720,
          "y": 176,
          "width": 0,
          "height": 0,
          "rotation": 0,
          "visible": true,
          "point": true,
          "properties": [
            {
              "name": "sourceJson",
              "type": "string",
              "value": "{\"id\":\"r020\",\"kind\":\"conditional-sectionpass\",\"source\":{\"macro\":\"SectionPass\",\"width\":40,\"height\":16,\"x\":360,\"y\":16},\"sourcePath\":{\"area\":0,\"section\":1,\"part\":\"before\",\"record\":\"r020\"},\"x\":720,\"y\":176}"
            }
          ]
        },
        {
          "id": 23,
          "name": "r021",
          "type": "conditional-sectionfail",
          "x": 720,
          "y": 112,
          "width": 0,
          "height": 0,
          "rotation": 0,
          "visible": true,
          "point": true,
          "properties": [
            {
              "name": "sourceJson",
              "type": "string",
              "value": "{\"id\":\"r021\",\"kind\":\"conditional-sectionfail\",\"source\":{\"macro\":\"SectionFail\",\"width\":40,\"height\":24,\"x\":360,\"y\":48},\"sourcePath\":{\"area\":0,\"section\":1,\"part\":\"before\",\"record\":\"r021\"},\"x\":720,\"y\":112}"
            }
          ]
        },
        {
          "id": 24,
          "name": "r022",
          "type": "conditional-sectionfail",
          "x": 720,
          "y": 48,
          "width": 0,
          "height": 0,
          "rotation": 0,
          "visible": true,
          "point": true,
          "properties": [
            {
              "name": "sourceJson",
              "type": "string",
              "value": "{\"id\":\"r022\",\"kind\":\"conditional-sectionfail\",\"source\":{\"macro\":\"SectionFail\",\"width\":40,\"height\":24,\"x\":360,\"y\":80},\"sourcePath\":{\"area\":0,\"section\":1,\"part\":\"before\",\"record\":\"r022\"},\"x\":720,\"y\":48}"
            }
          ]
        },
        {
          "id": 25,
          "name": "section-mode",
          "type": "conditional-section-runtime",
          "x": 0,
          "y": 32,
          "width": 0,
          "height": 0,
          "rotation": 0,
          "visible": true,
          "point": true,
          "properties": [
            {
              "name": "sourceJson",
              "type": "string",
              "value": "{\"id\":\"section-mode\",\"kind\":\"conditional-section-runtime\",\"source\":{\"x\":0,\"y\":88},\"sourcePath\":{\"area\":0,\"section\":1,\"part\":\"before\",\"record\":\"section\"},\"x\":0,\"y\":32}"
            }
          ]
        }
      ]
    }
  ],
  "properties": [
    {
      "name": "room",
      "type": "string",
      "value": "area-0-section-1-before"
    },
    {
      "name": "underwater",
      "type": "bool",
      "value": false
    },
    {
      "name": "inspectionOnly",
      "type": "bool",
      "value": true
    },
    {
      "name": "referenceReview",
      "type": "string",
      "value": "pending"
    }
  ]
}
