{
  "type": "map",
  "version": "1.10",
  "orientation": "orthogonal",
  "renderorder": "right-down",
  "width": 160,
  "height": 15,
  "tilewidth": 16,
  "tileheight": 16,
  "infinite": false,
  "nextlayerid": 4,
  "nextobjectid": 68,
  "tilesets": [],
  "layers": [
    {
      "id": 1,
      "name": "collision",
      "type": "objectgroup",
      "visible": true,
      "opacity": 1,
      "x": 0,
      "y": 0,
      "draworder": "index",
      "objects": [
        {
          "id": 1,
          "name": "r000-0",
          "type": "solid",
          "x": 0,
          "y": 112,
          "width": 48,
          "height": 128,
          "rotation": 0,
          "visible": true,
          "properties": [
            {
              "name": "sourceJson",
              "type": "string",
              "value": "{\"id\":\"r000-0\",\"x\":0,\"y\":112,\"w\":48,\"h\":128,\"collision\":\"solid\"}"
            }
          ]
        },
        {
          "id": 2,
          "name": "r000-24",
          "type": "solid",
          "x": 48,
          "y": 128,
          "width": 16,
          "height": 112,
          "rotation": 0,
          "visible": true,
          "properties": [
            {
              "name": "sourceJson",
              "type": "string",
              "value": "{\"id\":\"r000-24\",\"x\":48,\"y\":128,\"w\":16,\"h\":112,\"collision\":\"solid\"}"
            }
          ]
        },
        {
          "id": 3,
          "name": "r000-32",
          "type": "solid",
          "x": 64,
          "y": 144,
          "width": 16,
          "height": 96,
          "rotation": 0,
          "visible": true,
          "properties": [
            {
              "name": "sourceJson",
              "type": "string",
              "value": "{\"id\":\"r000-32\",\"x\":64,\"y\":144,\"w\":16,\"h\":96,\"collision\":\"solid\"}"
            }
          ]
        },
        {
          "id": 4,
          "name": "r000-floor",
          "type": "solid",
          "x": 80,
          "y": 160,
          "width": 128,
          "height": 80,
          "rotation": 0,
          "visible": true,
          "properties": [
            {
              "name": "sourceJson",
              "type": "string",
              "value": "{\"id\":\"r000-floor\",\"x\":80,\"y\":160,\"w\":128,\"h\":80,\"collision\":\"solid\"}"
            }
          ]
        },
        {
          "id": 5,
          "name": "r001",
          "type": "solid",
          "x": 0,
          "y": 32,
          "width": 384,
          "height": 48,
          "rotation": 0,
          "visible": true,
          "properties": [
            {
              "name": "sourceJson",
              "type": "string",
              "value": "{\"id\":\"r001\",\"x\":0,\"y\":32,\"w\":384,\"h\":48,\"collision\":\"solid\"}"
            }
          ]
        },
        {
          "id": 6,
          "name": "r003",
          "type": "solid",
          "x": 240,
          "y": 160,
          "width": 176,
          "height": 80,
          "rotation": 0,
          "visible": true,
          "properties": [
            {
              "name": "sourceJson",
              "type": "string",
              "value": "{\"id\":\"r003\",\"x\":240,\"y\":160,\"w\":176,\"h\":80,\"collision\":\"solid\"}"
            }
          ]
        },
        {
          "id": 7,
          "name": "r004",
          "type": "solid",
          "x": 368,
          "y": 80,
          "width": 16,
          "height": 16,
          "rotation": 0,
          "visible": true,
          "properties": [
            {
              "name": "sourceJson",
              "type": "string",
              "value": "{\"id\":\"r004\",\"x\":368,\"y\":80,\"w\":16,\"h\":16,\"collision\":\"solid\"}"
            }
          ]
        },
        {
          "id": 8,
          "name": "r005",
          "type": "solid",
          "x": 368,
          "y": 96,
          "width": 16,
          "height": 16,
          "rotation": 0,
          "visible": true,
          "properties": [
            {
              "name": "sourceJson",
              "type": "string",
              "value": "{\"id\":\"r005\",\"x\":368,\"y\":96,\"w\":16,\"h\":16,\"collision\":\"solid\"}"
            }
          ]
        },
        {
          "id": 9,
          "name": "r006",
          "type": "solid",
          "x": 384,
          "y": 32,
          "width": 2176,
          "height": 16,
          "rotation": 0,
          "visible": true,
          "properties": [
            {
              "name": "sourceJson",
              "type": "string",
              "value": "{\"id\":\"r006\",\"x\":384,\"y\":32,\"w\":2176,\"h\":16,\"collision\":\"solid\"}"
            }
          ]
        },
        {
          "id": 10,
          "name": "r008",
          "type": "solid",
          "x": 464,
          "y": 160,
          "width": 16,
          "height": 80,
          "rotation": 0,
          "visible": true,
          "properties": [
            {
              "name": "sourceJson",
              "type": "string",
              "value": "{\"id\":\"r008\",\"x\":464,\"y\":160,\"w\":16,\"h\":80,\"collision\":\"solid\"}"
            }
          ]
        },
        {
          "id": 11,
          "name": "r009",
          "type": "solid",
          "x": 480,
          "y": 176,
          "width": 16,
          "height": 64,
          "rotation": 0,
          "visible": true,
          "properties": [
            {
              "name": "sourceJson",
              "type": "string",
              "value": "{\"id\":\"r009\",\"x\":480,\"y\":176,\"w\":16,\"h\":64,\"collision\":\"solid\"}"
            }
          ]
        },
        {
          "id": 12,
          "name": "r010",
          "type": "solid",
          "x": 480,
          "y": 160,
          "width": 16,
          "height": 16,
          "rotation": 0,
          "visible": true,
          "properties": [
            {
              "name": "sourceJson",
              "type": "string",
              "value": "{\"id\":\"r010\",\"x\":480,\"y\":160,\"w\":16,\"h\":16,\"collision\":\"solid\"}"
            }
          ]
        },
        {
          "id": 13,
          "name": "r011",
          "type": "solid",
          "x": 480,
          "y": 96,
          "width": 16,
          "height": 16,
          "rotation": 0,
          "visible": true,
          "properties": [
            {
              "name": "sourceJson",
              "type": "string",
              "value": "{\"id\":\"r011\",\"x\":480,\"y\":96,\"w\":16,\"h\":16,\"collision\":\"solid\"}"
            }
          ]
        },
        {
          "id": 14,
          "name": "r012",
          "type": "solid",
          "x": 496,
          "y": 160,
          "width": 16,
          "height": 80,
          "rotation": 0,
          "visible": true,
          "properties": [
            {
              "name": "sourceJson",
              "type": "string",
              "value": "{\"id\":\"r012\",\"x\":496,\"y\":160,\"w\":16,\"h\":80,\"collision\":\"solid\"}"
            }
          ]
        },
        {
          "id": 15,
          "name": "r014",
          "type": "solid",
          "x": 560,
          "y": 208,
          "width": 1488,
          "height": 32,
          "rotation": 0,
          "visible": true,
          "properties": [
            {
              "name": "sourceJson",
              "type": "string",
              "value": "{\"id\":\"r014\",\"x\":560,\"y\":208,\"w\":1488,\"h\":32,\"collision\":\"solid\"}"
            }
          ]
        },
        {
          "id": 16,
          "name": "r015",
          "type": "solid",
          "x": 560,
          "y": 144,
          "width": 592,
          "height": 16,
          "rotation": 0,
          "visible": true,
          "properties": [
            {
              "name": "sourceJson",
              "type": "string",
              "value": "{\"id\":\"r015\",\"x\":560,\"y\":144,\"w\":592,\"h\":16,\"collision\":\"solid\"}"
            }
          ]
        },
        {
          "id": 17,
          "name": "r016",
          "type": "solid",
          "x": 560,
          "y": 160,
          "width": 1104,
          "height": 48,
          "rotation": 0,
          "visible": true,
          "properties": [
            {
              "name": "sourceJson",
              "type": "string",
              "value": "{\"id\":\"r016\",\"x\":560,\"y\":160,\"w\":1104,\"h\":48,\"collision\":\"solid\"}"
            }
          ]
        },
        {
          "id": 18,
          "name": "r017",
          "type": "solid",
          "x": 592,
          "y": 48,
          "width": 560,
          "height": 48,
          "rotation": 0,
          "visible": true,
          "properties": [
            {
              "name": "sourceJson",
              "type": "string",
              "value": "{\"id\":\"r017\",\"x\":592,\"y\":48,\"w\":560,\"h\":48,\"collision\":\"solid\"}"
            }
          ]
        },
        {
          "id": 19,
          "name": "r018",
          "type": "solid",
          "x": 592,
          "y": 96,
          "width": 16,
          "height": 16,
          "rotation": 0,
          "visible": true,
          "properties": [
            {
              "name": "sourceJson",
              "type": "string",
              "value": "{\"id\":\"r018\",\"x\":592,\"y\":96,\"w\":16,\"h\":16,\"collision\":\"solid\"}"
            }
          ]
        },
        {
          "id": 20,
          "name": "r019",
          "type": "solid",
          "x": 784,
          "y": 96,
          "width": 16,
          "height": 16,
          "rotation": 0,
          "visible": true,
          "properties": [
            {
              "name": "sourceJson",
              "type": "string",
              "value": "{\"id\":\"r019\",\"x\":784,\"y\":96,\"w\":16,\"h\":16,\"collision\":\"solid\"}"
            }
          ]
        },
        {
          "id": 21,
          "name": "r020",
          "type": "solid",
          "x": 960,
          "y": 96,
          "width": 16,
          "height": 16,
          "rotation": 0,
          "visible": true,
          "properties": [
            {
              "name": "sourceJson",
              "type": "string",
              "value": "{\"id\":\"r020\",\"x\":960,\"y\":96,\"w\":16,\"h\":16,\"collision\":\"solid\"}"
            }
          ]
        },
        {
          "id": 22,
          "name": "r021",
          "type": "solid",
          "x": 1072,
          "y": 96,
          "width": 16,
          "height": 16,
          "rotation": 0,
          "visible": true,
          "properties": [
            {
              "name": "sourceJson",
              "type": "string",
              "value": "{\"id\":\"r021\",\"x\":1072,\"y\":96,\"w\":16,\"h\":16,\"collision\":\"solid\"}"
            }
          ]
        },
        {
          "id": 23,
          "name": "r022",
          "type": "solid",
          "x": 1216,
          "y": 144,
          "width": 16,
          "height": 16,
          "rotation": 0,
          "visible": true,
          "properties": [
            {
              "name": "sourceJson",
              "type": "string",
              "value": "{\"id\":\"r022\",\"x\":1216,\"y\":144,\"w\":16,\"h\":16,\"collision\":\"solid\"}"
            }
          ]
        },
        {
          "id": 24,
          "name": "r023",
          "type": "solid",
          "x": 1280,
          "y": 64,
          "width": 16,
          "height": 16,
          "rotation": 0,
          "visible": true,
          "properties": [
            {
              "name": "sourceJson",
              "type": "string",
              "value": "{\"id\":\"r023\",\"x\":1280,\"y\":64,\"w\":16,\"h\":16,\"collision\":\"solid\"}"
            }
          ]
        },
        {
          "id": 25,
          "name": "r024",
          "type": "solid",
          "x": 1280,
          "y": 48,
          "width": 16,
          "height": 16,
          "rotation": 0,
          "visible": true,
          "properties": [
            {
              "name": "sourceJson",
              "type": "string",
              "value": "{\"id\":\"r024\",\"x\":1280,\"y\":48,\"w\":16,\"h\":16,\"collision\":\"solid\"}"
            }
          ]
        },
        {
          "id": 26,
          "name": "r025",
          "type": "solid",
          "x": 1344,
          "y": 144,
          "width": 16,
          "height": 16,
          "rotation": 0,
          "visible": true,
          "properties": [
            {
              "name": "sourceJson",
              "type": "string",
              "value": "{\"id\":\"r025\",\"x\":1344,\"y\":144,\"w\":16,\"h\":16,\"collision\":\"solid\"}"
            }
          ]
        },
        {
          "id": 27,
          "name": "r026",
          "type": "solid",
          "x": 1408,
          "y": 64,
          "width": 16,
          "height": 16,
          "rotation": 0,
          "visible": true,
          "properties": [
            {
              "name": "sourceJson",
              "type": "string",
              "value": "{\"id\":\"r026\",\"x\":1408,\"y\":64,\"w\":16,\"h\":16,\"collision\":\"solid\"}"
            }
          ]
        },
        {
          "id": 28,
          "name": "r027",
          "type": "solid",
          "x": 1408,
          "y": 48,
          "width": 16,
          "height": 16,
          "rotation": 0,
          "visible": true,
          "properties": [
            {
              "name": "sourceJson",
              "type": "string",
              "value": "{\"id\":\"r027\",\"x\":1408,\"y\":48,\"w\":16,\"h\":16,\"collision\":\"solid\"}"
            }
          ]
        },
        {
          "id": 29,
          "name": "r028",
          "type": "solid",
          "x": 1472,
          "y": 144,
          "width": 16,
          "height": 16,
          "rotation": 0,
          "visible": true,
          "properties": [
            {
              "name": "sourceJson",
              "type": "string",
              "value": "{\"id\":\"r028\",\"x\":1472,\"y\":144,\"w\":16,\"h\":16,\"collision\":\"solid\"}"
            }
          ]
        },
        {
          "id": 30,
          "name": "r029",
          "type": "solid",
          "x": 1552,
          "y": 48,
          "width": 112,
          "height": 32,
          "rotation": 0,
          "visible": true,
          "properties": [
            {
              "name": "sourceJson",
              "type": "string",
              "value": "{\"id\":\"r029\",\"x\":1552,\"y\":48,\"w\":112,\"h\":32,\"collision\":\"solid\"}"
            }
          ]
        },
        {
          "id": 31,
          "name": "r032",
          "type": "solid",
          "x": 1856,
          "y": 160,
          "width": 64,
          "height": 48,
          "rotation": 0,
          "visible": true,
          "properties": [
            {
              "name": "sourceJson",
              "type": "string",
              "value": "{\"id\":\"r032\",\"x\":1856,\"y\":160,\"w\":64,\"h\":48,\"collision\":\"solid\"}"
            }
          ]
        },
        {
          "id": 32,
          "name": "r033",
          "type": "solid",
          "x": 1968,
          "y": 160,
          "width": 80,
          "height": 48,
          "rotation": 0,
          "visible": true,
          "properties": [
            {
              "name": "sourceJson",
              "type": "string",
              "value": "{\"id\":\"r033\",\"x\":1968,\"y\":160,\"w\":80,\"h\":48,\"collision\":\"solid\"}"
            }
          ]
        },
        {
          "id": 33,
          "name": "r034",
          "type": "solid",
          "x": 1968,
          "y": 48,
          "width": 80,
          "height": 32,
          "rotation": 0,
          "visible": true,
          "properties": [
            {
              "name": "sourceJson",
              "type": "string",
              "value": "{\"id\":\"r034\",\"x\":1968,\"y\":48,\"w\":80,\"h\":32,\"collision\":\"solid\"}"
            }
          ]
        },
        {
          "id": 34,
          "name": "r035-roof",
          "type": "solid",
          "x": 2048,
          "y": 32,
          "width": 512,
          "height": 16,
          "rotation": 0,
          "visible": true,
          "properties": [
            {
              "name": "sourceJson",
              "type": "string",
              "value": "{\"id\":\"r035-roof\",\"x\":2048,\"y\":32,\"w\":512,\"h\":16,\"collision\":\"solid\"}"
            }
          ]
        },
        {
          "id": 35,
          "name": "r035-bridge",
          "type": "solid",
          "x": 2048,
          "y": 160,
          "width": 208,
          "height": 16,
          "rotation": 0,
          "visible": true,
          "properties": [
            {
              "name": "sourceJson",
              "type": "string",
              "value": "{\"id\":\"r035-bridge\",\"x\":2048,\"y\":160,\"w\":208,\"h\":16,\"collision\":\"solid\"}"
            }
          ]
        },
        {
          "id": 36,
          "name": "r035-floor",
          "type": "solid",
          "x": 2256,
          "y": 208,
          "width": 304,
          "height": 32,
          "rotation": 0,
          "visible": true,
          "properties": [
            {
              "name": "sourceJson",
              "type": "string",
              "value": "{\"id\":\"r035-floor\",\"x\":2256,\"y\":208,\"w\":304,\"h\":32,\"collision\":\"solid\"}"
            }
          ]
        },
        {
          "id": 37,
          "name": "r035-step",
          "type": "solid",
          "x": 2256,
          "y": 144,
          "width": 48,
          "height": 64,
          "rotation": 0,
          "visible": true,
          "properties": [
            {
              "name": "sourceJson",
              "type": "string",
              "value": "{\"id\":\"r035-step\",\"x\":2256,\"y\":144,\"w\":48,\"h\":64,\"collision\":\"solid\"}"
            }
          ]
        },
        {
          "id": 38,
          "name": "r035-ceiling",
          "type": "solid",
          "x": 2272,
          "y": 48,
          "width": 32,
          "height": 48,
          "rotation": 0,
          "visible": true,
          "properties": [
            {
              "name": "sourceJson",
              "type": "string",
              "value": "{\"id\":\"r035-ceiling\",\"x\":2272,\"y\":48,\"w\":32,\"h\":48,\"collision\":\"solid\"}"
            }
          ]
        }
      ]
    },
    {
      "id": 2,
      "name": "objects",
      "type": "objectgroup",
      "visible": true,
      "opacity": 1,
      "x": 0,
      "y": 0,
      "draworder": "index",
      "objects": [
        {
          "id": 39,
          "name": "r002",
          "type": "hazard",
          "x": 208,
          "y": 192,
          "width": 48,
          "height": 48,
          "rotation": 0,
          "visible": true,
          "properties": [
            {
              "name": "sourceJson",
              "type": "string",
              "value": "{\"id\":\"r002\",\"kind\":\"hazard\",\"x\":208,\"y\":192,\"w\":48,\"h\":48}"
            }
          ]
        },
        {
          "id": 40,
          "name": "r007",
          "type": "hazard",
          "x": 416,
          "y": 208,
          "width": 48,
          "height": 32,
          "rotation": 0,
          "visible": true,
          "properties": [
            {
              "name": "sourceJson",
              "type": "string",
              "value": "{\"id\":\"r007\",\"kind\":\"hazard\",\"x\":416,\"y\":208,\"w\":48,\"h\":32}"
            }
          ]
        },
        {
          "id": 41,
          "name": "r013",
          "type": "hazard",
          "x": 512,
          "y": 208,
          "width": 48,
          "height": 32,
          "rotation": 0,
          "visible": true,
          "properties": [
            {
              "name": "sourceJson",
              "type": "string",
              "value": "{\"id\":\"r013\",\"kind\":\"hazard\",\"x\":512,\"y\":208,\"w\":48,\"h\":32}"
            }
          ]
        },
        {
          "id": 42,
          "name": "r035-lava",
          "type": "hazard",
          "x": 2048,
          "y": 208,
          "width": 208,
          "height": 32,
          "rotation": 0,
          "visible": true,
          "properties": [
            {
              "name": "sourceJson",
              "type": "string",
              "value": "{\"id\":\"r035-lava\",\"kind\":\"hazard\",\"x\":2048,\"y\":208,\"w\":208,\"h\":32}"
            }
          ]
        },
        {
          "id": 43,
          "name": "r035-exit",
          "type": "exit",
          "x": 2408,
          "y": 176,
          "width": 24,
          "height": 32,
          "rotation": 0,
          "visible": true,
          "properties": [
            {
              "name": "sourceJson",
              "type": "string",
              "value": "{\"id\":\"r035-exit\",\"kind\":\"exit\",\"x\":2408,\"y\":176,\"w\":24,\"h\":32}"
            }
          ]
        },
        {
          "id": 44,
          "name": "location-0",
          "type": "spawn",
          "x": 32,
          "y": 88,
          "width": 12,
          "height": 24,
          "rotation": 0,
          "visible": true,
          "properties": [
            {
              "name": "sourceJson",
              "type": "string",
              "value": "{\"id\":\"location-0\",\"kind\":\"spawn\",\"x\":32,\"y\":88,\"w\":12,\"h\":24}"
            }
          ]
        }
      ]
    },
    {
      "id": 3,
      "name": "pending-mechanics",
      "type": "objectgroup",
      "visible": true,
      "opacity": 1,
      "x": 0,
      "y": 0,
      "draworder": "index",
      "objects": [
        {
          "id": 45,
          "name": "r002-visual",
          "type": "lava-art",
          "x": 208,
          "y": 192,
          "width": 0,
          "height": 0,
          "rotation": 0,
          "visible": true,
          "point": true,
          "properties": [
            {
              "name": "sourceJson",
              "type": "string",
              "value": "{\"id\":\"r002-visual\",\"kind\":\"lava-art\",\"source\":{\"macro\":\"Water\",\"x\":104,\"y\":8,\"width\":24},\"x\":208,\"y\":192}"
            }
          ]
        },
        {
          "id": 46,
          "name": "r007-visual",
          "type": "lava-art",
          "x": 416,
          "y": 208,
          "width": 0,
          "height": 0,
          "rotation": 0,
          "visible": true,
          "point": true,
          "properties": [
            {
              "name": "sourceJson",
              "type": "string",
              "value": "{\"id\":\"r007-visual\",\"kind\":\"lava-art\",\"source\":{\"macro\":\"Water\",\"x\":208,\"y\":0,\"width\":24},\"x\":416,\"y\":208}"
            }
          ]
        },
        {
          "id": 47,
          "name": "r010-firebar",
          "type": "rotating-firebar",
          "x": 480,
          "y": 160,
          "width": 0,
          "height": 0,
          "rotation": 0,
          "visible": true,
          "point": true,
          "properties": [
            {
              "name": "sourceJson",
              "type": "string",
              "value": "{\"id\":\"r010-firebar\",\"kind\":\"rotating-firebar\",\"source\":{\"thing\":\"CastleBlock\",\"x\":240,\"y\":24,\"fireballs\":6,\"speed\":-1},\"x\":480,\"y\":160}"
            }
          ]
        },
        {
          "id": 48,
          "name": "r011-contents",
          "type": "block-contents",
          "x": 480,
          "y": 96,
          "width": 0,
          "height": 0,
          "rotation": 0,
          "visible": true,
          "point": true,
          "properties": [
            {
              "name": "sourceJson",
              "type": "string",
              "value": "{\"id\":\"r011-contents\",\"kind\":\"block-contents\",\"source\":{\"thing\":\"Block\",\"x\":240,\"y\":56,\"contents\":\"Mushroom\"},\"x\":480,\"y\":96}"
            }
          ]
        },
        {
          "id": 49,
          "name": "r013-visual",
          "type": "lava-art",
          "x": 512,
          "y": 208,
          "width": 0,
          "height": 0,
          "rotation": 0,
          "visible": true,
          "point": true,
          "properties": [
            {
              "name": "sourceJson",
              "type": "string",
              "value": "{\"id\":\"r013-visual\",\"kind\":\"lava-art\",\"source\":{\"macro\":\"Water\",\"x\":256,\"y\":0,\"width\":24},\"x\":512,\"y\":208}"
            }
          ]
        },
        {
          "id": 50,
          "name": "r019-firebar",
          "type": "rotating-firebar",
          "x": 784,
          "y": 96,
          "width": 0,
          "height": 0,
          "rotation": 0,
          "visible": true,
          "point": true,
          "properties": [
            {
              "name": "sourceJson",
              "type": "string",
              "value": "{\"id\":\"r019-firebar\",\"kind\":\"rotating-firebar\",\"source\":{\"thing\":\"CastleBlock\",\"x\":392,\"y\":56,\"fireballs\":6},\"x\":784,\"y\":96}"
            }
          ]
        },
        {
          "id": 51,
          "name": "r020-firebar",
          "type": "rotating-firebar",
          "x": 960,
          "y": 96,
          "width": 0,
          "height": 0,
          "rotation": 0,
          "visible": true,
          "point": true,
          "properties": [
            {
              "name": "sourceJson",
              "type": "string",
              "value": "{\"id\":\"r020-firebar\",\"kind\":\"rotating-firebar\",\"source\":{\"thing\":\"CastleBlock\",\"x\":480,\"y\":56,\"fireballs\":6},\"x\":960,\"y\":96}"
            }
          ]
        },
        {
          "id": 52,
          "name": "r021-firebar",
          "type": "rotating-firebar",
          "x": 1072,
          "y": 96,
          "width": 0,
          "height": 0,
          "rotation": 0,
          "visible": true,
          "point": true,
          "properties": [
            {
              "name": "sourceJson",
              "type": "string",
              "value": "{\"id\":\"r021-firebar\",\"kind\":\"rotating-firebar\",\"source\":{\"thing\":\"CastleBlock\",\"x\":536,\"y\":56,\"fireballs\":6},\"x\":1072,\"y\":96}"
            }
          ]
        },
        {
          "id": 53,
          "name": "r022-firebar",
          "type": "rotating-firebar",
          "x": 1216,
          "y": 144,
          "width": 0,
          "height": 0,
          "rotation": 0,
          "visible": true,
          "point": true,
          "properties": [
            {
              "name": "sourceJson",
              "type": "string",
              "value": "{\"id\":\"r022-firebar\",\"kind\":\"rotating-firebar\",\"source\":{\"thing\":\"CastleBlock\",\"x\":608,\"y\":32,\"fireballs\":6},\"x\":1216,\"y\":144}"
            }
          ]
        },
        {
          "id": 54,
          "name": "r025-firebar",
          "type": "rotating-firebar",
          "x": 1344,
          "y": 144,
          "width": 0,
          "height": 0,
          "rotation": 0,
          "visible": true,
          "point": true,
          "properties": [
            {
              "name": "sourceJson",
              "type": "string",
              "value": "{\"id\":\"r025-firebar\",\"kind\":\"rotating-firebar\",\"source\":{\"thing\":\"CastleBlock\",\"x\":672,\"y\":32,\"fireballs\":6},\"x\":1344,\"y\":144}"
            }
          ]
        },
        {
          "id": 55,
          "name": "r026-firebar",
          "type": "rotating-firebar",
          "x": 1408,
          "y": 64,
          "width": 0,
          "height": 0,
          "rotation": 0,
          "visible": true,
          "point": true,
          "properties": [
            {
              "name": "sourceJson",
              "type": "string",
              "value": "{\"id\":\"r026-firebar\",\"kind\":\"rotating-firebar\",\"source\":{\"thing\":\"CastleBlock\",\"x\":704,\"y\":72,\"fireballs\":6,\"direction\":1},\"x\":1408,\"y\":64}"
            }
          ]
        },
        {
          "id": 56,
          "name": "r030-0-0",
          "type": "hidden-block",
          "x": 1696,
          "y": 144,
          "width": 0,
          "height": 0,
          "rotation": 0,
          "visible": true,
          "point": true,
          "properties": [
            {
              "name": "sourceJson",
              "type": "string",
              "value": "{\"id\":\"r030-0-0\",\"kind\":\"hidden-block\",\"source\":{\"x\":848,\"y\":32,\"thing\":\"Block\",\"hidden\":true},\"x\":1696,\"y\":144}"
            }
          ]
        },
        {
          "id": 57,
          "name": "r030-1-0",
          "type": "hidden-block",
          "x": 1744,
          "y": 144,
          "width": 0,
          "height": 0,
          "rotation": 0,
          "visible": true,
          "point": true,
          "properties": [
            {
              "name": "sourceJson",
              "type": "string",
              "value": "{\"id\":\"r030-1-0\",\"kind\":\"hidden-block\",\"source\":{\"x\":872,\"y\":32,\"thing\":\"Block\",\"hidden\":true},\"x\":1744,\"y\":144}"
            }
          ]
        },
        {
          "id": 58,
          "name": "r030-2-0",
          "type": "hidden-block",
          "x": 1792,
          "y": 144,
          "width": 0,
          "height": 0,
          "rotation": 0,
          "visible": true,
          "point": true,
          "properties": [
            {
              "name": "sourceJson",
              "type": "string",
              "value": "{\"id\":\"r030-2-0\",\"kind\":\"hidden-block\",\"source\":{\"x\":896,\"y\":32,\"thing\":\"Block\",\"hidden\":true},\"x\":1792,\"y\":144}"
            }
          ]
        },
        {
          "id": 59,
          "name": "r031-0-0",
          "type": "hidden-block",
          "x": 1712,
          "y": 80,
          "width": 0,
          "height": 0,
          "rotation": 0,
          "visible": true,
          "point": true,
          "properties": [
            {
              "name": "sourceJson",
              "type": "string",
              "value": "{\"id\":\"r031-0-0\",\"kind\":\"hidden-block\",\"source\":{\"x\":856,\"y\":64,\"thing\":\"Block\",\"hidden\":true},\"x\":1712,\"y\":80}"
            }
          ]
        },
        {
          "id": 60,
          "name": "r031-1-0",
          "type": "hidden-block",
          "x": 1760,
          "y": 80,
          "width": 0,
          "height": 0,
          "rotation": 0,
          "visible": true,
          "point": true,
          "properties": [
            {
              "name": "sourceJson",
              "type": "string",
              "value": "{\"id\":\"r031-1-0\",\"kind\":\"hidden-block\",\"source\":{\"x\":880,\"y\":64,\"thing\":\"Block\",\"hidden\":true},\"x\":1760,\"y\":80}"
            }
          ]
        },
        {
          "id": 61,
          "name": "r031-2-0",
          "type": "hidden-block",
          "x": 1808,
          "y": 80,
          "width": 0,
          "height": 0,
          "rotation": 0,
          "visible": true,
          "point": true,
          "properties": [
            {
              "name": "sourceJson",
              "type": "string",
              "value": "{\"id\":\"r031-2-0\",\"kind\":\"hidden-block\",\"source\":{\"x\":904,\"y\":64,\"thing\":\"Block\",\"hidden\":true},\"x\":1808,\"y\":80}"
            }
          ]
        },
        {
          "id": 62,
          "name": "r035-lava-visual",
          "type": "lava-art",
          "x": 2048,
          "y": 208,
          "width": 0,
          "height": 0,
          "rotation": 0,
          "visible": true,
          "point": true,
          "properties": [
            {
              "name": "sourceJson",
              "type": "string",
              "value": "{\"id\":\"r035-lava-visual\",\"kind\":\"lava-art\",\"source\":{\"macro\":\"Water\",\"x\":1024,\"y\":0,\"width\":104},\"x\":2048,\"y\":208}"
            }
          ]
        },
        {
          "id": 63,
          "name": "r035-boss",
          "type": "marker-Bowser",
          "x": 2186,
          "y": 124,
          "width": 0,
          "height": 0,
          "rotation": 0,
          "visible": true,
          "point": true,
          "properties": [
            {
              "name": "sourceJson",
              "type": "string",
              "value": "{\"id\":\"r035-boss\",\"kind\":\"marker-Bowser\",\"source\":{\"thing\":\"Bowser\",\"x\":1093,\"y\":42},\"x\":2186,\"y\":124}"
            }
          ]
        },
        {
          "id": 64,
          "name": "r035-chain",
          "type": "marker-CastleChain",
          "x": 2240,
          "y": 144,
          "width": 0,
          "height": 0,
          "rotation": 0,
          "visible": true,
          "point": true,
          "properties": [
            {
              "name": "sourceJson",
              "type": "string",
              "value": "{\"id\":\"r035-chain\",\"kind\":\"marker-CastleChain\",\"source\":{\"thing\":\"CastleChain\",\"x\":1120,\"y\":32},\"x\":2240,\"y\":144}"
            }
          ]
        },
        {
          "id": 65,
          "name": "r035-axe",
          "type": "bridge-axe-finish",
          "x": 2256,
          "y": 128,
          "width": 0,
          "height": 0,
          "rotation": 0,
          "visible": true,
          "point": true,
          "properties": [
            {
              "name": "sourceJson",
              "type": "string",
              "value": "{\"id\":\"r035-axe\",\"kind\":\"bridge-axe-finish\",\"source\":{\"thing\":\"CastleAxe\",\"x\":1128,\"y\":40},\"x\":2256,\"y\":128}"
            }
          ]
        },
        {
          "id": 66,
          "name": "r035-finish",
          "type": "castle-finish",
          "x": 2048,
          "y": 208,
          "width": 0,
          "height": 0,
          "rotation": 0,
          "visible": true,
          "point": true,
          "properties": [
            {
              "name": "sourceJson",
              "type": "string",
              "value": "{\"id\":\"r035-finish\",\"kind\":\"castle-finish\",\"source\":{\"macro\":\"EndInsideCastle\",\"x\":1024,\"y\":0,\"transport\":{\"map\":\"2-1\"}},\"x\":2048,\"y\":208}"
            }
          ]
        },
        {
          "id": 67,
          "name": "r036",
          "type": "noncolliding-platform",
          "x": 2216,
          "y": 96,
          "width": 0,
          "height": 0,
          "rotation": 0,
          "visible": true,
          "point": true,
          "properties": [
            {
              "name": "sourceJson",
              "type": "string",
              "value": "{\"id\":\"r036\",\"kind\":\"noncolliding-platform\",\"source\":{\"thing\":\"Platform\",\"x\":1108,\"y\":56,\"width\":16,\"sliding\":true,\"begin\":1080,\"end\":1112,\"nocollidechar\":true},\"x\":2216,\"y\":96}"
            }
          ]
        }
      ]
    }
  ],
  "properties": [
    {
      "name": "room",
      "type": "string",
      "value": "area-0"
    },
    {
      "name": "underwater",
      "type": "bool",
      "value": false
    },
    {
      "name": "inspectionOnly",
      "type": "bool",
      "value": true
    },
    {
      "name": "referenceReview",
      "type": "string",
      "value": "pending"
    }
  ]
}
