{
  "type": "map",
  "version": "1.10",
  "orientation": "orthogonal",
  "renderorder": "right-down",
  "infinite": false,
  "width": 190,
  "height": 15,
  "tilewidth": 16,
  "tileheight": 16,
  "tilesets": [],
  "layers": [
    {
      "id": 1,
      "type": "objectgroup",
      "name": "collision",
      "visible": true,
      "opacity": 1,
      "draworder": "topdown",
      "objects": [
        {
          "id": 2,
          "name": "ref-001",
          "type": "Floor",
          "x": 0,
          "y": 208,
          "width": 1280,
          "height": 32,
          "rotation": 0,
          "visible": true,
          "properties": [
            {
              "name": "sourceId",
              "type": "string",
              "value": "ref-001"
            },
            {
              "name": "collision",
              "type": "string",
              "value": "solid"
            }
          ]
        },
        {
          "id": 3,
          "name": "ref-002-0-0",
          "type": "Brick",
          "x": 0,
          "y": 192,
          "width": 16,
          "height": 16,
          "rotation": 0,
          "visible": true,
          "properties": [
            {
              "name": "sourceId",
              "type": "string",
              "value": "ref-002-0-0"
            },
            {
              "name": "collision",
              "type": "string",
              "value": "solid"
            }
          ]
        },
        {
          "id": 4,
          "name": "ref-002-0-1",
          "type": "Brick",
          "x": 0,
          "y": 176,
          "width": 16,
          "height": 16,
          "rotation": 0,
          "visible": true,
          "properties": [
            {
              "name": "sourceId",
              "type": "string",
              "value": "ref-002-0-1"
            },
            {
              "name": "collision",
              "type": "string",
              "value": "solid"
            }
          ]
        },
        {
          "id": 5,
          "name": "ref-002-0-2",
          "type": "Brick",
          "x": 0,
          "y": 160,
          "width": 16,
          "height": 16,
          "rotation": 0,
          "visible": true,
          "properties": [
            {
              "name": "sourceId",
              "type": "string",
              "value": "ref-002-0-2"
            },
            {
              "name": "collision",
              "type": "string",
              "value": "solid"
            }
          ]
        },
        {
          "id": 6,
          "name": "ref-002-0-3",
          "type": "Brick",
          "x": 0,
          "y": 144,
          "width": 16,
          "height": 16,
          "rotation": 0,
          "visible": true,
          "properties": [
            {
              "name": "sourceId",
              "type": "string",
              "value": "ref-002-0-3"
            },
            {
              "name": "collision",
              "type": "string",
              "value": "solid"
            }
          ]
        },
        {
          "id": 7,
          "name": "ref-002-0-4",
          "type": "Brick",
          "x": 0,
          "y": 128,
          "width": 16,
          "height": 16,
          "rotation": 0,
          "visible": true,
          "properties": [
            {
              "name": "sourceId",
              "type": "string",
              "value": "ref-002-0-4"
            },
            {
              "name": "collision",
              "type": "string",
              "value": "solid"
            }
          ]
        },
        {
          "id": 8,
          "name": "ref-002-0-5",
          "type": "Brick",
          "x": 0,
          "y": 112,
          "width": 16,
          "height": 16,
          "rotation": 0,
          "visible": true,
          "properties": [
            {
              "name": "sourceId",
              "type": "string",
              "value": "ref-002-0-5"
            },
            {
              "name": "collision",
              "type": "string",
              "value": "solid"
            }
          ]
        },
        {
          "id": 9,
          "name": "ref-002-0-6",
          "type": "Brick",
          "x": 0,
          "y": 96,
          "width": 16,
          "height": 16,
          "rotation": 0,
          "visible": true,
          "properties": [
            {
              "name": "sourceId",
              "type": "string",
              "value": "ref-002-0-6"
            },
            {
              "name": "collision",
              "type": "string",
              "value": "solid"
            }
          ]
        },
        {
          "id": 10,
          "name": "ref-002-0-7",
          "type": "Brick",
          "x": 0,
          "y": 80,
          "width": 16,
          "height": 16,
          "rotation": 0,
          "visible": true,
          "properties": [
            {
              "name": "sourceId",
              "type": "string",
              "value": "ref-002-0-7"
            },
            {
              "name": "collision",
              "type": "string",
              "value": "solid"
            }
          ]
        },
        {
          "id": 11,
          "name": "ref-002-0-8",
          "type": "Brick",
          "x": 0,
          "y": 64,
          "width": 16,
          "height": 16,
          "rotation": 0,
          "visible": true,
          "properties": [
            {
              "name": "sourceId",
              "type": "string",
              "value": "ref-002-0-8"
            },
            {
              "name": "collision",
              "type": "string",
              "value": "solid"
            }
          ]
        },
        {
          "id": 12,
          "name": "ref-002-0-9",
          "type": "Brick",
          "x": 0,
          "y": 48,
          "width": 16,
          "height": 16,
          "rotation": 0,
          "visible": true,
          "properties": [
            {
              "name": "sourceId",
              "type": "string",
              "value": "ref-002-0-9"
            },
            {
              "name": "collision",
              "type": "string",
              "value": "solid"
            }
          ]
        },
        {
          "id": 13,
          "name": "ref-002-0-10",
          "type": "Brick",
          "x": 0,
          "y": 32,
          "width": 16,
          "height": 16,
          "rotation": 0,
          "visible": true,
          "properties": [
            {
              "name": "sourceId",
              "type": "string",
              "value": "ref-002-0-10"
            },
            {
              "name": "collision",
              "type": "string",
              "value": "solid"
            }
          ]
        },
        {
          "id": 14,
          "name": "ref-003",
          "type": "Brick",
          "x": 96,
          "y": 32,
          "width": 1328,
          "height": 16,
          "rotation": 0,
          "visible": true,
          "properties": [
            {
              "name": "sourceId",
              "type": "string",
              "value": "ref-003"
            },
            {
              "name": "collision",
              "type": "string",
              "value": "solid"
            }
          ]
        },
        {
          "id": 15,
          "name": "ref-004",
          "type": "Block",
          "x": 160,
          "y": 144,
          "width": 16,
          "height": 16,
          "rotation": 0,
          "visible": true,
          "properties": [
            {
              "name": "sourceId",
              "type": "string",
              "value": "ref-004"
            },
            {
              "name": "collision",
              "type": "string",
              "value": "solid"
            }
          ]
        },
        {
          "id": 16,
          "name": "ref-005-0-0",
          "type": "Block",
          "x": 176,
          "y": 144,
          "width": 16,
          "height": 16,
          "rotation": 0,
          "visible": true,
          "properties": [
            {
              "name": "sourceId",
              "type": "string",
              "value": "ref-005-0-0"
            },
            {
              "name": "collision",
              "type": "string",
              "value": "solid"
            }
          ]
        },
        {
          "id": 17,
          "name": "ref-005-1-0",
          "type": "Block",
          "x": 192,
          "y": 144,
          "width": 16,
          "height": 16,
          "rotation": 0,
          "visible": true,
          "properties": [
            {
              "name": "sourceId",
              "type": "string",
              "value": "ref-005-1-0"
            },
            {
              "name": "collision",
              "type": "string",
              "value": "solid"
            }
          ]
        },
        {
          "id": 18,
          "name": "ref-005-2-0",
          "type": "Block",
          "x": 208,
          "y": 144,
          "width": 16,
          "height": 16,
          "rotation": 0,
          "visible": true,
          "properties": [
            {
              "name": "sourceId",
              "type": "string",
              "value": "ref-005-2-0"
            },
            {
              "name": "collision",
              "type": "string",
              "value": "solid"
            }
          ]
        },
        {
          "id": 19,
          "name": "ref-005-3-0",
          "type": "Block",
          "x": 224,
          "y": 144,
          "width": 16,
          "height": 16,
          "rotation": 0,
          "visible": true,
          "properties": [
            {
              "name": "sourceId",
              "type": "string",
              "value": "ref-005-3-0"
            },
            {
              "name": "collision",
              "type": "string",
              "value": "solid"
            }
          ]
        },
        {
          "id": 20,
          "name": "ref-007",
          "type": "Stone",
          "x": 272,
          "y": 192,
          "width": 16,
          "height": 16,
          "rotation": 0,
          "visible": true,
          "properties": [
            {
              "name": "sourceId",
              "type": "string",
              "value": "ref-007"
            },
            {
              "name": "collision",
              "type": "string",
              "value": "solid"
            }
          ]
        },
        {
          "id": 21,
          "name": "ref-009",
          "type": "Stone",
          "x": 304,
          "y": 176,
          "width": 16,
          "height": 32,
          "rotation": 0,
          "visible": true,
          "properties": [
            {
              "name": "sourceId",
              "type": "string",
              "value": "ref-009"
            },
            {
              "name": "collision",
              "type": "string",
              "value": "solid"
            }
          ]
        },
        {
          "id": 22,
          "name": "ref-010",
          "type": "Stone",
          "x": 336,
          "y": 160,
          "width": 16,
          "height": 48,
          "rotation": 0,
          "visible": true,
          "properties": [
            {
              "name": "sourceId",
              "type": "string",
              "value": "ref-010"
            },
            {
              "name": "collision",
              "type": "string",
              "value": "solid"
            }
          ]
        },
        {
          "id": 23,
          "name": "ref-011",
          "type": "Stone",
          "x": 368,
          "y": 144,
          "width": 16,
          "height": 64,
          "rotation": 0,
          "visible": true,
          "properties": [
            {
              "name": "sourceId",
              "type": "string",
              "value": "ref-011"
            },
            {
              "name": "collision",
              "type": "string",
              "value": "solid"
            }
          ]
        },
        {
          "id": 24,
          "name": "ref-012",
          "type": "Stone",
          "x": 400,
          "y": 144,
          "width": 16,
          "height": 64,
          "rotation": 0,
          "visible": true,
          "properties": [
            {
              "name": "sourceId",
              "type": "string",
              "value": "ref-012"
            },
            {
              "name": "collision",
              "type": "string",
              "value": "solid"
            }
          ]
        },
        {
          "id": 25,
          "name": "ref-013",
          "type": "Stone",
          "x": 432,
          "y": 160,
          "width": 16,
          "height": 48,
          "rotation": 0,
          "visible": true,
          "properties": [
            {
              "name": "sourceId",
              "type": "string",
              "value": "ref-013"
            },
            {
              "name": "collision",
              "type": "string",
              "value": "solid"
            }
          ]
        },
        {
          "id": 26,
          "name": "ref-015",
          "type": "Brick",
          "x": 464,
          "y": 128,
          "width": 16,
          "height": 16,
          "rotation": 0,
          "visible": true,
          "properties": [
            {
              "name": "sourceId",
              "type": "string",
              "value": "ref-015"
            },
            {
              "name": "collision",
              "type": "string",
              "value": "solid"
            }
          ]
        },
        {
          "id": 27,
          "name": "ref-016",
          "type": "Stone",
          "x": 496,
          "y": 160,
          "width": 16,
          "height": 48,
          "rotation": 0,
          "visible": true,
          "properties": [
            {
              "name": "sourceId",
              "type": "string",
              "value": "ref-016"
            },
            {
              "name": "collision",
              "type": "string",
              "value": "solid"
            }
          ]
        },
        {
          "id": 28,
          "name": "ref-017",
          "type": "Stone",
          "x": 528,
          "y": 176,
          "width": 16,
          "height": 32,
          "rotation": 0,
          "visible": true,
          "properties": [
            {
              "name": "sourceId",
              "type": "string",
              "value": "ref-017"
            },
            {
              "name": "collision",
              "type": "string",
              "value": "solid"
            }
          ]
        },
        {
          "id": 29,
          "name": "ref-018-0-0",
          "type": "Brick",
          "x": 624,
          "y": 144,
          "width": 16,
          "height": 16,
          "rotation": 0,
          "visible": true,
          "properties": [
            {
              "name": "sourceId",
              "type": "string",
              "value": "ref-018-0-0"
            },
            {
              "name": "collision",
              "type": "string",
              "value": "solid"
            }
          ]
        },
        {
          "id": 30,
          "name": "ref-018-0-1",
          "type": "Brick",
          "x": 624,
          "y": 128,
          "width": 16,
          "height": 16,
          "rotation": 0,
          "visible": true,
          "properties": [
            {
              "name": "sourceId",
              "type": "string",
              "value": "ref-018-0-1"
            },
            {
              "name": "collision",
              "type": "string",
              "value": "solid"
            }
          ]
        },
        {
          "id": 31,
          "name": "ref-018-0-2",
          "type": "Brick",
          "x": 624,
          "y": 112,
          "width": 16,
          "height": 16,
          "rotation": 0,
          "visible": true,
          "properties": [
            {
              "name": "sourceId",
              "type": "string",
              "value": "ref-018-0-2"
            },
            {
              "name": "collision",
              "type": "string",
              "value": "solid"
            }
          ]
        },
        {
          "id": 32,
          "name": "ref-019",
          "type": "Brick",
          "x": 640,
          "y": 144,
          "width": 16,
          "height": 16,
          "rotation": 0,
          "visible": true,
          "properties": [
            {
              "name": "sourceId",
              "type": "string",
              "value": "ref-019"
            },
            {
              "name": "collision",
              "type": "string",
              "value": "solid"
            }
          ]
        },
        {
          "id": 33,
          "name": "ref-021-0-0",
          "type": "Brick",
          "x": 656,
          "y": 144,
          "width": 16,
          "height": 16,
          "rotation": 0,
          "visible": true,
          "properties": [
            {
              "name": "sourceId",
              "type": "string",
              "value": "ref-021-0-0"
            },
            {
              "name": "collision",
              "type": "string",
              "value": "solid"
            }
          ]
        },
        {
          "id": 34,
          "name": "ref-021-0-1",
          "type": "Brick",
          "x": 656,
          "y": 128,
          "width": 16,
          "height": 16,
          "rotation": 0,
          "visible": true,
          "properties": [
            {
              "name": "sourceId",
              "type": "string",
              "value": "ref-021-0-1"
            },
            {
              "name": "collision",
              "type": "string",
              "value": "solid"
            }
          ]
        },
        {
          "id": 35,
          "name": "ref-021-0-2",
          "type": "Brick",
          "x": 656,
          "y": 112,
          "width": 16,
          "height": 16,
          "rotation": 0,
          "visible": true,
          "properties": [
            {
              "name": "sourceId",
              "type": "string",
              "value": "ref-021-0-2"
            },
            {
              "name": "collision",
              "type": "string",
              "value": "solid"
            }
          ]
        },
        {
          "id": 36,
          "name": "ref-023",
          "type": "Brick",
          "x": 672,
          "y": 112,
          "width": 16,
          "height": 16,
          "rotation": 0,
          "visible": true,
          "properties": [
            {
              "name": "sourceId",
              "type": "string",
              "value": "ref-023"
            },
            {
              "name": "collision",
              "type": "string",
              "value": "solid"
            }
          ]
        },
        {
          "id": 37,
          "name": "ref-024",
          "type": "Brick",
          "x": 688,
          "y": 112,
          "width": 16,
          "height": 16,
          "rotation": 0,
          "visible": true,
          "properties": [
            {
              "name": "sourceId",
              "type": "string",
              "value": "ref-024"
            },
            {
              "name": "collision",
              "type": "string",
              "value": "solid"
            }
          ]
        },
        {
          "id": 38,
          "name": "ref-026-0-0",
          "type": "Brick",
          "x": 704,
          "y": 144,
          "width": 16,
          "height": 16,
          "rotation": 0,
          "visible": true,
          "properties": [
            {
              "name": "sourceId",
              "type": "string",
              "value": "ref-026-0-0"
            },
            {
              "name": "collision",
              "type": "string",
              "value": "solid"
            }
          ]
        },
        {
          "id": 39,
          "name": "ref-026-0-1",
          "type": "Brick",
          "x": 704,
          "y": 128,
          "width": 16,
          "height": 16,
          "rotation": 0,
          "visible": true,
          "properties": [
            {
              "name": "sourceId",
              "type": "string",
              "value": "ref-026-0-1"
            },
            {
              "name": "collision",
              "type": "string",
              "value": "solid"
            }
          ]
        },
        {
          "id": 40,
          "name": "ref-026-0-2",
          "type": "Brick",
          "x": 704,
          "y": 112,
          "width": 16,
          "height": 16,
          "rotation": 0,
          "visible": true,
          "properties": [
            {
              "name": "sourceId",
              "type": "string",
              "value": "ref-026-0-2"
            },
            {
              "name": "collision",
              "type": "string",
              "value": "solid"
            }
          ]
        },
        {
          "id": 41,
          "name": "ref-027",
          "type": "Brick",
          "x": 720,
          "y": 144,
          "width": 16,
          "height": 16,
          "rotation": 0,
          "visible": true,
          "properties": [
            {
              "name": "sourceId",
              "type": "string",
              "value": "ref-027"
            },
            {
              "name": "collision",
              "type": "string",
              "value": "solid"
            }
          ]
        },
        {
          "id": 42,
          "name": "ref-029-0-0",
          "type": "Brick",
          "x": 736,
          "y": 144,
          "width": 16,
          "height": 16,
          "rotation": 0,
          "visible": true,
          "properties": [
            {
              "name": "sourceId",
              "type": "string",
              "value": "ref-029-0-0"
            },
            {
              "name": "collision",
              "type": "string",
              "value": "solid"
            }
          ]
        },
        {
          "id": 43,
          "name": "ref-029-0-1",
          "type": "Brick",
          "x": 736,
          "y": 128,
          "width": 16,
          "height": 16,
          "rotation": 0,
          "visible": true,
          "properties": [
            {
              "name": "sourceId",
              "type": "string",
              "value": "ref-029-0-1"
            },
            {
              "name": "collision",
              "type": "string",
              "value": "solid"
            }
          ]
        },
        {
          "id": 44,
          "name": "ref-030",
          "type": "Brick",
          "x": 736,
          "y": 112,
          "width": 16,
          "height": 16,
          "rotation": 0,
          "visible": true,
          "properties": [
            {
              "name": "sourceId",
              "type": "string",
              "value": "ref-030"
            },
            {
              "name": "collision",
              "type": "string",
              "value": "solid"
            }
          ]
        },
        {
          "id": 45,
          "name": "ref-031-0-0",
          "type": "Brick",
          "x": 832,
          "y": 144,
          "width": 16,
          "height": 16,
          "rotation": 0,
          "visible": true,
          "properties": [
            {
              "name": "sourceId",
              "type": "string",
              "value": "ref-031-0-0"
            },
            {
              "name": "collision",
              "type": "string",
              "value": "solid"
            }
          ]
        },
        {
          "id": 46,
          "name": "ref-031-0-1",
          "type": "Brick",
          "x": 832,
          "y": 128,
          "width": 16,
          "height": 16,
          "rotation": 0,
          "visible": true,
          "properties": [
            {
              "name": "sourceId",
              "type": "string",
              "value": "ref-031-0-1"
            },
            {
              "name": "collision",
              "type": "string",
              "value": "solid"
            }
          ]
        },
        {
          "id": 47,
          "name": "ref-031-0-2",
          "type": "Brick",
          "x": 832,
          "y": 112,
          "width": 16,
          "height": 16,
          "rotation": 0,
          "visible": true,
          "properties": [
            {
              "name": "sourceId",
              "type": "string",
              "value": "ref-031-0-2"
            },
            {
              "name": "collision",
              "type": "string",
              "value": "solid"
            }
          ]
        },
        {
          "id": 48,
          "name": "ref-031-0-3",
          "type": "Brick",
          "x": 832,
          "y": 96,
          "width": 16,
          "height": 16,
          "rotation": 0,
          "visible": true,
          "properties": [
            {
              "name": "sourceId",
              "type": "string",
              "value": "ref-031-0-3"
            },
            {
              "name": "collision",
              "type": "string",
              "value": "solid"
            }
          ]
        },
        {
          "id": 49,
          "name": "ref-031-0-4",
          "type": "Brick",
          "x": 832,
          "y": 80,
          "width": 16,
          "height": 16,
          "rotation": 0,
          "visible": true,
          "properties": [
            {
              "name": "sourceId",
              "type": "string",
              "value": "ref-031-0-4"
            },
            {
              "name": "collision",
              "type": "string",
              "value": "solid"
            }
          ]
        },
        {
          "id": 50,
          "name": "ref-031-1-0",
          "type": "Brick",
          "x": 848,
          "y": 144,
          "width": 16,
          "height": 16,
          "rotation": 0,
          "visible": true,
          "properties": [
            {
              "name": "sourceId",
              "type": "string",
              "value": "ref-031-1-0"
            },
            {
              "name": "collision",
              "type": "string",
              "value": "solid"
            }
          ]
        },
        {
          "id": 51,
          "name": "ref-031-1-1",
          "type": "Brick",
          "x": 848,
          "y": 128,
          "width": 16,
          "height": 16,
          "rotation": 0,
          "visible": true,
          "properties": [
            {
              "name": "sourceId",
              "type": "string",
              "value": "ref-031-1-1"
            },
            {
              "name": "collision",
              "type": "string",
              "value": "solid"
            }
          ]
        },
        {
          "id": 52,
          "name": "ref-031-1-2",
          "type": "Brick",
          "x": 848,
          "y": 112,
          "width": 16,
          "height": 16,
          "rotation": 0,
          "visible": true,
          "properties": [
            {
              "name": "sourceId",
              "type": "string",
              "value": "ref-031-1-2"
            },
            {
              "name": "collision",
              "type": "string",
              "value": "solid"
            }
          ]
        },
        {
          "id": 53,
          "name": "ref-031-1-3",
          "type": "Brick",
          "x": 848,
          "y": 96,
          "width": 16,
          "height": 16,
          "rotation": 0,
          "visible": true,
          "properties": [
            {
              "name": "sourceId",
              "type": "string",
              "value": "ref-031-1-3"
            },
            {
              "name": "collision",
              "type": "string",
              "value": "solid"
            }
          ]
        },
        {
          "id": 54,
          "name": "ref-031-1-4",
          "type": "Brick",
          "x": 848,
          "y": 80,
          "width": 16,
          "height": 16,
          "rotation": 0,
          "visible": true,
          "properties": [
            {
              "name": "sourceId",
              "type": "string",
              "value": "ref-031-1-4"
            },
            {
              "name": "collision",
              "type": "string",
              "value": "solid"
            }
          ]
        },
        {
          "id": 55,
          "name": "ref-032-0-0",
          "type": "Brick",
          "x": 864,
          "y": 176,
          "width": 16,
          "height": 16,
          "rotation": 0,
          "visible": true,
          "properties": [
            {
              "name": "sourceId",
              "type": "string",
              "value": "ref-032-0-0"
            },
            {
              "name": "collision",
              "type": "string",
              "value": "solid"
            }
          ]
        },
        {
          "id": 56,
          "name": "ref-032-0-1",
          "type": "Brick",
          "x": 864,
          "y": 160,
          "width": 16,
          "height": 16,
          "rotation": 0,
          "visible": true,
          "properties": [
            {
              "name": "sourceId",
              "type": "string",
              "value": "ref-032-0-1"
            },
            {
              "name": "collision",
              "type": "string",
              "value": "solid"
            }
          ]
        },
        {
          "id": 57,
          "name": "ref-032-0-2",
          "type": "Brick",
          "x": 864,
          "y": 144,
          "width": 16,
          "height": 16,
          "rotation": 0,
          "visible": true,
          "properties": [
            {
              "name": "sourceId",
              "type": "string",
              "value": "ref-032-0-2"
            },
            {
              "name": "collision",
              "type": "string",
              "value": "solid"
            }
          ]
        },
        {
          "id": 58,
          "name": "ref-032-1-0",
          "type": "Brick",
          "x": 880,
          "y": 176,
          "width": 16,
          "height": 16,
          "rotation": 0,
          "visible": true,
          "properties": [
            {
              "name": "sourceId",
              "type": "string",
              "value": "ref-032-1-0"
            },
            {
              "name": "collision",
              "type": "string",
              "value": "solid"
            }
          ]
        },
        {
          "id": 59,
          "name": "ref-032-1-1",
          "type": "Brick",
          "x": 880,
          "y": 160,
          "width": 16,
          "height": 16,
          "rotation": 0,
          "visible": true,
          "properties": [
            {
              "name": "sourceId",
              "type": "string",
              "value": "ref-032-1-1"
            },
            {
              "name": "collision",
              "type": "string",
              "value": "solid"
            }
          ]
        },
        {
          "id": 60,
          "name": "ref-032-1-2",
          "type": "Brick",
          "x": 880,
          "y": 144,
          "width": 16,
          "height": 16,
          "rotation": 0,
          "visible": true,
          "properties": [
            {
              "name": "sourceId",
              "type": "string",
              "value": "ref-032-1-2"
            },
            {
              "name": "collision",
              "type": "string",
              "value": "solid"
            }
          ]
        },
        {
          "id": 61,
          "name": "ref-033-0-0",
          "type": "Brick",
          "x": 864,
          "y": 64,
          "width": 16,
          "height": 16,
          "rotation": 0,
          "visible": true,
          "properties": [
            {
              "name": "sourceId",
              "type": "string",
              "value": "ref-033-0-0"
            },
            {
              "name": "collision",
              "type": "string",
              "value": "solid"
            }
          ]
        },
        {
          "id": 62,
          "name": "ref-033-0-1",
          "type": "Brick",
          "x": 864,
          "y": 48,
          "width": 16,
          "height": 16,
          "rotation": 0,
          "visible": true,
          "properties": [
            {
              "name": "sourceId",
              "type": "string",
              "value": "ref-033-0-1"
            },
            {
              "name": "collision",
              "type": "string",
              "value": "solid"
            }
          ]
        },
        {
          "id": 63,
          "name": "ref-033-1-0",
          "type": "Brick",
          "x": 880,
          "y": 64,
          "width": 16,
          "height": 16,
          "rotation": 0,
          "visible": true,
          "properties": [
            {
              "name": "sourceId",
              "type": "string",
              "value": "ref-033-1-0"
            },
            {
              "name": "collision",
              "type": "string",
              "value": "solid"
            }
          ]
        },
        {
          "id": 64,
          "name": "ref-033-1-1",
          "type": "Brick",
          "x": 880,
          "y": 48,
          "width": 16,
          "height": 16,
          "rotation": 0,
          "visible": true,
          "properties": [
            {
              "name": "sourceId",
              "type": "string",
              "value": "ref-033-1-1"
            },
            {
              "name": "collision",
              "type": "string",
              "value": "solid"
            }
          ]
        },
        {
          "id": 65,
          "name": "ref-034-0-0",
          "type": "Brick",
          "x": 928,
          "y": 144,
          "width": 16,
          "height": 16,
          "rotation": 0,
          "visible": true,
          "properties": [
            {
              "name": "sourceId",
              "type": "string",
              "value": "ref-034-0-0"
            },
            {
              "name": "collision",
              "type": "string",
              "value": "solid"
            }
          ]
        },
        {
          "id": 66,
          "name": "ref-034-1-0",
          "type": "Brick",
          "x": 944,
          "y": 144,
          "width": 16,
          "height": 16,
          "rotation": 0,
          "visible": true,
          "properties": [
            {
              "name": "sourceId",
              "type": "string",
              "value": "ref-034-1-0"
            },
            {
              "name": "collision",
              "type": "string",
              "value": "solid"
            }
          ]
        },
        {
          "id": 67,
          "name": "ref-034-2-0",
          "type": "Brick",
          "x": 960,
          "y": 144,
          "width": 16,
          "height": 16,
          "rotation": 0,
          "visible": true,
          "properties": [
            {
              "name": "sourceId",
              "type": "string",
              "value": "ref-034-2-0"
            },
            {
              "name": "collision",
              "type": "string",
              "value": "solid"
            }
          ]
        },
        {
          "id": 68,
          "name": "ref-034-3-0",
          "type": "Brick",
          "x": 976,
          "y": 144,
          "width": 16,
          "height": 16,
          "rotation": 0,
          "visible": true,
          "properties": [
            {
              "name": "sourceId",
              "type": "string",
              "value": "ref-034-3-0"
            },
            {
              "name": "collision",
              "type": "string",
              "value": "solid"
            }
          ]
        },
        {
          "id": 69,
          "name": "ref-035-0-0",
          "type": "Brick",
          "x": 928,
          "y": 64,
          "width": 16,
          "height": 16,
          "rotation": 0,
          "visible": true,
          "properties": [
            {
              "name": "sourceId",
              "type": "string",
              "value": "ref-035-0-0"
            },
            {
              "name": "collision",
              "type": "string",
              "value": "solid"
            }
          ]
        },
        {
          "id": 70,
          "name": "ref-035-0-1",
          "type": "Brick",
          "x": 928,
          "y": 48,
          "width": 16,
          "height": 16,
          "rotation": 0,
          "visible": true,
          "properties": [
            {
              "name": "sourceId",
              "type": "string",
              "value": "ref-035-0-1"
            },
            {
              "name": "collision",
              "type": "string",
              "value": "solid"
            }
          ]
        },
        {
          "id": 71,
          "name": "ref-035-1-0",
          "type": "Brick",
          "x": 944,
          "y": 64,
          "width": 16,
          "height": 16,
          "rotation": 0,
          "visible": true,
          "properties": [
            {
              "name": "sourceId",
              "type": "string",
              "value": "ref-035-1-0"
            },
            {
              "name": "collision",
              "type": "string",
              "value": "solid"
            }
          ]
        },
        {
          "id": 72,
          "name": "ref-035-1-1",
          "type": "Brick",
          "x": 944,
          "y": 48,
          "width": 16,
          "height": 16,
          "rotation": 0,
          "visible": true,
          "properties": [
            {
              "name": "sourceId",
              "type": "string",
              "value": "ref-035-1-1"
            },
            {
              "name": "collision",
              "type": "string",
              "value": "solid"
            }
          ]
        },
        {
          "id": 73,
          "name": "ref-035-2-0",
          "type": "Brick",
          "x": 960,
          "y": 64,
          "width": 16,
          "height": 16,
          "rotation": 0,
          "visible": true,
          "properties": [
            {
              "name": "sourceId",
              "type": "string",
              "value": "ref-035-2-0"
            },
            {
              "name": "collision",
              "type": "string",
              "value": "solid"
            }
          ]
        },
        {
          "id": 74,
          "name": "ref-035-2-1",
          "type": "Brick",
          "x": 960,
          "y": 48,
          "width": 16,
          "height": 16,
          "rotation": 0,
          "visible": true,
          "properties": [
            {
              "name": "sourceId",
              "type": "string",
              "value": "ref-035-2-1"
            },
            {
              "name": "collision",
              "type": "string",
              "value": "solid"
            }
          ]
        },
        {
          "id": 75,
          "name": "ref-035-3-0",
          "type": "Brick",
          "x": 976,
          "y": 64,
          "width": 16,
          "height": 16,
          "rotation": 0,
          "visible": true,
          "properties": [
            {
              "name": "sourceId",
              "type": "string",
              "value": "ref-035-3-0"
            },
            {
              "name": "collision",
              "type": "string",
              "value": "solid"
            }
          ]
        },
        {
          "id": 76,
          "name": "ref-035-3-1",
          "type": "Brick",
          "x": 976,
          "y": 48,
          "width": 16,
          "height": 16,
          "rotation": 0,
          "visible": true,
          "properties": [
            {
              "name": "sourceId",
              "type": "string",
              "value": "ref-035-3-1"
            },
            {
              "name": "collision",
              "type": "string",
              "value": "solid"
            }
          ]
        },
        {
          "id": 77,
          "name": "ref-035-4-0",
          "type": "Brick",
          "x": 992,
          "y": 64,
          "width": 16,
          "height": 16,
          "rotation": 0,
          "visible": true,
          "properties": [
            {
              "name": "sourceId",
              "type": "string",
              "value": "ref-035-4-0"
            },
            {
              "name": "collision",
              "type": "string",
              "value": "solid"
            }
          ]
        },
        {
          "id": 78,
          "name": "ref-035-4-1",
          "type": "Brick",
          "x": 992,
          "y": 48,
          "width": 16,
          "height": 16,
          "rotation": 0,
          "visible": true,
          "properties": [
            {
              "name": "sourceId",
              "type": "string",
              "value": "ref-035-4-1"
            },
            {
              "name": "collision",
              "type": "string",
              "value": "solid"
            }
          ]
        },
        {
          "id": 79,
          "name": "ref-038-0-0",
          "type": "Brick",
          "x": 992,
          "y": 144,
          "width": 16,
          "height": 16,
          "rotation": 0,
          "visible": true,
          "properties": [
            {
              "name": "sourceId",
              "type": "string",
              "value": "ref-038-0-0"
            },
            {
              "name": "collision",
              "type": "string",
              "value": "solid"
            }
          ]
        },
        {
          "id": 80,
          "name": "ref-038-0-1",
          "type": "Brick",
          "x": 992,
          "y": 128,
          "width": 16,
          "height": 16,
          "rotation": 0,
          "visible": true,
          "properties": [
            {
              "name": "sourceId",
              "type": "string",
              "value": "ref-038-0-1"
            },
            {
              "name": "collision",
              "type": "string",
              "value": "solid"
            }
          ]
        },
        {
          "id": 81,
          "name": "ref-038-0-2",
          "type": "Brick",
          "x": 992,
          "y": 112,
          "width": 16,
          "height": 16,
          "rotation": 0,
          "visible": true,
          "properties": [
            {
              "name": "sourceId",
              "type": "string",
              "value": "ref-038-0-2"
            },
            {
              "name": "collision",
              "type": "string",
              "value": "solid"
            }
          ]
        },
        {
          "id": 82,
          "name": "ref-038-0-3",
          "type": "Brick",
          "x": 992,
          "y": 96,
          "width": 16,
          "height": 16,
          "rotation": 0,
          "visible": true,
          "properties": [
            {
              "name": "sourceId",
              "type": "string",
              "value": "ref-038-0-3"
            },
            {
              "name": "collision",
              "type": "string",
              "value": "solid"
            }
          ]
        },
        {
          "id": 83,
          "name": "ref-038-0-4",
          "type": "Brick",
          "x": 992,
          "y": 80,
          "width": 16,
          "height": 16,
          "rotation": 0,
          "visible": true,
          "properties": [
            {
              "name": "sourceId",
              "type": "string",
              "value": "ref-038-0-4"
            },
            {
              "name": "collision",
              "type": "string",
              "value": "solid"
            }
          ]
        },
        {
          "id": 84,
          "name": "ref-038-0-5",
          "type": "Brick",
          "x": 992,
          "y": 64,
          "width": 16,
          "height": 16,
          "rotation": 0,
          "visible": true,
          "properties": [
            {
              "name": "sourceId",
              "type": "string",
              "value": "ref-038-0-5"
            },
            {
              "name": "collision",
              "type": "string",
              "value": "solid"
            }
          ]
        },
        {
          "id": 85,
          "name": "ref-038-0-6",
          "type": "Brick",
          "x": 992,
          "y": 48,
          "width": 16,
          "height": 16,
          "rotation": 0,
          "visible": true,
          "properties": [
            {
              "name": "sourceId",
              "type": "string",
              "value": "ref-038-0-6"
            },
            {
              "name": "collision",
              "type": "string",
              "value": "solid"
            }
          ]
        },
        {
          "id": 86,
          "name": "ref-038-1-0",
          "type": "Brick",
          "x": 1008,
          "y": 144,
          "width": 16,
          "height": 16,
          "rotation": 0,
          "visible": true,
          "properties": [
            {
              "name": "sourceId",
              "type": "string",
              "value": "ref-038-1-0"
            },
            {
              "name": "collision",
              "type": "string",
              "value": "solid"
            }
          ]
        },
        {
          "id": 87,
          "name": "ref-038-1-1",
          "type": "Brick",
          "x": 1008,
          "y": 128,
          "width": 16,
          "height": 16,
          "rotation": 0,
          "visible": true,
          "properties": [
            {
              "name": "sourceId",
              "type": "string",
              "value": "ref-038-1-1"
            },
            {
              "name": "collision",
              "type": "string",
              "value": "solid"
            }
          ]
        },
        {
          "id": 88,
          "name": "ref-038-1-2",
          "type": "Brick",
          "x": 1008,
          "y": 112,
          "width": 16,
          "height": 16,
          "rotation": 0,
          "visible": true,
          "properties": [
            {
              "name": "sourceId",
              "type": "string",
              "value": "ref-038-1-2"
            },
            {
              "name": "collision",
              "type": "string",
              "value": "solid"
            }
          ]
        },
        {
          "id": 89,
          "name": "ref-038-1-3",
          "type": "Brick",
          "x": 1008,
          "y": 96,
          "width": 16,
          "height": 16,
          "rotation": 0,
          "visible": true,
          "properties": [
            {
              "name": "sourceId",
              "type": "string",
              "value": "ref-038-1-3"
            },
            {
              "name": "collision",
              "type": "string",
              "value": "solid"
            }
          ]
        },
        {
          "id": 90,
          "name": "ref-038-1-4",
          "type": "Brick",
          "x": 1008,
          "y": 80,
          "width": 16,
          "height": 16,
          "rotation": 0,
          "visible": true,
          "properties": [
            {
              "name": "sourceId",
              "type": "string",
              "value": "ref-038-1-4"
            },
            {
              "name": "collision",
              "type": "string",
              "value": "solid"
            }
          ]
        },
        {
          "id": 91,
          "name": "ref-038-1-5",
          "type": "Brick",
          "x": 1008,
          "y": 64,
          "width": 16,
          "height": 16,
          "rotation": 0,
          "visible": true,
          "properties": [
            {
              "name": "sourceId",
              "type": "string",
              "value": "ref-038-1-5"
            },
            {
              "name": "collision",
              "type": "string",
              "value": "solid"
            }
          ]
        },
        {
          "id": 92,
          "name": "ref-038-1-6",
          "type": "Brick",
          "x": 1008,
          "y": 48,
          "width": 16,
          "height": 16,
          "rotation": 0,
          "visible": true,
          "properties": [
            {
              "name": "sourceId",
              "type": "string",
              "value": "ref-038-1-6"
            },
            {
              "name": "collision",
              "type": "string",
              "value": "solid"
            }
          ]
        },
        {
          "id": 93,
          "name": "ref-041-0-0",
          "type": "Brick",
          "x": 1056,
          "y": 64,
          "width": 16,
          "height": 16,
          "rotation": 0,
          "visible": true,
          "properties": [
            {
              "name": "sourceId",
              "type": "string",
              "value": "ref-041-0-0"
            },
            {
              "name": "collision",
              "type": "string",
              "value": "solid"
            }
          ]
        },
        {
          "id": 94,
          "name": "ref-041-0-1",
          "type": "Brick",
          "x": 1056,
          "y": 48,
          "width": 16,
          "height": 16,
          "rotation": 0,
          "visible": true,
          "properties": [
            {
              "name": "sourceId",
              "type": "string",
              "value": "ref-041-0-1"
            },
            {
              "name": "collision",
              "type": "string",
              "value": "solid"
            }
          ]
        },
        {
          "id": 95,
          "name": "ref-041-1-0",
          "type": "Brick",
          "x": 1072,
          "y": 64,
          "width": 16,
          "height": 16,
          "rotation": 0,
          "visible": true,
          "properties": [
            {
              "name": "sourceId",
              "type": "string",
              "value": "ref-041-1-0"
            },
            {
              "name": "collision",
              "type": "string",
              "value": "solid"
            }
          ]
        },
        {
          "id": 96,
          "name": "ref-041-1-1",
          "type": "Brick",
          "x": 1072,
          "y": 48,
          "width": 16,
          "height": 16,
          "rotation": 0,
          "visible": true,
          "properties": [
            {
              "name": "sourceId",
              "type": "string",
              "value": "ref-041-1-1"
            },
            {
              "name": "collision",
              "type": "string",
              "value": "solid"
            }
          ]
        },
        {
          "id": 97,
          "name": "ref-041-2-0",
          "type": "Brick",
          "x": 1088,
          "y": 64,
          "width": 16,
          "height": 16,
          "rotation": 0,
          "visible": true,
          "properties": [
            {
              "name": "sourceId",
              "type": "string",
              "value": "ref-041-2-0"
            },
            {
              "name": "collision",
              "type": "string",
              "value": "solid"
            }
          ]
        },
        {
          "id": 98,
          "name": "ref-041-2-1",
          "type": "Brick",
          "x": 1088,
          "y": 48,
          "width": 16,
          "height": 16,
          "rotation": 0,
          "visible": true,
          "properties": [
            {
              "name": "sourceId",
              "type": "string",
              "value": "ref-041-2-1"
            },
            {
              "name": "collision",
              "type": "string",
              "value": "solid"
            }
          ]
        },
        {
          "id": 99,
          "name": "ref-041-3-0",
          "type": "Brick",
          "x": 1104,
          "y": 64,
          "width": 16,
          "height": 16,
          "rotation": 0,
          "visible": true,
          "properties": [
            {
              "name": "sourceId",
              "type": "string",
              "value": "ref-041-3-0"
            },
            {
              "name": "collision",
              "type": "string",
              "value": "solid"
            }
          ]
        },
        {
          "id": 100,
          "name": "ref-041-3-1",
          "type": "Brick",
          "x": 1104,
          "y": 48,
          "width": 16,
          "height": 16,
          "rotation": 0,
          "visible": true,
          "properties": [
            {
              "name": "sourceId",
              "type": "string",
              "value": "ref-041-3-1"
            },
            {
              "name": "collision",
              "type": "string",
              "value": "solid"
            }
          ]
        },
        {
          "id": 101,
          "name": "ref-042-0-0",
          "type": "Brick",
          "x": 1072,
          "y": 144,
          "width": 16,
          "height": 16,
          "rotation": 0,
          "visible": true,
          "properties": [
            {
              "name": "sourceId",
              "type": "string",
              "value": "ref-042-0-0"
            },
            {
              "name": "collision",
              "type": "string",
              "value": "solid"
            }
          ]
        },
        {
          "id": 102,
          "name": "ref-042-0-1",
          "type": "Brick",
          "x": 1072,
          "y": 128,
          "width": 16,
          "height": 16,
          "rotation": 0,
          "visible": true,
          "properties": [
            {
              "name": "sourceId",
              "type": "string",
              "value": "ref-042-0-1"
            },
            {
              "name": "collision",
              "type": "string",
              "value": "solid"
            }
          ]
        },
        {
          "id": 103,
          "name": "ref-042-0-2",
          "type": "Brick",
          "x": 1072,
          "y": 112,
          "width": 16,
          "height": 16,
          "rotation": 0,
          "visible": true,
          "properties": [
            {
              "name": "sourceId",
              "type": "string",
              "value": "ref-042-0-2"
            },
            {
              "name": "collision",
              "type": "string",
              "value": "solid"
            }
          ]
        },
        {
          "id": 104,
          "name": "ref-042-0-3",
          "type": "Brick",
          "x": 1072,
          "y": 96,
          "width": 16,
          "height": 16,
          "rotation": 0,
          "visible": true,
          "properties": [
            {
              "name": "sourceId",
              "type": "string",
              "value": "ref-042-0-3"
            },
            {
              "name": "collision",
              "type": "string",
              "value": "solid"
            }
          ]
        },
        {
          "id": 105,
          "name": "ref-042-0-4",
          "type": "Brick",
          "x": 1072,
          "y": 80,
          "width": 16,
          "height": 16,
          "rotation": 0,
          "visible": true,
          "properties": [
            {
              "name": "sourceId",
              "type": "string",
              "value": "ref-042-0-4"
            },
            {
              "name": "collision",
              "type": "string",
              "value": "solid"
            }
          ]
        },
        {
          "id": 106,
          "name": "ref-043-0-0",
          "type": "Brick",
          "x": 1088,
          "y": 144,
          "width": 16,
          "height": 16,
          "rotation": 0,
          "visible": true,
          "properties": [
            {
              "name": "sourceId",
              "type": "string",
              "value": "ref-043-0-0"
            },
            {
              "name": "collision",
              "type": "string",
              "value": "solid"
            }
          ]
        },
        {
          "id": 107,
          "name": "ref-043-1-0",
          "type": "Brick",
          "x": 1104,
          "y": 144,
          "width": 16,
          "height": 16,
          "rotation": 0,
          "visible": true,
          "properties": [
            {
              "name": "sourceId",
              "type": "string",
              "value": "ref-043-1-0"
            },
            {
              "name": "collision",
              "type": "string",
              "value": "solid"
            }
          ]
        },
        {
          "id": 108,
          "name": "ref-045",
          "type": "Brick",
          "x": 1104,
          "y": 128,
          "width": 16,
          "height": 16,
          "rotation": 0,
          "visible": true,
          "properties": [
            {
              "name": "sourceId",
              "type": "string",
              "value": "ref-045"
            },
            {
              "name": "collision",
              "type": "string",
              "value": "solid"
            }
          ]
        },
        {
          "id": 109,
          "name": "ref-046-0-0",
          "type": "Brick",
          "x": 1152,
          "y": 144,
          "width": 16,
          "height": 16,
          "rotation": 0,
          "visible": true,
          "properties": [
            {
              "name": "sourceId",
              "type": "string",
              "value": "ref-046-0-0"
            },
            {
              "name": "collision",
              "type": "string",
              "value": "solid"
            }
          ]
        },
        {
          "id": 110,
          "name": "ref-046-1-0",
          "type": "Brick",
          "x": 1168,
          "y": 144,
          "width": 16,
          "height": 16,
          "rotation": 0,
          "visible": true,
          "properties": [
            {
              "name": "sourceId",
              "type": "string",
              "value": "ref-046-1-0"
            },
            {
              "name": "collision",
              "type": "string",
              "value": "solid"
            }
          ]
        },
        {
          "id": 111,
          "name": "ref-047",
          "type": "Brick",
          "x": 1152,
          "y": 128,
          "width": 16,
          "height": 16,
          "rotation": 0,
          "visible": true,
          "properties": [
            {
              "name": "sourceId",
              "type": "string",
              "value": "ref-047"
            },
            {
              "name": "collision",
              "type": "string",
              "value": "solid"
            }
          ]
        },
        {
          "id": 112,
          "name": "ref-048-0-0",
          "type": "Brick",
          "x": 1152,
          "y": 112,
          "width": 16,
          "height": 16,
          "rotation": 0,
          "visible": true,
          "properties": [
            {
              "name": "sourceId",
              "type": "string",
              "value": "ref-048-0-0"
            },
            {
              "name": "collision",
              "type": "string",
              "value": "solid"
            }
          ]
        },
        {
          "id": 113,
          "name": "ref-048-0-1",
          "type": "Brick",
          "x": 1152,
          "y": 96,
          "width": 16,
          "height": 16,
          "rotation": 0,
          "visible": true,
          "properties": [
            {
              "name": "sourceId",
              "type": "string",
              "value": "ref-048-0-1"
            },
            {
              "name": "collision",
              "type": "string",
              "value": "solid"
            }
          ]
        },
        {
          "id": 114,
          "name": "ref-048-0-2",
          "type": "Brick",
          "x": 1152,
          "y": 80,
          "width": 16,
          "height": 16,
          "rotation": 0,
          "visible": true,
          "properties": [
            {
              "name": "sourceId",
              "type": "string",
              "value": "ref-048-0-2"
            },
            {
              "name": "collision",
              "type": "string",
              "value": "solid"
            }
          ]
        },
        {
          "id": 115,
          "name": "ref-048-1-0",
          "type": "Brick",
          "x": 1168,
          "y": 112,
          "width": 16,
          "height": 16,
          "rotation": 0,
          "visible": true,
          "properties": [
            {
              "name": "sourceId",
              "type": "string",
              "value": "ref-048-1-0"
            },
            {
              "name": "collision",
              "type": "string",
              "value": "solid"
            }
          ]
        },
        {
          "id": 116,
          "name": "ref-048-1-1",
          "type": "Brick",
          "x": 1168,
          "y": 96,
          "width": 16,
          "height": 16,
          "rotation": 0,
          "visible": true,
          "properties": [
            {
              "name": "sourceId",
              "type": "string",
              "value": "ref-048-1-1"
            },
            {
              "name": "collision",
              "type": "string",
              "value": "solid"
            }
          ]
        },
        {
          "id": 117,
          "name": "ref-048-1-2",
          "type": "Brick",
          "x": 1168,
          "y": 80,
          "width": 16,
          "height": 16,
          "rotation": 0,
          "visible": true,
          "properties": [
            {
              "name": "sourceId",
              "type": "string",
              "value": "ref-048-1-2"
            },
            {
              "name": "collision",
              "type": "string",
              "value": "solid"
            }
          ]
        },
        {
          "id": 118,
          "name": "ref-049",
          "type": "Brick",
          "x": 1168,
          "y": 128,
          "width": 16,
          "height": 16,
          "rotation": 0,
          "visible": true,
          "properties": [
            {
              "name": "sourceId",
              "type": "string",
              "value": "ref-049"
            },
            {
              "name": "collision",
              "type": "string",
              "value": "solid"
            }
          ]
        },
        {
          "id": 119,
          "name": "ref-051-0-0",
          "type": "Brick",
          "x": 1216,
          "y": 144,
          "width": 16,
          "height": 16,
          "rotation": 0,
          "visible": true,
          "properties": [
            {
              "name": "sourceId",
              "type": "string",
              "value": "ref-051-0-0"
            },
            {
              "name": "collision",
              "type": "string",
              "value": "solid"
            }
          ]
        },
        {
          "id": 120,
          "name": "ref-051-1-0",
          "type": "Brick",
          "x": 1232,
          "y": 144,
          "width": 16,
          "height": 16,
          "rotation": 0,
          "visible": true,
          "properties": [
            {
              "name": "sourceId",
              "type": "string",
              "value": "ref-051-1-0"
            },
            {
              "name": "collision",
              "type": "string",
              "value": "solid"
            }
          ]
        },
        {
          "id": 121,
          "name": "ref-051-2-0",
          "type": "Brick",
          "x": 1248,
          "y": 144,
          "width": 16,
          "height": 16,
          "rotation": 0,
          "visible": true,
          "properties": [
            {
              "name": "sourceId",
              "type": "string",
              "value": "ref-051-2-0"
            },
            {
              "name": "collision",
              "type": "string",
              "value": "solid"
            }
          ]
        },
        {
          "id": 122,
          "name": "ref-051-3-0",
          "type": "Brick",
          "x": 1264,
          "y": 144,
          "width": 16,
          "height": 16,
          "rotation": 0,
          "visible": true,
          "properties": [
            {
              "name": "sourceId",
              "type": "string",
              "value": "ref-051-3-0"
            },
            {
              "name": "collision",
              "type": "string",
              "value": "solid"
            }
          ]
        },
        {
          "id": 123,
          "name": "ref-053-0-0",
          "type": "Brick",
          "x": 1216,
          "y": 64,
          "width": 16,
          "height": 16,
          "rotation": 0,
          "visible": true,
          "properties": [
            {
              "name": "sourceId",
              "type": "string",
              "value": "ref-053-0-0"
            },
            {
              "name": "collision",
              "type": "string",
              "value": "solid"
            }
          ]
        },
        {
          "id": 124,
          "name": "ref-053-0-1",
          "type": "Brick",
          "x": 1216,
          "y": 48,
          "width": 16,
          "height": 16,
          "rotation": 0,
          "visible": true,
          "properties": [
            {
              "name": "sourceId",
              "type": "string",
              "value": "ref-053-0-1"
            },
            {
              "name": "collision",
              "type": "string",
              "value": "solid"
            }
          ]
        },
        {
          "id": 125,
          "name": "ref-053-1-0",
          "type": "Brick",
          "x": 1232,
          "y": 64,
          "width": 16,
          "height": 16,
          "rotation": 0,
          "visible": true,
          "properties": [
            {
              "name": "sourceId",
              "type": "string",
              "value": "ref-053-1-0"
            },
            {
              "name": "collision",
              "type": "string",
              "value": "solid"
            }
          ]
        },
        {
          "id": 126,
          "name": "ref-053-1-1",
          "type": "Brick",
          "x": 1232,
          "y": 48,
          "width": 16,
          "height": 16,
          "rotation": 0,
          "visible": true,
          "properties": [
            {
              "name": "sourceId",
              "type": "string",
              "value": "ref-053-1-1"
            },
            {
              "name": "collision",
              "type": "string",
              "value": "solid"
            }
          ]
        },
        {
          "id": 127,
          "name": "ref-053-2-0",
          "type": "Brick",
          "x": 1248,
          "y": 64,
          "width": 16,
          "height": 16,
          "rotation": 0,
          "visible": true,
          "properties": [
            {
              "name": "sourceId",
              "type": "string",
              "value": "ref-053-2-0"
            },
            {
              "name": "collision",
              "type": "string",
              "value": "solid"
            }
          ]
        },
        {
          "id": 128,
          "name": "ref-053-2-1",
          "type": "Brick",
          "x": 1248,
          "y": 48,
          "width": 16,
          "height": 16,
          "rotation": 0,
          "visible": true,
          "properties": [
            {
              "name": "sourceId",
              "type": "string",
              "value": "ref-053-2-1"
            },
            {
              "name": "collision",
              "type": "string",
              "value": "solid"
            }
          ]
        },
        {
          "id": 129,
          "name": "ref-053-3-0",
          "type": "Brick",
          "x": 1264,
          "y": 64,
          "width": 16,
          "height": 16,
          "rotation": 0,
          "visible": true,
          "properties": [
            {
              "name": "sourceId",
              "type": "string",
              "value": "ref-053-3-0"
            },
            {
              "name": "collision",
              "type": "string",
              "value": "solid"
            }
          ]
        },
        {
          "id": 130,
          "name": "ref-053-3-1",
          "type": "Brick",
          "x": 1264,
          "y": 48,
          "width": 16,
          "height": 16,
          "rotation": 0,
          "visible": true,
          "properties": [
            {
              "name": "sourceId",
              "type": "string",
              "value": "ref-053-3-1"
            },
            {
              "name": "collision",
              "type": "string",
              "value": "solid"
            }
          ]
        },
        {
          "id": 131,
          "name": "ref-054",
          "type": "Floor",
          "x": 1328,
          "y": 208,
          "width": 544,
          "height": 32,
          "rotation": 0,
          "visible": true,
          "properties": [
            {
              "name": "sourceId",
              "type": "string",
              "value": "ref-054"
            },
            {
              "name": "collision",
              "type": "string",
              "value": "solid"
            }
          ]
        },
        {
          "id": 132,
          "name": "ref-055-0-0",
          "type": "Brick",
          "x": 1344,
          "y": 128,
          "width": 16,
          "height": 16,
          "rotation": 0,
          "visible": true,
          "properties": [
            {
              "name": "sourceId",
              "type": "string",
              "value": "ref-055-0-0"
            },
            {
              "name": "collision",
              "type": "string",
              "value": "solid"
            }
          ]
        },
        {
          "id": 133,
          "name": "ref-055-0-1",
          "type": "Brick",
          "x": 1344,
          "y": 112,
          "width": 16,
          "height": 16,
          "rotation": 0,
          "visible": true,
          "properties": [
            {
              "name": "sourceId",
              "type": "string",
              "value": "ref-055-0-1"
            },
            {
              "name": "collision",
              "type": "string",
              "value": "solid"
            }
          ]
        },
        {
          "id": 134,
          "name": "ref-055-1-0",
          "type": "Brick",
          "x": 1360,
          "y": 128,
          "width": 16,
          "height": 16,
          "rotation": 0,
          "visible": true,
          "properties": [
            {
              "name": "sourceId",
              "type": "string",
              "value": "ref-055-1-0"
            },
            {
              "name": "collision",
              "type": "string",
              "value": "solid"
            }
          ]
        },
        {
          "id": 135,
          "name": "ref-055-1-1",
          "type": "Brick",
          "x": 1360,
          "y": 112,
          "width": 16,
          "height": 16,
          "rotation": 0,
          "visible": true,
          "properties": [
            {
              "name": "sourceId",
              "type": "string",
              "value": "ref-055-1-1"
            },
            {
              "name": "collision",
              "type": "string",
              "value": "solid"
            }
          ]
        },
        {
          "id": 136,
          "name": "ref-055-2-0",
          "type": "Brick",
          "x": 1376,
          "y": 128,
          "width": 16,
          "height": 16,
          "rotation": 0,
          "visible": true,
          "properties": [
            {
              "name": "sourceId",
              "type": "string",
              "value": "ref-055-2-0"
            },
            {
              "name": "collision",
              "type": "string",
              "value": "solid"
            }
          ]
        },
        {
          "id": 137,
          "name": "ref-055-2-1",
          "type": "Brick",
          "x": 1376,
          "y": 112,
          "width": 16,
          "height": 16,
          "rotation": 0,
          "visible": true,
          "properties": [
            {
              "name": "sourceId",
              "type": "string",
              "value": "ref-055-2-1"
            },
            {
              "name": "collision",
              "type": "string",
              "value": "solid"
            }
          ]
        },
        {
          "id": 138,
          "name": "ref-055-3-0",
          "type": "Brick",
          "x": 1392,
          "y": 128,
          "width": 16,
          "height": 16,
          "rotation": 0,
          "visible": true,
          "properties": [
            {
              "name": "sourceId",
              "type": "string",
              "value": "ref-055-3-0"
            },
            {
              "name": "collision",
              "type": "string",
              "value": "solid"
            }
          ]
        },
        {
          "id": 139,
          "name": "ref-055-3-1",
          "type": "Brick",
          "x": 1392,
          "y": 112,
          "width": 16,
          "height": 16,
          "rotation": 0,
          "visible": true,
          "properties": [
            {
              "name": "sourceId",
              "type": "string",
              "value": "ref-055-3-1"
            },
            {
              "name": "collision",
              "type": "string",
              "value": "solid"
            }
          ]
        },
        {
          "id": 140,
          "name": "ref-055-4-0",
          "type": "Brick",
          "x": 1408,
          "y": 128,
          "width": 16,
          "height": 16,
          "rotation": 0,
          "visible": true,
          "properties": [
            {
              "name": "sourceId",
              "type": "string",
              "value": "ref-055-4-0"
            },
            {
              "name": "collision",
              "type": "string",
              "value": "solid"
            }
          ]
        },
        {
          "id": 141,
          "name": "ref-055-4-1",
          "type": "Brick",
          "x": 1408,
          "y": 112,
          "width": 16,
          "height": 16,
          "rotation": 0,
          "visible": true,
          "properties": [
            {
              "name": "sourceId",
              "type": "string",
              "value": "ref-055-4-1"
            },
            {
              "name": "collision",
              "type": "string",
              "value": "solid"
            }
          ]
        },
        {
          "id": 142,
          "name": "ref-055-5-0",
          "type": "Brick",
          "x": 1424,
          "y": 128,
          "width": 16,
          "height": 16,
          "rotation": 0,
          "visible": true,
          "properties": [
            {
              "name": "sourceId",
              "type": "string",
              "value": "ref-055-5-0"
            },
            {
              "name": "collision",
              "type": "string",
              "value": "solid"
            }
          ]
        },
        {
          "id": 143,
          "name": "ref-055-5-1",
          "type": "Brick",
          "x": 1424,
          "y": 112,
          "width": 16,
          "height": 16,
          "rotation": 0,
          "visible": true,
          "properties": [
            {
              "name": "sourceId",
              "type": "string",
              "value": "ref-055-5-1"
            },
            {
              "name": "collision",
              "type": "string",
              "value": "solid"
            }
          ]
        },
        {
          "id": 144,
          "name": "ref-057",
          "type": "Brick",
          "x": 1424,
          "y": 32,
          "width": 16,
          "height": 16,
          "rotation": 0,
          "visible": true,
          "properties": [
            {
              "name": "sourceId",
              "type": "string",
              "value": "ref-057"
            },
            {
              "name": "collision",
              "type": "string",
              "value": "solid"
            }
          ]
        },
        {
          "id": 145,
          "name": "ref-058",
          "type": "Brick",
          "x": 1440,
          "y": 32,
          "width": 720,
          "height": 16,
          "rotation": 0,
          "visible": true,
          "properties": [
            {
              "name": "sourceId",
              "type": "string",
              "value": "ref-058"
            },
            {
              "name": "collision",
              "type": "string",
              "value": "solid"
            }
          ]
        },
        {
          "id": 146,
          "name": "ref-060",
          "type": "Pipe",
          "x": 1600,
          "y": 160,
          "width": 32,
          "height": 48,
          "rotation": 0,
          "visible": true,
          "properties": [
            {
              "name": "sourceId",
              "type": "string",
              "value": "ref-060"
            },
            {
              "name": "collision",
              "type": "string",
              "value": "solid"
            }
          ]
        },
        {
          "id": 147,
          "name": "ref-061",
          "type": "Pipe",
          "x": 1696,
          "y": 144,
          "width": 32,
          "height": 64,
          "rotation": 0,
          "visible": true,
          "properties": [
            {
              "name": "sourceId",
              "type": "string",
              "value": "ref-061"
            },
            {
              "name": "collision",
              "type": "string",
              "value": "solid"
            }
          ]
        },
        {
          "id": 148,
          "name": "ref-063",
          "type": "Pipe",
          "x": 1792,
          "y": 176,
          "width": 32,
          "height": 32,
          "rotation": 0,
          "visible": true,
          "properties": [
            {
              "name": "sourceId",
              "type": "string",
              "value": "ref-063"
            },
            {
              "name": "collision",
              "type": "string",
              "value": "solid"
            }
          ]
        },
        {
          "id": 149,
          "name": "ref-064",
          "type": "Floor",
          "x": 1904,
          "y": 208,
          "width": 32,
          "height": 32,
          "rotation": 0,
          "visible": true,
          "properties": [
            {
              "name": "sourceId",
              "type": "string",
              "value": "ref-064"
            },
            {
              "name": "collision",
              "type": "string",
              "value": "solid"
            }
          ]
        },
        {
          "id": 150,
          "name": "ref-065-0-0",
          "type": "Brick",
          "x": 1904,
          "y": 192,
          "width": 16,
          "height": 16,
          "rotation": 0,
          "visible": true,
          "properties": [
            {
              "name": "sourceId",
              "type": "string",
              "value": "ref-065-0-0"
            },
            {
              "name": "collision",
              "type": "string",
              "value": "solid"
            }
          ]
        },
        {
          "id": 151,
          "name": "ref-065-0-1",
          "type": "Brick",
          "x": 1904,
          "y": 176,
          "width": 16,
          "height": 16,
          "rotation": 0,
          "visible": true,
          "properties": [
            {
              "name": "sourceId",
              "type": "string",
              "value": "ref-065-0-1"
            },
            {
              "name": "collision",
              "type": "string",
              "value": "solid"
            }
          ]
        },
        {
          "id": 152,
          "name": "ref-065-0-2",
          "type": "Brick",
          "x": 1904,
          "y": 160,
          "width": 16,
          "height": 16,
          "rotation": 0,
          "visible": true,
          "properties": [
            {
              "name": "sourceId",
              "type": "string",
              "value": "ref-065-0-2"
            },
            {
              "name": "collision",
              "type": "string",
              "value": "solid"
            }
          ]
        },
        {
          "id": 153,
          "name": "ref-065-1-0",
          "type": "Brick",
          "x": 1920,
          "y": 192,
          "width": 16,
          "height": 16,
          "rotation": 0,
          "visible": true,
          "properties": [
            {
              "name": "sourceId",
              "type": "string",
              "value": "ref-065-1-0"
            },
            {
              "name": "collision",
              "type": "string",
              "value": "solid"
            }
          ]
        },
        {
          "id": 154,
          "name": "ref-065-1-1",
          "type": "Brick",
          "x": 1920,
          "y": 176,
          "width": 16,
          "height": 16,
          "rotation": 0,
          "visible": true,
          "properties": [
            {
              "name": "sourceId",
              "type": "string",
              "value": "ref-065-1-1"
            },
            {
              "name": "collision",
              "type": "string",
              "value": "solid"
            }
          ]
        },
        {
          "id": 155,
          "name": "ref-065-1-2",
          "type": "Brick",
          "x": 1920,
          "y": 160,
          "width": 16,
          "height": 16,
          "rotation": 0,
          "visible": true,
          "properties": [
            {
              "name": "sourceId",
              "type": "string",
              "value": "ref-065-1-2"
            },
            {
              "name": "collision",
              "type": "string",
              "value": "solid"
            }
          ]
        },
        {
          "id": 156,
          "name": "ref-066",
          "type": "Floor",
          "x": 1968,
          "y": 208,
          "width": 192,
          "height": 32,
          "rotation": 0,
          "visible": true,
          "properties": [
            {
              "name": "sourceId",
              "type": "string",
              "value": "ref-066"
            },
            {
              "name": "collision",
              "type": "string",
              "value": "solid"
            }
          ]
        },
        {
          "id": 157,
          "name": "ref-067",
          "type": "Stone",
          "x": 2080,
          "y": 192,
          "width": 16,
          "height": 16,
          "rotation": 0,
          "visible": true,
          "properties": [
            {
              "name": "sourceId",
              "type": "string",
              "value": "ref-067"
            },
            {
              "name": "collision",
              "type": "string",
              "value": "solid"
            }
          ]
        },
        {
          "id": 158,
          "name": "ref-068",
          "type": "Stone",
          "x": 2096,
          "y": 176,
          "width": 16,
          "height": 32,
          "rotation": 0,
          "visible": true,
          "properties": [
            {
              "name": "sourceId",
              "type": "string",
              "value": "ref-068"
            },
            {
              "name": "collision",
              "type": "string",
              "value": "solid"
            }
          ]
        },
        {
          "id": 159,
          "name": "ref-069",
          "type": "Stone",
          "x": 2112,
          "y": 160,
          "width": 16,
          "height": 48,
          "rotation": 0,
          "visible": true,
          "properties": [
            {
              "name": "sourceId",
              "type": "string",
              "value": "ref-069"
            },
            {
              "name": "collision",
              "type": "string",
              "value": "solid"
            }
          ]
        },
        {
          "id": 160,
          "name": "ref-071",
          "type": "Stone",
          "x": 2128,
          "y": 144,
          "width": 16,
          "height": 64,
          "rotation": 0,
          "visible": true,
          "properties": [
            {
              "name": "sourceId",
              "type": "string",
              "value": "ref-071"
            },
            {
              "name": "collision",
              "type": "string",
              "value": "solid"
            }
          ]
        },
        {
          "id": 161,
          "name": "ref-073",
          "type": "Stone",
          "x": 2144,
          "y": 144,
          "width": 16,
          "height": 64,
          "rotation": 0,
          "visible": true,
          "properties": [
            {
              "name": "sourceId",
              "type": "string",
              "value": "ref-073"
            },
            {
              "name": "collision",
              "type": "string",
              "value": "solid"
            }
          ]
        },
        {
          "id": 162,
          "name": "ref-074-0",
          "type": "Platform",
          "x": 2192,
          "y": 208,
          "width": 48,
          "height": 8,
          "rotation": 0,
          "visible": true,
          "properties": [
            {
              "name": "sourceId",
              "type": "string",
              "value": "ref-074-0"
            },
            {
              "name": "collision",
              "type": "string",
              "value": "oneway"
            }
          ]
        },
        {
          "id": 163,
          "name": "ref-074-1",
          "type": "Platform",
          "x": 2192,
          "y": 112,
          "width": 48,
          "height": 8,
          "rotation": 0,
          "visible": true,
          "properties": [
            {
              "name": "sourceId",
              "type": "string",
              "value": "ref-074-1"
            },
            {
              "name": "collision",
              "type": "string",
              "value": "oneway"
            }
          ]
        },
        {
          "id": 164,
          "name": "ref-075",
          "type": "Floor",
          "x": 2288,
          "y": 208,
          "width": 128,
          "height": 32,
          "rotation": 0,
          "visible": true,
          "properties": [
            {
              "name": "sourceId",
              "type": "string",
              "value": "ref-075"
            },
            {
              "name": "collision",
              "type": "string",
              "value": "solid"
            }
          ]
        },
        {
          "id": 165,
          "name": "ref-076-0-0",
          "type": "Brick",
          "x": 2288,
          "y": 128,
          "width": 16,
          "height": 16,
          "rotation": 0,
          "visible": true,
          "properties": [
            {
              "name": "sourceId",
              "type": "string",
              "value": "ref-076-0-0"
            },
            {
              "name": "collision",
              "type": "string",
              "value": "solid"
            }
          ]
        },
        {
          "id": 166,
          "name": "ref-076-1-0",
          "type": "Brick",
          "x": 2304,
          "y": 128,
          "width": 16,
          "height": 16,
          "rotation": 0,
          "visible": true,
          "properties": [
            {
              "name": "sourceId",
              "type": "string",
              "value": "ref-076-1-0"
            },
            {
              "name": "collision",
              "type": "string",
              "value": "solid"
            }
          ]
        },
        {
          "id": 167,
          "name": "ref-076-2-0",
          "type": "Brick",
          "x": 2320,
          "y": 128,
          "width": 16,
          "height": 16,
          "rotation": 0,
          "visible": true,
          "properties": [
            {
              "name": "sourceId",
              "type": "string",
              "value": "ref-076-2-0"
            },
            {
              "name": "collision",
              "type": "string",
              "value": "solid"
            }
          ]
        },
        {
          "id": 168,
          "name": "ref-076-3-0",
          "type": "Brick",
          "x": 2336,
          "y": 128,
          "width": 16,
          "height": 16,
          "rotation": 0,
          "visible": true,
          "properties": [
            {
              "name": "sourceId",
              "type": "string",
              "value": "ref-076-3-0"
            },
            {
              "name": "collision",
              "type": "string",
              "value": "solid"
            }
          ]
        },
        {
          "id": 169,
          "name": "ref-076-4-0",
          "type": "Brick",
          "x": 2352,
          "y": 128,
          "width": 16,
          "height": 16,
          "rotation": 0,
          "visible": true,
          "properties": [
            {
              "name": "sourceId",
              "type": "string",
              "value": "ref-076-4-0"
            },
            {
              "name": "collision",
              "type": "string",
              "value": "solid"
            }
          ]
        },
        {
          "id": 170,
          "name": "ref-078",
          "type": "Brick",
          "x": 2368,
          "y": 128,
          "width": 16,
          "height": 16,
          "rotation": 0,
          "visible": true,
          "properties": [
            {
              "name": "sourceId",
              "type": "string",
              "value": "ref-078"
            },
            {
              "name": "collision",
              "type": "string",
              "value": "solid"
            }
          ]
        },
        {
          "id": 171,
          "name": "ref-079-0",
          "type": "Platform",
          "x": 2448,
          "y": 192,
          "width": 48,
          "height": 8,
          "rotation": 0,
          "visible": true,
          "properties": [
            {
              "name": "sourceId",
              "type": "string",
              "value": "ref-079-0"
            },
            {
              "name": "collision",
              "type": "string",
              "value": "oneway"
            }
          ]
        },
        {
          "id": 172,
          "name": "ref-079-1",
          "type": "Platform",
          "x": 2448,
          "y": 96,
          "width": 48,
          "height": 8,
          "rotation": 0,
          "visible": true,
          "properties": [
            {
              "name": "sourceId",
              "type": "string",
              "value": "ref-079-1"
            },
            {
              "name": "collision",
              "type": "string",
              "value": "oneway"
            }
          ]
        },
        {
          "id": 173,
          "name": "ref-080",
          "type": "Floor",
          "x": 2528,
          "y": 208,
          "width": 512,
          "height": 32,
          "rotation": 0,
          "visible": true,
          "properties": [
            {
              "name": "sourceId",
              "type": "string",
              "value": "ref-080"
            },
            {
              "name": "collision",
              "type": "string",
              "value": "solid"
            }
          ]
        },
        {
          "id": 174,
          "name": "ref-081-0-0",
          "type": "Brick",
          "x": 2528,
          "y": 192,
          "width": 16,
          "height": 16,
          "rotation": 0,
          "visible": true,
          "properties": [
            {
              "name": "sourceId",
              "type": "string",
              "value": "ref-081-0-0"
            },
            {
              "name": "collision",
              "type": "string",
              "value": "solid"
            }
          ]
        },
        {
          "id": 175,
          "name": "ref-081-0-1",
          "type": "Brick",
          "x": 2528,
          "y": 176,
          "width": 16,
          "height": 16,
          "rotation": 0,
          "visible": true,
          "properties": [
            {
              "name": "sourceId",
              "type": "string",
              "value": "ref-081-0-1"
            },
            {
              "name": "collision",
              "type": "string",
              "value": "solid"
            }
          ]
        },
        {
          "id": 176,
          "name": "ref-081-0-2",
          "type": "Brick",
          "x": 2528,
          "y": 160,
          "width": 16,
          "height": 16,
          "rotation": 0,
          "visible": true,
          "properties": [
            {
              "name": "sourceId",
              "type": "string",
              "value": "ref-081-0-2"
            },
            {
              "name": "collision",
              "type": "string",
              "value": "solid"
            }
          ]
        },
        {
          "id": 177,
          "name": "ref-081-1-0",
          "type": "Brick",
          "x": 2544,
          "y": 192,
          "width": 16,
          "height": 16,
          "rotation": 0,
          "visible": true,
          "properties": [
            {
              "name": "sourceId",
              "type": "string",
              "value": "ref-081-1-0"
            },
            {
              "name": "collision",
              "type": "string",
              "value": "solid"
            }
          ]
        },
        {
          "id": 178,
          "name": "ref-081-1-1",
          "type": "Brick",
          "x": 2544,
          "y": 176,
          "width": 16,
          "height": 16,
          "rotation": 0,
          "visible": true,
          "properties": [
            {
              "name": "sourceId",
              "type": "string",
              "value": "ref-081-1-1"
            },
            {
              "name": "collision",
              "type": "string",
              "value": "solid"
            }
          ]
        },
        {
          "id": 179,
          "name": "ref-081-1-2",
          "type": "Brick",
          "x": 2544,
          "y": 160,
          "width": 16,
          "height": 16,
          "rotation": 0,
          "visible": true,
          "properties": [
            {
              "name": "sourceId",
              "type": "string",
              "value": "ref-081-1-2"
            },
            {
              "name": "collision",
              "type": "string",
              "value": "solid"
            }
          ]
        },
        {
          "id": 180,
          "name": "ref-081-2-0",
          "type": "Brick",
          "x": 2560,
          "y": 192,
          "width": 16,
          "height": 16,
          "rotation": 0,
          "visible": true,
          "properties": [
            {
              "name": "sourceId",
              "type": "string",
              "value": "ref-081-2-0"
            },
            {
              "name": "collision",
              "type": "string",
              "value": "solid"
            }
          ]
        },
        {
          "id": 181,
          "name": "ref-081-2-1",
          "type": "Brick",
          "x": 2560,
          "y": 176,
          "width": 16,
          "height": 16,
          "rotation": 0,
          "visible": true,
          "properties": [
            {
              "name": "sourceId",
              "type": "string",
              "value": "ref-081-2-1"
            },
            {
              "name": "collision",
              "type": "string",
              "value": "solid"
            }
          ]
        },
        {
          "id": 182,
          "name": "ref-081-2-2",
          "type": "Brick",
          "x": 2560,
          "y": 160,
          "width": 16,
          "height": 16,
          "rotation": 0,
          "visible": true,
          "properties": [
            {
              "name": "sourceId",
              "type": "string",
              "value": "ref-081-2-2"
            },
            {
              "name": "collision",
              "type": "string",
              "value": "solid"
            }
          ]
        },
        {
          "id": 183,
          "name": "ref-081-3-0",
          "type": "Brick",
          "x": 2576,
          "y": 192,
          "width": 16,
          "height": 16,
          "rotation": 0,
          "visible": true,
          "properties": [
            {
              "name": "sourceId",
              "type": "string",
              "value": "ref-081-3-0"
            },
            {
              "name": "collision",
              "type": "string",
              "value": "solid"
            }
          ]
        },
        {
          "id": 184,
          "name": "ref-081-3-1",
          "type": "Brick",
          "x": 2576,
          "y": 176,
          "width": 16,
          "height": 16,
          "rotation": 0,
          "visible": true,
          "properties": [
            {
              "name": "sourceId",
              "type": "string",
              "value": "ref-081-3-1"
            },
            {
              "name": "collision",
              "type": "string",
              "value": "solid"
            }
          ]
        },
        {
          "id": 185,
          "name": "ref-081-3-2",
          "type": "Brick",
          "x": 2576,
          "y": 160,
          "width": 16,
          "height": 16,
          "rotation": 0,
          "visible": true,
          "properties": [
            {
              "name": "sourceId",
              "type": "string",
              "value": "ref-081-3-2"
            },
            {
              "name": "collision",
              "type": "string",
              "value": "solid"
            }
          ]
        },
        {
          "id": 186,
          "name": "ref-081-4-0",
          "type": "Brick",
          "x": 2592,
          "y": 192,
          "width": 16,
          "height": 16,
          "rotation": 0,
          "visible": true,
          "properties": [
            {
              "name": "sourceId",
              "type": "string",
              "value": "ref-081-4-0"
            },
            {
              "name": "collision",
              "type": "string",
              "value": "solid"
            }
          ]
        },
        {
          "id": 187,
          "name": "ref-081-4-1",
          "type": "Brick",
          "x": 2592,
          "y": 176,
          "width": 16,
          "height": 16,
          "rotation": 0,
          "visible": true,
          "properties": [
            {
              "name": "sourceId",
              "type": "string",
              "value": "ref-081-4-1"
            },
            {
              "name": "collision",
              "type": "string",
              "value": "solid"
            }
          ]
        },
        {
          "id": 188,
          "name": "ref-081-4-2",
          "type": "Brick",
          "x": 2592,
          "y": 160,
          "width": 16,
          "height": 16,
          "rotation": 0,
          "visible": true,
          "properties": [
            {
              "name": "sourceId",
              "type": "string",
              "value": "ref-081-4-2"
            },
            {
              "name": "collision",
              "type": "string",
              "value": "solid"
            }
          ]
        },
        {
          "id": 189,
          "name": "ref-081-5-0",
          "type": "Brick",
          "x": 2608,
          "y": 192,
          "width": 16,
          "height": 16,
          "rotation": 0,
          "visible": true,
          "properties": [
            {
              "name": "sourceId",
              "type": "string",
              "value": "ref-081-5-0"
            },
            {
              "name": "collision",
              "type": "string",
              "value": "solid"
            }
          ]
        },
        {
          "id": 190,
          "name": "ref-081-5-1",
          "type": "Brick",
          "x": 2608,
          "y": 176,
          "width": 16,
          "height": 16,
          "rotation": 0,
          "visible": true,
          "properties": [
            {
              "name": "sourceId",
              "type": "string",
              "value": "ref-081-5-1"
            },
            {
              "name": "collision",
              "type": "string",
              "value": "solid"
            }
          ]
        },
        {
          "id": 191,
          "name": "ref-081-5-2",
          "type": "Brick",
          "x": 2608,
          "y": 160,
          "width": 16,
          "height": 16,
          "rotation": 0,
          "visible": true,
          "properties": [
            {
              "name": "sourceId",
              "type": "string",
              "value": "ref-081-5-2"
            },
            {
              "name": "collision",
              "type": "string",
              "value": "solid"
            }
          ]
        },
        {
          "id": 192,
          "name": "ref-081-6-0",
          "type": "Brick",
          "x": 2624,
          "y": 192,
          "width": 16,
          "height": 16,
          "rotation": 0,
          "visible": true,
          "properties": [
            {
              "name": "sourceId",
              "type": "string",
              "value": "ref-081-6-0"
            },
            {
              "name": "collision",
              "type": "string",
              "value": "solid"
            }
          ]
        },
        {
          "id": 193,
          "name": "ref-081-6-1",
          "type": "Brick",
          "x": 2624,
          "y": 176,
          "width": 16,
          "height": 16,
          "rotation": 0,
          "visible": true,
          "properties": [
            {
              "name": "sourceId",
              "type": "string",
              "value": "ref-081-6-1"
            },
            {
              "name": "collision",
              "type": "string",
              "value": "solid"
            }
          ]
        },
        {
          "id": 194,
          "name": "ref-081-6-2",
          "type": "Brick",
          "x": 2624,
          "y": 160,
          "width": 16,
          "height": 16,
          "rotation": 0,
          "visible": true,
          "properties": [
            {
              "name": "sourceId",
              "type": "string",
              "value": "ref-081-6-2"
            },
            {
              "name": "collision",
              "type": "string",
              "value": "solid"
            }
          ]
        },
        {
          "id": 195,
          "name": "ref-081-7-0",
          "type": "Brick",
          "x": 2640,
          "y": 192,
          "width": 16,
          "height": 16,
          "rotation": 0,
          "visible": true,
          "properties": [
            {
              "name": "sourceId",
              "type": "string",
              "value": "ref-081-7-0"
            },
            {
              "name": "collision",
              "type": "string",
              "value": "solid"
            }
          ]
        },
        {
          "id": 196,
          "name": "ref-081-7-1",
          "type": "Brick",
          "x": 2640,
          "y": 176,
          "width": 16,
          "height": 16,
          "rotation": 0,
          "visible": true,
          "properties": [
            {
              "name": "sourceId",
              "type": "string",
              "value": "ref-081-7-1"
            },
            {
              "name": "collision",
              "type": "string",
              "value": "solid"
            }
          ]
        },
        {
          "id": 197,
          "name": "ref-081-7-2",
          "type": "Brick",
          "x": 2640,
          "y": 160,
          "width": 16,
          "height": 16,
          "rotation": 0,
          "visible": true,
          "properties": [
            {
              "name": "sourceId",
              "type": "string",
              "value": "ref-081-7-2"
            },
            {
              "name": "collision",
              "type": "string",
              "value": "solid"
            }
          ]
        },
        {
          "id": 198,
          "name": "ref-081-8-0",
          "type": "Brick",
          "x": 2656,
          "y": 192,
          "width": 16,
          "height": 16,
          "rotation": 0,
          "visible": true,
          "properties": [
            {
              "name": "sourceId",
              "type": "string",
              "value": "ref-081-8-0"
            },
            {
              "name": "collision",
              "type": "string",
              "value": "solid"
            }
          ]
        },
        {
          "id": 199,
          "name": "ref-081-8-1",
          "type": "Brick",
          "x": 2656,
          "y": 176,
          "width": 16,
          "height": 16,
          "rotation": 0,
          "visible": true,
          "properties": [
            {
              "name": "sourceId",
              "type": "string",
              "value": "ref-081-8-1"
            },
            {
              "name": "collision",
              "type": "string",
              "value": "solid"
            }
          ]
        },
        {
          "id": 200,
          "name": "ref-081-8-2",
          "type": "Brick",
          "x": 2656,
          "y": 160,
          "width": 16,
          "height": 16,
          "rotation": 0,
          "visible": true,
          "properties": [
            {
              "name": "sourceId",
              "type": "string",
              "value": "ref-081-8-2"
            },
            {
              "name": "collision",
              "type": "string",
              "value": "solid"
            }
          ]
        },
        {
          "id": 201,
          "name": "ref-081-9-0",
          "type": "Brick",
          "x": 2672,
          "y": 192,
          "width": 16,
          "height": 16,
          "rotation": 0,
          "visible": true,
          "properties": [
            {
              "name": "sourceId",
              "type": "string",
              "value": "ref-081-9-0"
            },
            {
              "name": "collision",
              "type": "string",
              "value": "solid"
            }
          ]
        },
        {
          "id": 202,
          "name": "ref-081-9-1",
          "type": "Brick",
          "x": 2672,
          "y": 176,
          "width": 16,
          "height": 16,
          "rotation": 0,
          "visible": true,
          "properties": [
            {
              "name": "sourceId",
              "type": "string",
              "value": "ref-081-9-1"
            },
            {
              "name": "collision",
              "type": "string",
              "value": "solid"
            }
          ]
        },
        {
          "id": 203,
          "name": "ref-081-9-2",
          "type": "Brick",
          "x": 2672,
          "y": 160,
          "width": 16,
          "height": 16,
          "rotation": 0,
          "visible": true,
          "properties": [
            {
              "name": "sourceId",
              "type": "string",
              "value": "ref-081-9-2"
            },
            {
              "name": "collision",
              "type": "string",
              "value": "solid"
            }
          ]
        },
        {
          "id": 204,
          "name": "ref-081-10-0",
          "type": "Brick",
          "x": 2688,
          "y": 192,
          "width": 16,
          "height": 16,
          "rotation": 0,
          "visible": true,
          "properties": [
            {
              "name": "sourceId",
              "type": "string",
              "value": "ref-081-10-0"
            },
            {
              "name": "collision",
              "type": "string",
              "value": "solid"
            }
          ]
        },
        {
          "id": 205,
          "name": "ref-081-10-1",
          "type": "Brick",
          "x": 2688,
          "y": 176,
          "width": 16,
          "height": 16,
          "rotation": 0,
          "visible": true,
          "properties": [
            {
              "name": "sourceId",
              "type": "string",
              "value": "ref-081-10-1"
            },
            {
              "name": "collision",
              "type": "string",
              "value": "solid"
            }
          ]
        },
        {
          "id": 206,
          "name": "ref-081-10-2",
          "type": "Brick",
          "x": 2688,
          "y": 160,
          "width": 16,
          "height": 16,
          "rotation": 0,
          "visible": true,
          "properties": [
            {
              "name": "sourceId",
              "type": "string",
              "value": "ref-081-10-2"
            },
            {
              "name": "collision",
              "type": "string",
              "value": "solid"
            }
          ]
        },
        {
          "id": 207,
          "name": "ref-081-11-0",
          "type": "Brick",
          "x": 2704,
          "y": 192,
          "width": 16,
          "height": 16,
          "rotation": 0,
          "visible": true,
          "properties": [
            {
              "name": "sourceId",
              "type": "string",
              "value": "ref-081-11-0"
            },
            {
              "name": "collision",
              "type": "string",
              "value": "solid"
            }
          ]
        },
        {
          "id": 208,
          "name": "ref-081-11-1",
          "type": "Brick",
          "x": 2704,
          "y": 176,
          "width": 16,
          "height": 16,
          "rotation": 0,
          "visible": true,
          "properties": [
            {
              "name": "sourceId",
              "type": "string",
              "value": "ref-081-11-1"
            },
            {
              "name": "collision",
              "type": "string",
              "value": "solid"
            }
          ]
        },
        {
          "id": 209,
          "name": "ref-081-11-2",
          "type": "Brick",
          "x": 2704,
          "y": 160,
          "width": 16,
          "height": 16,
          "rotation": 0,
          "visible": true,
          "properties": [
            {
              "name": "sourceId",
              "type": "string",
              "value": "ref-081-11-2"
            },
            {
              "name": "collision",
              "type": "string",
              "value": "solid"
            }
          ]
        },
        {
          "id": 210,
          "name": "ref-081-12-0",
          "type": "Brick",
          "x": 2720,
          "y": 192,
          "width": 16,
          "height": 16,
          "rotation": 0,
          "visible": true,
          "properties": [
            {
              "name": "sourceId",
              "type": "string",
              "value": "ref-081-12-0"
            },
            {
              "name": "collision",
              "type": "string",
              "value": "solid"
            }
          ]
        },
        {
          "id": 211,
          "name": "ref-081-12-1",
          "type": "Brick",
          "x": 2720,
          "y": 176,
          "width": 16,
          "height": 16,
          "rotation": 0,
          "visible": true,
          "properties": [
            {
              "name": "sourceId",
              "type": "string",
              "value": "ref-081-12-1"
            },
            {
              "name": "collision",
              "type": "string",
              "value": "solid"
            }
          ]
        },
        {
          "id": 212,
          "name": "ref-081-12-2",
          "type": "Brick",
          "x": 2720,
          "y": 160,
          "width": 16,
          "height": 16,
          "rotation": 0,
          "visible": true,
          "properties": [
            {
              "name": "sourceId",
              "type": "string",
              "value": "ref-081-12-2"
            },
            {
              "name": "collision",
              "type": "string",
              "value": "solid"
            }
          ]
        },
        {
          "id": 213,
          "name": "ref-081-13-0",
          "type": "Brick",
          "x": 2736,
          "y": 192,
          "width": 16,
          "height": 16,
          "rotation": 0,
          "visible": true,
          "properties": [
            {
              "name": "sourceId",
              "type": "string",
              "value": "ref-081-13-0"
            },
            {
              "name": "collision",
              "type": "string",
              "value": "solid"
            }
          ]
        },
        {
          "id": 214,
          "name": "ref-081-13-1",
          "type": "Brick",
          "x": 2736,
          "y": 176,
          "width": 16,
          "height": 16,
          "rotation": 0,
          "visible": true,
          "properties": [
            {
              "name": "sourceId",
              "type": "string",
              "value": "ref-081-13-1"
            },
            {
              "name": "collision",
              "type": "string",
              "value": "solid"
            }
          ]
        },
        {
          "id": 215,
          "name": "ref-081-13-2",
          "type": "Brick",
          "x": 2736,
          "y": 160,
          "width": 16,
          "height": 16,
          "rotation": 0,
          "visible": true,
          "properties": [
            {
              "name": "sourceId",
              "type": "string",
              "value": "ref-081-13-2"
            },
            {
              "name": "collision",
              "type": "string",
              "value": "solid"
            }
          ]
        },
        {
          "id": 216,
          "name": "ref-081-14-0",
          "type": "Brick",
          "x": 2752,
          "y": 192,
          "width": 16,
          "height": 16,
          "rotation": 0,
          "visible": true,
          "properties": [
            {
              "name": "sourceId",
              "type": "string",
              "value": "ref-081-14-0"
            },
            {
              "name": "collision",
              "type": "string",
              "value": "solid"
            }
          ]
        },
        {
          "id": 217,
          "name": "ref-081-14-1",
          "type": "Brick",
          "x": 2752,
          "y": 176,
          "width": 16,
          "height": 16,
          "rotation": 0,
          "visible": true,
          "properties": [
            {
              "name": "sourceId",
              "type": "string",
              "value": "ref-081-14-1"
            },
            {
              "name": "collision",
              "type": "string",
              "value": "solid"
            }
          ]
        },
        {
          "id": 218,
          "name": "ref-081-14-2",
          "type": "Brick",
          "x": 2752,
          "y": 160,
          "width": 16,
          "height": 16,
          "rotation": 0,
          "visible": true,
          "properties": [
            {
              "name": "sourceId",
              "type": "string",
              "value": "ref-081-14-2"
            },
            {
              "name": "collision",
              "type": "string",
              "value": "solid"
            }
          ]
        },
        {
          "id": 219,
          "name": "ref-081-15-0",
          "type": "Brick",
          "x": 2768,
          "y": 192,
          "width": 16,
          "height": 16,
          "rotation": 0,
          "visible": true,
          "properties": [
            {
              "name": "sourceId",
              "type": "string",
              "value": "ref-081-15-0"
            },
            {
              "name": "collision",
              "type": "string",
              "value": "solid"
            }
          ]
        },
        {
          "id": 220,
          "name": "ref-081-15-1",
          "type": "Brick",
          "x": 2768,
          "y": 176,
          "width": 16,
          "height": 16,
          "rotation": 0,
          "visible": true,
          "properties": [
            {
              "name": "sourceId",
              "type": "string",
              "value": "ref-081-15-1"
            },
            {
              "name": "collision",
              "type": "string",
              "value": "solid"
            }
          ]
        },
        {
          "id": 221,
          "name": "ref-081-15-2",
          "type": "Brick",
          "x": 2768,
          "y": 160,
          "width": 16,
          "height": 16,
          "rotation": 0,
          "visible": true,
          "properties": [
            {
              "name": "sourceId",
              "type": "string",
              "value": "ref-081-15-2"
            },
            {
              "name": "collision",
              "type": "string",
              "value": "solid"
            }
          ]
        },
        {
          "id": 222,
          "name": "ref-081-16-0",
          "type": "Brick",
          "x": 2784,
          "y": 192,
          "width": 16,
          "height": 16,
          "rotation": 0,
          "visible": true,
          "properties": [
            {
              "name": "sourceId",
              "type": "string",
              "value": "ref-081-16-0"
            },
            {
              "name": "collision",
              "type": "string",
              "value": "solid"
            }
          ]
        },
        {
          "id": 223,
          "name": "ref-081-16-1",
          "type": "Brick",
          "x": 2784,
          "y": 176,
          "width": 16,
          "height": 16,
          "rotation": 0,
          "visible": true,
          "properties": [
            {
              "name": "sourceId",
              "type": "string",
              "value": "ref-081-16-1"
            },
            {
              "name": "collision",
              "type": "string",
              "value": "solid"
            }
          ]
        },
        {
          "id": 224,
          "name": "ref-081-16-2",
          "type": "Brick",
          "x": 2784,
          "y": 160,
          "width": 16,
          "height": 16,
          "rotation": 0,
          "visible": true,
          "properties": [
            {
              "name": "sourceId",
              "type": "string",
              "value": "ref-081-16-2"
            },
            {
              "name": "collision",
              "type": "string",
              "value": "solid"
            }
          ]
        },
        {
          "id": 225,
          "name": "ref-082",
          "type": "PipeHorizontal",
          "x": 2624,
          "y": 128,
          "width": 32,
          "height": 32,
          "rotation": 0,
          "visible": true,
          "properties": [
            {
              "name": "sourceId",
              "type": "string",
              "value": "ref-082"
            },
            {
              "name": "collision",
              "type": "string",
              "value": "solid"
            }
          ]
        },
        {
          "id": 226,
          "name": "ref-083",
          "type": "Pipe",
          "x": 2656,
          "y": 32,
          "width": 32,
          "height": 128,
          "rotation": 0,
          "visible": true,
          "properties": [
            {
              "name": "sourceId",
              "type": "string",
              "value": "ref-083"
            },
            {
              "name": "collision",
              "type": "string",
              "value": "solid"
            }
          ]
        },
        {
          "id": 227,
          "name": "ref-084",
          "type": "Brick",
          "x": 2544,
          "y": 32,
          "width": 112,
          "height": 16,
          "rotation": 0,
          "visible": true,
          "properties": [
            {
              "name": "sourceId",
              "type": "string",
              "value": "ref-084"
            },
            {
              "name": "collision",
              "type": "string",
              "value": "solid"
            }
          ]
        },
        {
          "id": 228,
          "name": "ref-085-0-0",
          "type": "Brick",
          "x": 2688,
          "y": 144,
          "width": 16,
          "height": 16,
          "rotation": 0,
          "visible": true,
          "properties": [
            {
              "name": "sourceId",
              "type": "string",
              "value": "ref-085-0-0"
            },
            {
              "name": "collision",
              "type": "string",
              "value": "solid"
            }
          ]
        },
        {
          "id": 229,
          "name": "ref-085-0-1",
          "type": "Brick",
          "x": 2688,
          "y": 128,
          "width": 16,
          "height": 16,
          "rotation": 0,
          "visible": true,
          "properties": [
            {
              "name": "sourceId",
              "type": "string",
              "value": "ref-085-0-1"
            },
            {
              "name": "collision",
              "type": "string",
              "value": "solid"
            }
          ]
        },
        {
          "id": 230,
          "name": "ref-085-0-2",
          "type": "Brick",
          "x": 2688,
          "y": 112,
          "width": 16,
          "height": 16,
          "rotation": 0,
          "visible": true,
          "properties": [
            {
              "name": "sourceId",
              "type": "string",
              "value": "ref-085-0-2"
            },
            {
              "name": "collision",
              "type": "string",
              "value": "solid"
            }
          ]
        },
        {
          "id": 231,
          "name": "ref-085-0-3",
          "type": "Brick",
          "x": 2688,
          "y": 96,
          "width": 16,
          "height": 16,
          "rotation": 0,
          "visible": true,
          "properties": [
            {
              "name": "sourceId",
              "type": "string",
              "value": "ref-085-0-3"
            },
            {
              "name": "collision",
              "type": "string",
              "value": "solid"
            }
          ]
        },
        {
          "id": 232,
          "name": "ref-085-0-4",
          "type": "Brick",
          "x": 2688,
          "y": 80,
          "width": 16,
          "height": 16,
          "rotation": 0,
          "visible": true,
          "properties": [
            {
              "name": "sourceId",
              "type": "string",
              "value": "ref-085-0-4"
            },
            {
              "name": "collision",
              "type": "string",
              "value": "solid"
            }
          ]
        },
        {
          "id": 233,
          "name": "ref-085-0-5",
          "type": "Brick",
          "x": 2688,
          "y": 64,
          "width": 16,
          "height": 16,
          "rotation": 0,
          "visible": true,
          "properties": [
            {
              "name": "sourceId",
              "type": "string",
              "value": "ref-085-0-5"
            },
            {
              "name": "collision",
              "type": "string",
              "value": "solid"
            }
          ]
        },
        {
          "id": 234,
          "name": "ref-085-0-6",
          "type": "Brick",
          "x": 2688,
          "y": 48,
          "width": 16,
          "height": 16,
          "rotation": 0,
          "visible": true,
          "properties": [
            {
              "name": "sourceId",
              "type": "string",
              "value": "ref-085-0-6"
            },
            {
              "name": "collision",
              "type": "string",
              "value": "solid"
            }
          ]
        },
        {
          "id": 235,
          "name": "ref-085-1-0",
          "type": "Brick",
          "x": 2704,
          "y": 144,
          "width": 16,
          "height": 16,
          "rotation": 0,
          "visible": true,
          "properties": [
            {
              "name": "sourceId",
              "type": "string",
              "value": "ref-085-1-0"
            },
            {
              "name": "collision",
              "type": "string",
              "value": "solid"
            }
          ]
        },
        {
          "id": 236,
          "name": "ref-085-1-1",
          "type": "Brick",
          "x": 2704,
          "y": 128,
          "width": 16,
          "height": 16,
          "rotation": 0,
          "visible": true,
          "properties": [
            {
              "name": "sourceId",
              "type": "string",
              "value": "ref-085-1-1"
            },
            {
              "name": "collision",
              "type": "string",
              "value": "solid"
            }
          ]
        },
        {
          "id": 237,
          "name": "ref-085-1-2",
          "type": "Brick",
          "x": 2704,
          "y": 112,
          "width": 16,
          "height": 16,
          "rotation": 0,
          "visible": true,
          "properties": [
            {
              "name": "sourceId",
              "type": "string",
              "value": "ref-085-1-2"
            },
            {
              "name": "collision",
              "type": "string",
              "value": "solid"
            }
          ]
        },
        {
          "id": 238,
          "name": "ref-085-1-3",
          "type": "Brick",
          "x": 2704,
          "y": 96,
          "width": 16,
          "height": 16,
          "rotation": 0,
          "visible": true,
          "properties": [
            {
              "name": "sourceId",
              "type": "string",
              "value": "ref-085-1-3"
            },
            {
              "name": "collision",
              "type": "string",
              "value": "solid"
            }
          ]
        },
        {
          "id": 239,
          "name": "ref-085-1-4",
          "type": "Brick",
          "x": 2704,
          "y": 80,
          "width": 16,
          "height": 16,
          "rotation": 0,
          "visible": true,
          "properties": [
            {
              "name": "sourceId",
              "type": "string",
              "value": "ref-085-1-4"
            },
            {
              "name": "collision",
              "type": "string",
              "value": "solid"
            }
          ]
        },
        {
          "id": 240,
          "name": "ref-085-1-5",
          "type": "Brick",
          "x": 2704,
          "y": 64,
          "width": 16,
          "height": 16,
          "rotation": 0,
          "visible": true,
          "properties": [
            {
              "name": "sourceId",
              "type": "string",
              "value": "ref-085-1-5"
            },
            {
              "name": "collision",
              "type": "string",
              "value": "solid"
            }
          ]
        },
        {
          "id": 241,
          "name": "ref-085-1-6",
          "type": "Brick",
          "x": 2704,
          "y": 48,
          "width": 16,
          "height": 16,
          "rotation": 0,
          "visible": true,
          "properties": [
            {
              "name": "sourceId",
              "type": "string",
              "value": "ref-085-1-6"
            },
            {
              "name": "collision",
              "type": "string",
              "value": "solid"
            }
          ]
        },
        {
          "id": 242,
          "name": "ref-085-2-0",
          "type": "Brick",
          "x": 2720,
          "y": 144,
          "width": 16,
          "height": 16,
          "rotation": 0,
          "visible": true,
          "properties": [
            {
              "name": "sourceId",
              "type": "string",
              "value": "ref-085-2-0"
            },
            {
              "name": "collision",
              "type": "string",
              "value": "solid"
            }
          ]
        },
        {
          "id": 243,
          "name": "ref-085-2-1",
          "type": "Brick",
          "x": 2720,
          "y": 128,
          "width": 16,
          "height": 16,
          "rotation": 0,
          "visible": true,
          "properties": [
            {
              "name": "sourceId",
              "type": "string",
              "value": "ref-085-2-1"
            },
            {
              "name": "collision",
              "type": "string",
              "value": "solid"
            }
          ]
        },
        {
          "id": 244,
          "name": "ref-085-2-2",
          "type": "Brick",
          "x": 2720,
          "y": 112,
          "width": 16,
          "height": 16,
          "rotation": 0,
          "visible": true,
          "properties": [
            {
              "name": "sourceId",
              "type": "string",
              "value": "ref-085-2-2"
            },
            {
              "name": "collision",
              "type": "string",
              "value": "solid"
            }
          ]
        },
        {
          "id": 245,
          "name": "ref-085-2-3",
          "type": "Brick",
          "x": 2720,
          "y": 96,
          "width": 16,
          "height": 16,
          "rotation": 0,
          "visible": true,
          "properties": [
            {
              "name": "sourceId",
              "type": "string",
              "value": "ref-085-2-3"
            },
            {
              "name": "collision",
              "type": "string",
              "value": "solid"
            }
          ]
        },
        {
          "id": 246,
          "name": "ref-085-2-4",
          "type": "Brick",
          "x": 2720,
          "y": 80,
          "width": 16,
          "height": 16,
          "rotation": 0,
          "visible": true,
          "properties": [
            {
              "name": "sourceId",
              "type": "string",
              "value": "ref-085-2-4"
            },
            {
              "name": "collision",
              "type": "string",
              "value": "solid"
            }
          ]
        },
        {
          "id": 247,
          "name": "ref-085-2-5",
          "type": "Brick",
          "x": 2720,
          "y": 64,
          "width": 16,
          "height": 16,
          "rotation": 0,
          "visible": true,
          "properties": [
            {
              "name": "sourceId",
              "type": "string",
              "value": "ref-085-2-5"
            },
            {
              "name": "collision",
              "type": "string",
              "value": "solid"
            }
          ]
        },
        {
          "id": 248,
          "name": "ref-085-2-6",
          "type": "Brick",
          "x": 2720,
          "y": 48,
          "width": 16,
          "height": 16,
          "rotation": 0,
          "visible": true,
          "properties": [
            {
              "name": "sourceId",
              "type": "string",
              "value": "ref-085-2-6"
            },
            {
              "name": "collision",
              "type": "string",
              "value": "solid"
            }
          ]
        },
        {
          "id": 249,
          "name": "ref-085-3-0",
          "type": "Brick",
          "x": 2736,
          "y": 144,
          "width": 16,
          "height": 16,
          "rotation": 0,
          "visible": true,
          "properties": [
            {
              "name": "sourceId",
              "type": "string",
              "value": "ref-085-3-0"
            },
            {
              "name": "collision",
              "type": "string",
              "value": "solid"
            }
          ]
        },
        {
          "id": 250,
          "name": "ref-085-3-1",
          "type": "Brick",
          "x": 2736,
          "y": 128,
          "width": 16,
          "height": 16,
          "rotation": 0,
          "visible": true,
          "properties": [
            {
              "name": "sourceId",
              "type": "string",
              "value": "ref-085-3-1"
            },
            {
              "name": "collision",
              "type": "string",
              "value": "solid"
            }
          ]
        },
        {
          "id": 251,
          "name": "ref-085-3-2",
          "type": "Brick",
          "x": 2736,
          "y": 112,
          "width": 16,
          "height": 16,
          "rotation": 0,
          "visible": true,
          "properties": [
            {
              "name": "sourceId",
              "type": "string",
              "value": "ref-085-3-2"
            },
            {
              "name": "collision",
              "type": "string",
              "value": "solid"
            }
          ]
        },
        {
          "id": 252,
          "name": "ref-085-3-3",
          "type": "Brick",
          "x": 2736,
          "y": 96,
          "width": 16,
          "height": 16,
          "rotation": 0,
          "visible": true,
          "properties": [
            {
              "name": "sourceId",
              "type": "string",
              "value": "ref-085-3-3"
            },
            {
              "name": "collision",
              "type": "string",
              "value": "solid"
            }
          ]
        },
        {
          "id": 253,
          "name": "ref-085-3-4",
          "type": "Brick",
          "x": 2736,
          "y": 80,
          "width": 16,
          "height": 16,
          "rotation": 0,
          "visible": true,
          "properties": [
            {
              "name": "sourceId",
              "type": "string",
              "value": "ref-085-3-4"
            },
            {
              "name": "collision",
              "type": "string",
              "value": "solid"
            }
          ]
        },
        {
          "id": 254,
          "name": "ref-085-3-5",
          "type": "Brick",
          "x": 2736,
          "y": 64,
          "width": 16,
          "height": 16,
          "rotation": 0,
          "visible": true,
          "properties": [
            {
              "name": "sourceId",
              "type": "string",
              "value": "ref-085-3-5"
            },
            {
              "name": "collision",
              "type": "string",
              "value": "solid"
            }
          ]
        },
        {
          "id": 255,
          "name": "ref-085-3-6",
          "type": "Brick",
          "x": 2736,
          "y": 48,
          "width": 16,
          "height": 16,
          "rotation": 0,
          "visible": true,
          "properties": [
            {
              "name": "sourceId",
              "type": "string",
              "value": "ref-085-3-6"
            },
            {
              "name": "collision",
              "type": "string",
              "value": "solid"
            }
          ]
        },
        {
          "id": 256,
          "name": "ref-085-4-0",
          "type": "Brick",
          "x": 2752,
          "y": 144,
          "width": 16,
          "height": 16,
          "rotation": 0,
          "visible": true,
          "properties": [
            {
              "name": "sourceId",
              "type": "string",
              "value": "ref-085-4-0"
            },
            {
              "name": "collision",
              "type": "string",
              "value": "solid"
            }
          ]
        },
        {
          "id": 257,
          "name": "ref-085-4-1",
          "type": "Brick",
          "x": 2752,
          "y": 128,
          "width": 16,
          "height": 16,
          "rotation": 0,
          "visible": true,
          "properties": [
            {
              "name": "sourceId",
              "type": "string",
              "value": "ref-085-4-1"
            },
            {
              "name": "collision",
              "type": "string",
              "value": "solid"
            }
          ]
        },
        {
          "id": 258,
          "name": "ref-085-4-2",
          "type": "Brick",
          "x": 2752,
          "y": 112,
          "width": 16,
          "height": 16,
          "rotation": 0,
          "visible": true,
          "properties": [
            {
              "name": "sourceId",
              "type": "string",
              "value": "ref-085-4-2"
            },
            {
              "name": "collision",
              "type": "string",
              "value": "solid"
            }
          ]
        },
        {
          "id": 259,
          "name": "ref-085-4-3",
          "type": "Brick",
          "x": 2752,
          "y": 96,
          "width": 16,
          "height": 16,
          "rotation": 0,
          "visible": true,
          "properties": [
            {
              "name": "sourceId",
              "type": "string",
              "value": "ref-085-4-3"
            },
            {
              "name": "collision",
              "type": "string",
              "value": "solid"
            }
          ]
        },
        {
          "id": 260,
          "name": "ref-085-4-4",
          "type": "Brick",
          "x": 2752,
          "y": 80,
          "width": 16,
          "height": 16,
          "rotation": 0,
          "visible": true,
          "properties": [
            {
              "name": "sourceId",
              "type": "string",
              "value": "ref-085-4-4"
            },
            {
              "name": "collision",
              "type": "string",
              "value": "solid"
            }
          ]
        },
        {
          "id": 261,
          "name": "ref-085-4-5",
          "type": "Brick",
          "x": 2752,
          "y": 64,
          "width": 16,
          "height": 16,
          "rotation": 0,
          "visible": true,
          "properties": [
            {
              "name": "sourceId",
              "type": "string",
              "value": "ref-085-4-5"
            },
            {
              "name": "collision",
              "type": "string",
              "value": "solid"
            }
          ]
        },
        {
          "id": 262,
          "name": "ref-085-4-6",
          "type": "Brick",
          "x": 2752,
          "y": 48,
          "width": 16,
          "height": 16,
          "rotation": 0,
          "visible": true,
          "properties": [
            {
              "name": "sourceId",
              "type": "string",
              "value": "ref-085-4-6"
            },
            {
              "name": "collision",
              "type": "string",
              "value": "solid"
            }
          ]
        },
        {
          "id": 263,
          "name": "ref-085-5-0",
          "type": "Brick",
          "x": 2768,
          "y": 144,
          "width": 16,
          "height": 16,
          "rotation": 0,
          "visible": true,
          "properties": [
            {
              "name": "sourceId",
              "type": "string",
              "value": "ref-085-5-0"
            },
            {
              "name": "collision",
              "type": "string",
              "value": "solid"
            }
          ]
        },
        {
          "id": 264,
          "name": "ref-085-5-1",
          "type": "Brick",
          "x": 2768,
          "y": 128,
          "width": 16,
          "height": 16,
          "rotation": 0,
          "visible": true,
          "properties": [
            {
              "name": "sourceId",
              "type": "string",
              "value": "ref-085-5-1"
            },
            {
              "name": "collision",
              "type": "string",
              "value": "solid"
            }
          ]
        },
        {
          "id": 265,
          "name": "ref-085-5-2",
          "type": "Brick",
          "x": 2768,
          "y": 112,
          "width": 16,
          "height": 16,
          "rotation": 0,
          "visible": true,
          "properties": [
            {
              "name": "sourceId",
              "type": "string",
              "value": "ref-085-5-2"
            },
            {
              "name": "collision",
              "type": "string",
              "value": "solid"
            }
          ]
        },
        {
          "id": 266,
          "name": "ref-085-5-3",
          "type": "Brick",
          "x": 2768,
          "y": 96,
          "width": 16,
          "height": 16,
          "rotation": 0,
          "visible": true,
          "properties": [
            {
              "name": "sourceId",
              "type": "string",
              "value": "ref-085-5-3"
            },
            {
              "name": "collision",
              "type": "string",
              "value": "solid"
            }
          ]
        },
        {
          "id": 267,
          "name": "ref-085-5-4",
          "type": "Brick",
          "x": 2768,
          "y": 80,
          "width": 16,
          "height": 16,
          "rotation": 0,
          "visible": true,
          "properties": [
            {
              "name": "sourceId",
              "type": "string",
              "value": "ref-085-5-4"
            },
            {
              "name": "collision",
              "type": "string",
              "value": "solid"
            }
          ]
        },
        {
          "id": 268,
          "name": "ref-085-5-5",
          "type": "Brick",
          "x": 2768,
          "y": 64,
          "width": 16,
          "height": 16,
          "rotation": 0,
          "visible": true,
          "properties": [
            {
              "name": "sourceId",
              "type": "string",
              "value": "ref-085-5-5"
            },
            {
              "name": "collision",
              "type": "string",
              "value": "solid"
            }
          ]
        },
        {
          "id": 269,
          "name": "ref-085-5-6",
          "type": "Brick",
          "x": 2768,
          "y": 48,
          "width": 16,
          "height": 16,
          "rotation": 0,
          "visible": true,
          "properties": [
            {
              "name": "sourceId",
              "type": "string",
              "value": "ref-085-5-6"
            },
            {
              "name": "collision",
              "type": "string",
              "value": "solid"
            }
          ]
        },
        {
          "id": 270,
          "name": "ref-085-6-0",
          "type": "Brick",
          "x": 2784,
          "y": 144,
          "width": 16,
          "height": 16,
          "rotation": 0,
          "visible": true,
          "properties": [
            {
              "name": "sourceId",
              "type": "string",
              "value": "ref-085-6-0"
            },
            {
              "name": "collision",
              "type": "string",
              "value": "solid"
            }
          ]
        },
        {
          "id": 271,
          "name": "ref-085-6-1",
          "type": "Brick",
          "x": 2784,
          "y": 128,
          "width": 16,
          "height": 16,
          "rotation": 0,
          "visible": true,
          "properties": [
            {
              "name": "sourceId",
              "type": "string",
              "value": "ref-085-6-1"
            },
            {
              "name": "collision",
              "type": "string",
              "value": "solid"
            }
          ]
        },
        {
          "id": 272,
          "name": "ref-085-6-2",
          "type": "Brick",
          "x": 2784,
          "y": 112,
          "width": 16,
          "height": 16,
          "rotation": 0,
          "visible": true,
          "properties": [
            {
              "name": "sourceId",
              "type": "string",
              "value": "ref-085-6-2"
            },
            {
              "name": "collision",
              "type": "string",
              "value": "solid"
            }
          ]
        },
        {
          "id": 273,
          "name": "ref-085-6-3",
          "type": "Brick",
          "x": 2784,
          "y": 96,
          "width": 16,
          "height": 16,
          "rotation": 0,
          "visible": true,
          "properties": [
            {
              "name": "sourceId",
              "type": "string",
              "value": "ref-085-6-3"
            },
            {
              "name": "collision",
              "type": "string",
              "value": "solid"
            }
          ]
        },
        {
          "id": 274,
          "name": "ref-085-6-4",
          "type": "Brick",
          "x": 2784,
          "y": 80,
          "width": 16,
          "height": 16,
          "rotation": 0,
          "visible": true,
          "properties": [
            {
              "name": "sourceId",
              "type": "string",
              "value": "ref-085-6-4"
            },
            {
              "name": "collision",
              "type": "string",
              "value": "solid"
            }
          ]
        },
        {
          "id": 275,
          "name": "ref-085-6-5",
          "type": "Brick",
          "x": 2784,
          "y": 64,
          "width": 16,
          "height": 16,
          "rotation": 0,
          "visible": true,
          "properties": [
            {
              "name": "sourceId",
              "type": "string",
              "value": "ref-085-6-5"
            },
            {
              "name": "collision",
              "type": "string",
              "value": "solid"
            }
          ]
        },
        {
          "id": 276,
          "name": "ref-085-6-6",
          "type": "Brick",
          "x": 2784,
          "y": 48,
          "width": 16,
          "height": 16,
          "rotation": 0,
          "visible": true,
          "properties": [
            {
              "name": "sourceId",
              "type": "string",
              "value": "ref-085-6-6"
            },
            {
              "name": "collision",
              "type": "string",
              "value": "solid"
            }
          ]
        },
        {
          "id": 277,
          "name": "ref-086",
          "type": "Brick",
          "x": 2688,
          "y": 32,
          "width": 272,
          "height": 16,
          "rotation": 0,
          "visible": true,
          "properties": [
            {
              "name": "sourceId",
              "type": "string",
              "value": "ref-086"
            },
            {
              "name": "collision",
              "type": "string",
              "value": "solid"
            }
          ]
        },
        {
          "id": 278,
          "name": "ref-087-pipe-0",
          "type": "Pipe",
          "x": 2816,
          "y": 160,
          "width": 32,
          "height": 48,
          "rotation": 0,
          "visible": true,
          "properties": [
            {
              "name": "sourceId",
              "type": "string",
              "value": "ref-087-pipe-0"
            },
            {
              "name": "collision",
              "type": "string",
              "value": "solid"
            }
          ]
        },
        {
          "id": 279,
          "name": "ref-087-pipe-1",
          "type": "Pipe",
          "x": 2880,
          "y": 160,
          "width": 32,
          "height": 48,
          "rotation": 0,
          "visible": true,
          "properties": [
            {
              "name": "sourceId",
              "type": "string",
              "value": "ref-087-pipe-1"
            },
            {
              "name": "collision",
              "type": "string",
              "value": "solid"
            }
          ]
        },
        {
          "id": 280,
          "name": "ref-087-pipe-2",
          "type": "Pipe",
          "x": 2944,
          "y": 160,
          "width": 32,
          "height": 48,
          "rotation": 0,
          "visible": true,
          "properties": [
            {
              "name": "sourceId",
              "type": "string",
              "value": "ref-087-pipe-2"
            },
            {
              "name": "collision",
              "type": "string",
              "value": "solid"
            }
          ]
        },
        {
          "id": 281,
          "name": "ref-088-0-0",
          "type": "Brick",
          "x": 3008,
          "y": 192,
          "width": 16,
          "height": 16,
          "rotation": 0,
          "visible": true,
          "properties": [
            {
              "name": "sourceId",
              "type": "string",
              "value": "ref-088-0-0"
            },
            {
              "name": "collision",
              "type": "string",
              "value": "solid"
            }
          ]
        },
        {
          "id": 282,
          "name": "ref-088-0-1",
          "type": "Brick",
          "x": 3008,
          "y": 176,
          "width": 16,
          "height": 16,
          "rotation": 0,
          "visible": true,
          "properties": [
            {
              "name": "sourceId",
              "type": "string",
              "value": "ref-088-0-1"
            },
            {
              "name": "collision",
              "type": "string",
              "value": "solid"
            }
          ]
        },
        {
          "id": 283,
          "name": "ref-088-0-2",
          "type": "Brick",
          "x": 3008,
          "y": 160,
          "width": 16,
          "height": 16,
          "rotation": 0,
          "visible": true,
          "properties": [
            {
              "name": "sourceId",
              "type": "string",
              "value": "ref-088-0-2"
            },
            {
              "name": "collision",
              "type": "string",
              "value": "solid"
            }
          ]
        },
        {
          "id": 284,
          "name": "ref-088-0-3",
          "type": "Brick",
          "x": 3008,
          "y": 144,
          "width": 16,
          "height": 16,
          "rotation": 0,
          "visible": true,
          "properties": [
            {
              "name": "sourceId",
              "type": "string",
              "value": "ref-088-0-3"
            },
            {
              "name": "collision",
              "type": "string",
              "value": "solid"
            }
          ]
        },
        {
          "id": 285,
          "name": "ref-088-0-4",
          "type": "Brick",
          "x": 3008,
          "y": 128,
          "width": 16,
          "height": 16,
          "rotation": 0,
          "visible": true,
          "properties": [
            {
              "name": "sourceId",
              "type": "string",
              "value": "ref-088-0-4"
            },
            {
              "name": "collision",
              "type": "string",
              "value": "solid"
            }
          ]
        },
        {
          "id": 286,
          "name": "ref-088-0-5",
          "type": "Brick",
          "x": 3008,
          "y": 112,
          "width": 16,
          "height": 16,
          "rotation": 0,
          "visible": true,
          "properties": [
            {
              "name": "sourceId",
              "type": "string",
              "value": "ref-088-0-5"
            },
            {
              "name": "collision",
              "type": "string",
              "value": "solid"
            }
          ]
        },
        {
          "id": 287,
          "name": "ref-088-0-6",
          "type": "Brick",
          "x": 3008,
          "y": 96,
          "width": 16,
          "height": 16,
          "rotation": 0,
          "visible": true,
          "properties": [
            {
              "name": "sourceId",
              "type": "string",
              "value": "ref-088-0-6"
            },
            {
              "name": "collision",
              "type": "string",
              "value": "solid"
            }
          ]
        },
        {
          "id": 288,
          "name": "ref-088-0-7",
          "type": "Brick",
          "x": 3008,
          "y": 80,
          "width": 16,
          "height": 16,
          "rotation": 0,
          "visible": true,
          "properties": [
            {
              "name": "sourceId",
              "type": "string",
              "value": "ref-088-0-7"
            },
            {
              "name": "collision",
              "type": "string",
              "value": "solid"
            }
          ]
        },
        {
          "id": 289,
          "name": "ref-088-0-8",
          "type": "Brick",
          "x": 3008,
          "y": 64,
          "width": 16,
          "height": 16,
          "rotation": 0,
          "visible": true,
          "properties": [
            {
              "name": "sourceId",
              "type": "string",
              "value": "ref-088-0-8"
            },
            {
              "name": "collision",
              "type": "string",
              "value": "solid"
            }
          ]
        },
        {
          "id": 290,
          "name": "ref-088-0-9",
          "type": "Brick",
          "x": 3008,
          "y": 48,
          "width": 16,
          "height": 16,
          "rotation": 0,
          "visible": true,
          "properties": [
            {
              "name": "sourceId",
              "type": "string",
              "value": "ref-088-0-9"
            },
            {
              "name": "collision",
              "type": "string",
              "value": "solid"
            }
          ]
        },
        {
          "id": 291,
          "name": "ref-088-0-10",
          "type": "Brick",
          "x": 3008,
          "y": 32,
          "width": 16,
          "height": 16,
          "rotation": 0,
          "visible": true,
          "properties": [
            {
              "name": "sourceId",
              "type": "string",
              "value": "ref-088-0-10"
            },
            {
              "name": "collision",
              "type": "string",
              "value": "solid"
            }
          ]
        },
        {
          "id": 292,
          "name": "ref-088-1-0",
          "type": "Brick",
          "x": 3024,
          "y": 192,
          "width": 16,
          "height": 16,
          "rotation": 0,
          "visible": true,
          "properties": [
            {
              "name": "sourceId",
              "type": "string",
              "value": "ref-088-1-0"
            },
            {
              "name": "collision",
              "type": "string",
              "value": "solid"
            }
          ]
        },
        {
          "id": 293,
          "name": "ref-088-1-1",
          "type": "Brick",
          "x": 3024,
          "y": 176,
          "width": 16,
          "height": 16,
          "rotation": 0,
          "visible": true,
          "properties": [
            {
              "name": "sourceId",
              "type": "string",
              "value": "ref-088-1-1"
            },
            {
              "name": "collision",
              "type": "string",
              "value": "solid"
            }
          ]
        },
        {
          "id": 294,
          "name": "ref-088-1-2",
          "type": "Brick",
          "x": 3024,
          "y": 160,
          "width": 16,
          "height": 16,
          "rotation": 0,
          "visible": true,
          "properties": [
            {
              "name": "sourceId",
              "type": "string",
              "value": "ref-088-1-2"
            },
            {
              "name": "collision",
              "type": "string",
              "value": "solid"
            }
          ]
        },
        {
          "id": 295,
          "name": "ref-088-1-3",
          "type": "Brick",
          "x": 3024,
          "y": 144,
          "width": 16,
          "height": 16,
          "rotation": 0,
          "visible": true,
          "properties": [
            {
              "name": "sourceId",
              "type": "string",
              "value": "ref-088-1-3"
            },
            {
              "name": "collision",
              "type": "string",
              "value": "solid"
            }
          ]
        },
        {
          "id": 296,
          "name": "ref-088-1-4",
          "type": "Brick",
          "x": 3024,
          "y": 128,
          "width": 16,
          "height": 16,
          "rotation": 0,
          "visible": true,
          "properties": [
            {
              "name": "sourceId",
              "type": "string",
              "value": "ref-088-1-4"
            },
            {
              "name": "collision",
              "type": "string",
              "value": "solid"
            }
          ]
        },
        {
          "id": 297,
          "name": "ref-088-1-5",
          "type": "Brick",
          "x": 3024,
          "y": 112,
          "width": 16,
          "height": 16,
          "rotation": 0,
          "visible": true,
          "properties": [
            {
              "name": "sourceId",
              "type": "string",
              "value": "ref-088-1-5"
            },
            {
              "name": "collision",
              "type": "string",
              "value": "solid"
            }
          ]
        },
        {
          "id": 298,
          "name": "ref-088-1-6",
          "type": "Brick",
          "x": 3024,
          "y": 96,
          "width": 16,
          "height": 16,
          "rotation": 0,
          "visible": true,
          "properties": [
            {
              "name": "sourceId",
              "type": "string",
              "value": "ref-088-1-6"
            },
            {
              "name": "collision",
              "type": "string",
              "value": "solid"
            }
          ]
        },
        {
          "id": 299,
          "name": "ref-088-1-7",
          "type": "Brick",
          "x": 3024,
          "y": 80,
          "width": 16,
          "height": 16,
          "rotation": 0,
          "visible": true,
          "properties": [
            {
              "name": "sourceId",
              "type": "string",
              "value": "ref-088-1-7"
            },
            {
              "name": "collision",
              "type": "string",
              "value": "solid"
            }
          ]
        },
        {
          "id": 300,
          "name": "ref-088-1-8",
          "type": "Brick",
          "x": 3024,
          "y": 64,
          "width": 16,
          "height": 16,
          "rotation": 0,
          "visible": true,
          "properties": [
            {
              "name": "sourceId",
              "type": "string",
              "value": "ref-088-1-8"
            },
            {
              "name": "collision",
              "type": "string",
              "value": "solid"
            }
          ]
        },
        {
          "id": 301,
          "name": "ref-088-1-9",
          "type": "Brick",
          "x": 3024,
          "y": 48,
          "width": 16,
          "height": 16,
          "rotation": 0,
          "visible": true,
          "properties": [
            {
              "name": "sourceId",
              "type": "string",
              "value": "ref-088-1-9"
            },
            {
              "name": "collision",
              "type": "string",
              "value": "solid"
            }
          ]
        },
        {
          "id": 302,
          "name": "ref-088-1-10",
          "type": "Brick",
          "x": 3024,
          "y": 32,
          "width": 16,
          "height": 16,
          "rotation": 0,
          "visible": true,
          "properties": [
            {
              "name": "sourceId",
              "type": "string",
              "value": "ref-088-1-10"
            },
            {
              "name": "collision",
              "type": "string",
              "value": "solid"
            }
          ]
        }
      ]
    },
    {
      "id": 303,
      "type": "objectgroup",
      "name": "gameplay",
      "visible": true,
      "opacity": 1,
      "draworder": "topdown",
      "objects": [
        {
          "id": 304,
          "name": "ref-020",
          "type": "coin",
          "x": 642,
          "y": 130,
          "width": 10,
          "height": 14,
          "rotation": 0,
          "visible": true,
          "properties": [
            {
              "name": "sourceId",
              "type": "string",
              "value": "ref-020"
            },
            {
              "name": "collision",
              "type": "string",
              "value": "marker"
            }
          ]
        },
        {
          "id": 305,
          "name": "ref-022-0-0",
          "type": "coin",
          "x": 660,
          "y": 88,
          "width": 10,
          "height": 14,
          "rotation": 0,
          "visible": true,
          "properties": [
            {
              "name": "sourceId",
              "type": "string",
              "value": "ref-022-0-0"
            },
            {
              "name": "collision",
              "type": "string",
              "value": "marker"
            }
          ]
        },
        {
          "id": 306,
          "name": "ref-022-1-0",
          "type": "coin",
          "x": 676,
          "y": 88,
          "width": 10,
          "height": 14,
          "rotation": 0,
          "visible": true,
          "properties": [
            {
              "name": "sourceId",
              "type": "string",
              "value": "ref-022-1-0"
            },
            {
              "name": "collision",
              "type": "string",
              "value": "marker"
            }
          ]
        },
        {
          "id": 307,
          "name": "ref-022-2-0",
          "type": "coin",
          "x": 692,
          "y": 88,
          "width": 10,
          "height": 14,
          "rotation": 0,
          "visible": true,
          "properties": [
            {
              "name": "sourceId",
              "type": "string",
              "value": "ref-022-2-0"
            },
            {
              "name": "collision",
              "type": "string",
              "value": "marker"
            }
          ]
        },
        {
          "id": 308,
          "name": "ref-022-3-0",
          "type": "coin",
          "x": 708,
          "y": 88,
          "width": 10,
          "height": 14,
          "rotation": 0,
          "visible": true,
          "properties": [
            {
              "name": "sourceId",
              "type": "string",
              "value": "ref-022-3-0"
            },
            {
              "name": "collision",
              "type": "string",
              "value": "marker"
            }
          ]
        },
        {
          "id": 309,
          "name": "ref-028",
          "type": "coin",
          "x": 722,
          "y": 130,
          "width": 10,
          "height": 14,
          "rotation": 0,
          "visible": true,
          "properties": [
            {
              "name": "sourceId",
              "type": "string",
              "value": "ref-028"
            },
            {
              "name": "collision",
              "type": "string",
              "value": "marker"
            }
          ]
        },
        {
          "id": 310,
          "name": "ref-036-0-0",
          "type": "coin",
          "x": 930,
          "y": 130,
          "width": 10,
          "height": 14,
          "rotation": 0,
          "visible": true,
          "properties": [
            {
              "name": "sourceId",
              "type": "string",
              "value": "ref-036-0-0"
            },
            {
              "name": "collision",
              "type": "string",
              "value": "marker"
            }
          ]
        },
        {
          "id": 311,
          "name": "ref-036-1-0",
          "type": "coin",
          "x": 946,
          "y": 130,
          "width": 10,
          "height": 14,
          "rotation": 0,
          "visible": true,
          "properties": [
            {
              "name": "sourceId",
              "type": "string",
              "value": "ref-036-1-0"
            },
            {
              "name": "collision",
              "type": "string",
              "value": "marker"
            }
          ]
        },
        {
          "id": 312,
          "name": "ref-036-2-0",
          "type": "coin",
          "x": 962,
          "y": 130,
          "width": 10,
          "height": 14,
          "rotation": 0,
          "visible": true,
          "properties": [
            {
              "name": "sourceId",
              "type": "string",
              "value": "ref-036-2-0"
            },
            {
              "name": "collision",
              "type": "string",
              "value": "marker"
            }
          ]
        },
        {
          "id": 313,
          "name": "ref-036-3-0",
          "type": "coin",
          "x": 978,
          "y": 130,
          "width": 10,
          "height": 14,
          "rotation": 0,
          "visible": true,
          "properties": [
            {
              "name": "sourceId",
              "type": "string",
              "value": "ref-036-3-0"
            },
            {
              "name": "collision",
              "type": "string",
              "value": "marker"
            }
          ]
        },
        {
          "id": 314,
          "name": "ref-044",
          "type": "coin",
          "x": 1090,
          "y": 130,
          "width": 10,
          "height": 14,
          "rotation": 0,
          "visible": true,
          "properties": [
            {
              "name": "sourceId",
              "type": "string",
              "value": "ref-044"
            },
            {
              "name": "collision",
              "type": "string",
              "value": "marker"
            }
          ]
        },
        {
          "id": 315,
          "name": "ref-056-0-0",
          "type": "coin",
          "x": 1348,
          "y": 80,
          "width": 10,
          "height": 14,
          "rotation": 0,
          "visible": true,
          "properties": [
            {
              "name": "sourceId",
              "type": "string",
              "value": "ref-056-0-0"
            },
            {
              "name": "collision",
              "type": "string",
              "value": "marker"
            }
          ]
        },
        {
          "id": 316,
          "name": "ref-056-1-0",
          "type": "coin",
          "x": 1364,
          "y": 80,
          "width": 10,
          "height": 14,
          "rotation": 0,
          "visible": true,
          "properties": [
            {
              "name": "sourceId",
              "type": "string",
              "value": "ref-056-1-0"
            },
            {
              "name": "collision",
              "type": "string",
              "value": "marker"
            }
          ]
        },
        {
          "id": 317,
          "name": "ref-056-2-0",
          "type": "coin",
          "x": 1380,
          "y": 80,
          "width": 10,
          "height": 14,
          "rotation": 0,
          "visible": true,
          "properties": [
            {
              "name": "sourceId",
              "type": "string",
              "value": "ref-056-2-0"
            },
            {
              "name": "collision",
              "type": "string",
              "value": "marker"
            }
          ]
        },
        {
          "id": 318,
          "name": "ref-056-3-0",
          "type": "coin",
          "x": 1396,
          "y": 80,
          "width": 10,
          "height": 14,
          "rotation": 0,
          "visible": true,
          "properties": [
            {
              "name": "sourceId",
              "type": "string",
              "value": "ref-056-3-0"
            },
            {
              "name": "collision",
              "type": "string",
              "value": "marker"
            }
          ]
        },
        {
          "id": 319,
          "name": "ref-056-4-0",
          "type": "coin",
          "x": 1412,
          "y": 80,
          "width": 10,
          "height": 14,
          "rotation": 0,
          "visible": true,
          "properties": [
            {
              "name": "sourceId",
              "type": "string",
              "value": "ref-056-4-0"
            },
            {
              "name": "collision",
              "type": "string",
              "value": "marker"
            }
          ]
        },
        {
          "id": 320,
          "name": "ref-056-5-0",
          "type": "coin",
          "x": 1428,
          "y": 80,
          "width": 10,
          "height": 14,
          "rotation": 0,
          "visible": true,
          "properties": [
            {
              "name": "sourceId",
              "type": "string",
              "value": "ref-056-5-0"
            },
            {
              "name": "collision",
              "type": "string",
              "value": "marker"
            }
          ]
        },
        {
          "id": 321,
          "name": "start",
          "type": "spawn",
          "x": 32,
          "y": 184,
          "width": 12,
          "height": 24,
          "rotation": 0,
          "visible": true,
          "properties": [
            {
              "name": "sourceId",
              "type": "string",
              "value": "start"
            },
            {
              "name": "collision",
              "type": "string",
              "value": "marker"
            }
          ]
        },
        {
          "id": 322,
          "name": "pipe-return",
          "type": "spawn",
          "x": 1796,
          "y": 152,
          "width": 12,
          "height": 24,
          "rotation": 0,
          "visible": true,
          "properties": [
            {
              "name": "sourceId",
              "type": "string",
              "value": "pipe-return"
            },
            {
              "name": "collision",
              "type": "string",
              "value": "marker"
            }
          ]
        },
        {
          "id": 323,
          "name": "portal-0",
          "type": "portal",
          "x": 1600,
          "y": 128,
          "width": 32,
          "height": 32,
          "rotation": 0,
          "visible": true,
          "properties": [
            {
              "name": "sourceId",
              "type": "string",
              "value": "portal-0"
            },
            {
              "name": "collision",
              "type": "string",
              "value": "marker"
            }
          ]
        },
        {
          "id": 324,
          "name": "portal-1",
          "type": "portal",
          "x": 2592,
          "y": 96,
          "width": 32,
          "height": 32,
          "rotation": 0,
          "visible": true,
          "properties": [
            {
              "name": "sourceId",
              "type": "string",
              "value": "portal-1"
            },
            {
              "name": "collision",
              "type": "string",
              "value": "marker"
            }
          ]
        }
      ]
    },
    {
      "id": 325,
      "type": "objectgroup",
      "name": "reference-markers",
      "visible": true,
      "opacity": 1,
      "draworder": "topdown",
      "objects": [
        {
          "id": 326,
          "name": "ref-004-item",
          "type": "Contents",
          "x": 160,
          "y": 144,
          "width": 16,
          "height": 16,
          "rotation": 0,
          "visible": true,
          "properties": [
            {
              "name": "sourceId",
              "type": "string",
              "value": "ref-004-item"
            },
            {
              "name": "collision",
              "type": "string",
              "value": "marker"
            }
          ]
        },
        {
          "id": 327,
          "name": "ref-006",
          "type": "Goomba",
          "x": 256,
          "y": 192,
          "width": 16,
          "height": 16,
          "rotation": 0,
          "visible": true,
          "properties": [
            {
              "name": "sourceId",
              "type": "string",
              "value": "ref-006"
            },
            {
              "name": "collision",
              "type": "string",
              "value": "marker"
            }
          ]
        },
        {
          "id": 328,
          "name": "ref-008",
          "type": "Goomba",
          "x": 272,
          "y": 176,
          "width": 16,
          "height": 16,
          "rotation": 0,
          "visible": true,
          "properties": [
            {
              "name": "sourceId",
              "type": "string",
              "value": "ref-008"
            },
            {
              "name": "collision",
              "type": "string",
              "value": "marker"
            }
          ]
        },
        {
          "id": 329,
          "name": "ref-014",
          "type": "Goomba",
          "x": 464,
          "y": 192,
          "width": 16,
          "height": 16,
          "rotation": 0,
          "visible": true,
          "properties": [
            {
              "name": "sourceId",
              "type": "string",
              "value": "ref-014"
            },
            {
              "name": "collision",
              "type": "string",
              "value": "marker"
            }
          ]
        },
        {
          "id": 330,
          "name": "ref-015-item",
          "type": "Contents",
          "x": 464,
          "y": 128,
          "width": 16,
          "height": 16,
          "rotation": 0,
          "visible": true,
          "properties": [
            {
              "name": "sourceId",
              "type": "string",
              "value": "ref-015-item"
            },
            {
              "name": "collision",
              "type": "string",
              "value": "marker"
            }
          ]
        },
        {
          "id": 331,
          "name": "ref-020",
          "type": "Coin",
          "x": 642,
          "y": 130,
          "width": 10,
          "height": 14,
          "rotation": 0,
          "visible": true,
          "properties": [
            {
              "name": "sourceId",
              "type": "string",
              "value": "ref-020"
            },
            {
              "name": "collision",
              "type": "string",
              "value": "marker"
            }
          ]
        },
        {
          "id": 332,
          "name": "ref-022-0-0",
          "type": "Coin",
          "x": 660,
          "y": 88,
          "width": 10,
          "height": 14,
          "rotation": 0,
          "visible": true,
          "properties": [
            {
              "name": "sourceId",
              "type": "string",
              "value": "ref-022-0-0"
            },
            {
              "name": "collision",
              "type": "string",
              "value": "marker"
            }
          ]
        },
        {
          "id": 333,
          "name": "ref-022-1-0",
          "type": "Coin",
          "x": 676,
          "y": 88,
          "width": 10,
          "height": 14,
          "rotation": 0,
          "visible": true,
          "properties": [
            {
              "name": "sourceId",
              "type": "string",
              "value": "ref-022-1-0"
            },
            {
              "name": "collision",
              "type": "string",
              "value": "marker"
            }
          ]
        },
        {
          "id": 334,
          "name": "ref-022-2-0",
          "type": "Coin",
          "x": 692,
          "y": 88,
          "width": 10,
          "height": 14,
          "rotation": 0,
          "visible": true,
          "properties": [
            {
              "name": "sourceId",
              "type": "string",
              "value": "ref-022-2-0"
            },
            {
              "name": "collision",
              "type": "string",
              "value": "marker"
            }
          ]
        },
        {
          "id": 335,
          "name": "ref-022-3-0",
          "type": "Coin",
          "x": 708,
          "y": 88,
          "width": 10,
          "height": 14,
          "rotation": 0,
          "visible": true,
          "properties": [
            {
              "name": "sourceId",
              "type": "string",
              "value": "ref-022-3-0"
            },
            {
              "name": "collision",
              "type": "string",
              "value": "marker"
            }
          ]
        },
        {
          "id": 336,
          "name": "ref-025-0-0",
          "type": "Koopa",
          "x": 704,
          "y": 184,
          "width": 16,
          "height": 24,
          "rotation": 0,
          "visible": true,
          "properties": [
            {
              "name": "sourceId",
              "type": "string",
              "value": "ref-025-0-0"
            },
            {
              "name": "collision",
              "type": "string",
              "value": "marker"
            }
          ]
        },
        {
          "id": 337,
          "name": "ref-025-1-0",
          "type": "Koopa",
          "x": 728,
          "y": 184,
          "width": 16,
          "height": 24,
          "rotation": 0,
          "visible": true,
          "properties": [
            {
              "name": "sourceId",
              "type": "string",
              "value": "ref-025-1-0"
            },
            {
              "name": "collision",
              "type": "string",
              "value": "marker"
            }
          ]
        },
        {
          "id": 338,
          "name": "ref-028",
          "type": "Coin",
          "x": 722,
          "y": 130,
          "width": 10,
          "height": 14,
          "rotation": 0,
          "visible": true,
          "properties": [
            {
              "name": "sourceId",
              "type": "string",
              "value": "ref-028"
            },
            {
              "name": "collision",
              "type": "string",
              "value": "marker"
            }
          ]
        },
        {
          "id": 339,
          "name": "ref-030-item",
          "type": "Contents",
          "x": 736,
          "y": 112,
          "width": 16,
          "height": 16,
          "rotation": 0,
          "visible": true,
          "properties": [
            {
              "name": "sourceId",
              "type": "string",
              "value": "ref-030-item"
            },
            {
              "name": "collision",
              "type": "string",
              "value": "marker"
            }
          ]
        },
        {
          "id": 340,
          "name": "ref-036-0-0",
          "type": "Coin",
          "x": 930,
          "y": 130,
          "width": 10,
          "height": 14,
          "rotation": 0,
          "visible": true,
          "properties": [
            {
              "name": "sourceId",
              "type": "string",
              "value": "ref-036-0-0"
            },
            {
              "name": "collision",
              "type": "string",
              "value": "marker"
            }
          ]
        },
        {
          "id": 341,
          "name": "ref-036-1-0",
          "type": "Coin",
          "x": 946,
          "y": 130,
          "width": 10,
          "height": 14,
          "rotation": 0,
          "visible": true,
          "properties": [
            {
              "name": "sourceId",
              "type": "string",
              "value": "ref-036-1-0"
            },
            {
              "name": "collision",
              "type": "string",
              "value": "marker"
            }
          ]
        },
        {
          "id": 342,
          "name": "ref-036-2-0",
          "type": "Coin",
          "x": 962,
          "y": 130,
          "width": 10,
          "height": 14,
          "rotation": 0,
          "visible": true,
          "properties": [
            {
              "name": "sourceId",
              "type": "string",
              "value": "ref-036-2-0"
            },
            {
              "name": "collision",
              "type": "string",
              "value": "marker"
            }
          ]
        },
        {
          "id": 343,
          "name": "ref-036-3-0",
          "type": "Coin",
          "x": 978,
          "y": 130,
          "width": 10,
          "height": 14,
          "rotation": 0,
          "visible": true,
          "properties": [
            {
              "name": "sourceId",
              "type": "string",
              "value": "ref-036-3-0"
            },
            {
              "name": "collision",
              "type": "string",
              "value": "marker"
            }
          ]
        },
        {
          "id": 344,
          "name": "ref-037",
          "type": "Koopa",
          "x": 944,
          "y": 184,
          "width": 16,
          "height": 24,
          "rotation": 0,
          "visible": true,
          "properties": [
            {
              "name": "sourceId",
              "type": "string",
              "value": "ref-037"
            },
            {
              "name": "collision",
              "type": "string",
              "value": "marker"
            }
          ]
        },
        {
          "id": 345,
          "name": "ref-039",
          "type": "Goomba",
          "x": 988,
          "y": 192,
          "width": 16,
          "height": 16,
          "rotation": 0,
          "visible": true,
          "properties": [
            {
              "name": "sourceId",
              "type": "string",
              "value": "ref-039"
            },
            {
              "name": "collision",
              "type": "string",
              "value": "marker"
            }
          ]
        },
        {
          "id": 346,
          "name": "ref-040",
          "type": "Goomba",
          "x": 1020,
          "y": 192,
          "width": 16,
          "height": 16,
          "rotation": 0,
          "visible": true,
          "properties": [
            {
              "name": "sourceId",
              "type": "string",
              "value": "ref-040"
            },
            {
              "name": "collision",
              "type": "string",
              "value": "marker"
            }
          ]
        },
        {
          "id": 347,
          "name": "ref-044",
          "type": "Coin",
          "x": 1090,
          "y": 130,
          "width": 10,
          "height": 14,
          "rotation": 0,
          "visible": true,
          "properties": [
            {
              "name": "sourceId",
              "type": "string",
              "value": "ref-044"
            },
            {
              "name": "collision",
              "type": "string",
              "value": "marker"
            }
          ]
        },
        {
          "id": 348,
          "name": "ref-045-item",
          "type": "Contents",
          "x": 1104,
          "y": 128,
          "width": 16,
          "height": 16,
          "rotation": 0,
          "visible": true,
          "properties": [
            {
              "name": "sourceId",
              "type": "string",
              "value": "ref-045-item"
            },
            {
              "name": "collision",
              "type": "string",
              "value": "marker"
            }
          ]
        },
        {
          "id": 349,
          "name": "ref-049-item",
          "type": "Contents",
          "x": 1168,
          "y": 128,
          "width": 16,
          "height": 16,
          "rotation": 0,
          "visible": true,
          "properties": [
            {
              "name": "sourceId",
              "type": "string",
              "value": "ref-049-item"
            },
            {
              "name": "collision",
              "type": "string",
              "value": "marker"
            }
          ]
        },
        {
          "id": 350,
          "name": "ref-050",
          "type": "Goomba",
          "x": 1168,
          "y": 64,
          "width": 16,
          "height": 16,
          "rotation": 0,
          "visible": true,
          "properties": [
            {
              "name": "sourceId",
              "type": "string",
              "value": "ref-050"
            },
            {
              "name": "collision",
              "type": "string",
              "value": "marker"
            }
          ]
        },
        {
          "id": 351,
          "name": "ref-052-0-0",
          "type": "Goomba",
          "x": 1216,
          "y": 128,
          "width": 16,
          "height": 16,
          "rotation": 0,
          "visible": true,
          "properties": [
            {
              "name": "sourceId",
              "type": "string",
              "value": "ref-052-0-0"
            },
            {
              "name": "collision",
              "type": "string",
              "value": "marker"
            }
          ]
        },
        {
          "id": 352,
          "name": "ref-052-1-0",
          "type": "Goomba",
          "x": 1240,
          "y": 128,
          "width": 16,
          "height": 16,
          "rotation": 0,
          "visible": true,
          "properties": [
            {
              "name": "sourceId",
              "type": "string",
              "value": "ref-052-1-0"
            },
            {
              "name": "collision",
              "type": "string",
              "value": "marker"
            }
          ]
        },
        {
          "id": 353,
          "name": "ref-056-0-0",
          "type": "Coin",
          "x": 1348,
          "y": 80,
          "width": 10,
          "height": 14,
          "rotation": 0,
          "visible": true,
          "properties": [
            {
              "name": "sourceId",
              "type": "string",
              "value": "ref-056-0-0"
            },
            {
              "name": "collision",
              "type": "string",
              "value": "marker"
            }
          ]
        },
        {
          "id": 354,
          "name": "ref-056-1-0",
          "type": "Coin",
          "x": 1364,
          "y": 80,
          "width": 10,
          "height": 14,
          "rotation": 0,
          "visible": true,
          "properties": [
            {
              "name": "sourceId",
              "type": "string",
              "value": "ref-056-1-0"
            },
            {
              "name": "collision",
              "type": "string",
              "value": "marker"
            }
          ]
        },
        {
          "id": 355,
          "name": "ref-056-2-0",
          "type": "Coin",
          "x": 1380,
          "y": 80,
          "width": 10,
          "height": 14,
          "rotation": 0,
          "visible": true,
          "properties": [
            {
              "name": "sourceId",
              "type": "string",
              "value": "ref-056-2-0"
            },
            {
              "name": "collision",
              "type": "string",
              "value": "marker"
            }
          ]
        },
        {
          "id": 356,
          "name": "ref-056-3-0",
          "type": "Coin",
          "x": 1396,
          "y": 80,
          "width": 10,
          "height": 14,
          "rotation": 0,
          "visible": true,
          "properties": [
            {
              "name": "sourceId",
              "type": "string",
              "value": "ref-056-3-0"
            },
            {
              "name": "collision",
              "type": "string",
              "value": "marker"
            }
          ]
        },
        {
          "id": 357,
          "name": "ref-056-4-0",
          "type": "Coin",
          "x": 1412,
          "y": 80,
          "width": 10,
          "height": 14,
          "rotation": 0,
          "visible": true,
          "properties": [
            {
              "name": "sourceId",
              "type": "string",
              "value": "ref-056-4-0"
            },
            {
              "name": "collision",
              "type": "string",
              "value": "marker"
            }
          ]
        },
        {
          "id": 358,
          "name": "ref-056-5-0",
          "type": "Coin",
          "x": 1428,
          "y": 80,
          "width": 10,
          "height": 14,
          "rotation": 0,
          "visible": true,
          "properties": [
            {
              "name": "sourceId",
              "type": "string",
              "value": "ref-056-5-0"
            },
            {
              "name": "collision",
              "type": "string",
              "value": "marker"
            }
          ]
        },
        {
          "id": 359,
          "name": "ref-057-item",
          "type": "Contents",
          "x": 1424,
          "y": 32,
          "width": 16,
          "height": 16,
          "rotation": 0,
          "visible": true,
          "properties": [
            {
              "name": "sourceId",
              "type": "string",
              "value": "ref-057-item"
            },
            {
              "name": "collision",
              "type": "string",
              "value": "marker"
            }
          ]
        },
        {
          "id": 360,
          "name": "ref-059-0-0",
          "type": "Goomba",
          "x": 1536,
          "y": 192,
          "width": 16,
          "height": 16,
          "rotation": 0,
          "visible": true,
          "properties": [
            {
              "name": "sourceId",
              "type": "string",
              "value": "ref-059-0-0"
            },
            {
              "name": "collision",
              "type": "string",
              "value": "marker"
            }
          ]
        },
        {
          "id": 361,
          "name": "ref-059-1-0",
          "type": "Goomba",
          "x": 1560,
          "y": 192,
          "width": 16,
          "height": 16,
          "rotation": 0,
          "visible": true,
          "properties": [
            {
              "name": "sourceId",
              "type": "string",
              "value": "ref-059-1-0"
            },
            {
              "name": "collision",
              "type": "string",
              "value": "marker"
            }
          ]
        },
        {
          "id": 362,
          "name": "ref-059-2-0",
          "type": "Goomba",
          "x": 1584,
          "y": 192,
          "width": 16,
          "height": 16,
          "rotation": 0,
          "visible": true,
          "properties": [
            {
              "name": "sourceId",
              "type": "string",
              "value": "ref-059-2-0"
            },
            {
              "name": "collision",
              "type": "string",
              "value": "marker"
            }
          ]
        },
        {
          "id": 363,
          "name": "ref-060-link",
          "type": "PipeRoute",
          "x": 1600,
          "y": 160,
          "width": 32,
          "height": 16,
          "rotation": 0,
          "visible": true,
          "properties": [
            {
              "name": "sourceId",
              "type": "string",
              "value": "ref-060-link"
            },
            {
              "name": "collision",
              "type": "string",
              "value": "marker"
            }
          ]
        },
        {
          "id": 364,
          "name": "ref-060-plant",
          "type": "Piranha",
          "x": 1608,
          "y": 136,
          "width": 16,
          "height": 24,
          "rotation": 0,
          "visible": true,
          "properties": [
            {
              "name": "sourceId",
              "type": "string",
              "value": "ref-060-plant"
            },
            {
              "name": "collision",
              "type": "string",
              "value": "marker"
            }
          ]
        },
        {
          "id": 365,
          "name": "ref-061-plant",
          "type": "Piranha",
          "x": 1704,
          "y": 120,
          "width": 16,
          "height": 24,
          "rotation": 0,
          "visible": true,
          "properties": [
            {
              "name": "sourceId",
              "type": "string",
              "value": "ref-061-plant"
            },
            {
              "name": "collision",
              "type": "string",
              "value": "marker"
            }
          ]
        },
        {
          "id": 366,
          "name": "ref-062",
          "type": "Goomba",
          "x": 1744,
          "y": 192,
          "width": 16,
          "height": 16,
          "rotation": 0,
          "visible": true,
          "properties": [
            {
              "name": "sourceId",
              "type": "string",
              "value": "ref-062"
            },
            {
              "name": "collision",
              "type": "string",
              "value": "marker"
            }
          ]
        },
        {
          "id": 367,
          "name": "ref-063-plant",
          "type": "Piranha",
          "x": 1800,
          "y": 152,
          "width": 16,
          "height": 24,
          "rotation": 0,
          "visible": true,
          "properties": [
            {
              "name": "sourceId",
              "type": "string",
              "value": "ref-063-plant"
            },
            {
              "name": "collision",
              "type": "string",
              "value": "marker"
            }
          ]
        },
        {
          "id": 368,
          "name": "ref-070",
          "type": "Goomba",
          "x": 2112,
          "y": 144,
          "width": 16,
          "height": 16,
          "rotation": 0,
          "visible": true,
          "properties": [
            {
              "name": "sourceId",
              "type": "string",
              "value": "ref-070"
            },
            {
              "name": "collision",
              "type": "string",
              "value": "marker"
            }
          ]
        },
        {
          "id": 369,
          "name": "ref-072",
          "type": "Goomba",
          "x": 2128,
          "y": 112,
          "width": 16,
          "height": 16,
          "rotation": 0,
          "visible": true,
          "properties": [
            {
              "name": "sourceId",
              "type": "string",
              "value": "ref-072"
            },
            {
              "name": "collision",
              "type": "string",
              "value": "marker"
            }
          ]
        },
        {
          "id": 370,
          "name": "ref-074-mechanism",
          "type": "PlatformGenerator",
          "x": 2192,
          "y": 32,
          "width": 48,
          "height": 176,
          "rotation": 0,
          "visible": true,
          "properties": [
            {
              "name": "sourceId",
              "type": "string",
              "value": "ref-074-mechanism"
            },
            {
              "name": "collision",
              "type": "string",
              "value": "marker"
            }
          ]
        },
        {
          "id": 371,
          "name": "ref-077",
          "type": "Koopa",
          "x": 2304,
          "y": 184,
          "width": 16,
          "height": 24,
          "rotation": 0,
          "visible": true,
          "properties": [
            {
              "name": "sourceId",
              "type": "string",
              "value": "ref-077"
            },
            {
              "name": "collision",
              "type": "string",
              "value": "marker"
            }
          ]
        },
        {
          "id": 372,
          "name": "ref-078-item",
          "type": "Contents",
          "x": 2368,
          "y": 128,
          "width": 16,
          "height": 16,
          "rotation": 0,
          "visible": true,
          "properties": [
            {
              "name": "sourceId",
              "type": "string",
              "value": "ref-078-item"
            },
            {
              "name": "collision",
              "type": "string",
              "value": "marker"
            }
          ]
        },
        {
          "id": 373,
          "name": "ref-079-mechanism",
          "type": "PlatformGenerator",
          "x": 2448,
          "y": 32,
          "width": 48,
          "height": 176,
          "rotation": 0,
          "visible": true,
          "properties": [
            {
              "name": "sourceId",
              "type": "string",
              "value": "ref-079-mechanism"
            },
            {
              "name": "collision",
              "type": "string",
              "value": "marker"
            }
          ]
        },
        {
          "id": 374,
          "name": "ref-082-link",
          "type": "PipeRoute",
          "x": 2624,
          "y": 128,
          "width": 32,
          "height": 32,
          "rotation": 0,
          "visible": true,
          "properties": [
            {
              "name": "sourceId",
              "type": "string",
              "value": "ref-082-link"
            },
            {
              "name": "collision",
              "type": "string",
              "value": "marker"
            }
          ]
        },
        {
          "id": 375,
          "name": "ref-087-warp-0",
          "type": "Warp",
          "x": 2816,
          "y": 128,
          "width": 32,
          "height": 32,
          "rotation": 0,
          "visible": true,
          "properties": [
            {
              "name": "sourceId",
              "type": "string",
              "value": "ref-087-warp-0"
            },
            {
              "name": "collision",
              "type": "string",
              "value": "marker"
            }
          ]
        },
        {
          "id": 376,
          "name": "ref-087-warp-1",
          "type": "Warp",
          "x": 2880,
          "y": 128,
          "width": 32,
          "height": 32,
          "rotation": 0,
          "visible": true,
          "properties": [
            {
              "name": "sourceId",
              "type": "string",
              "value": "ref-087-warp-1"
            },
            {
              "name": "collision",
              "type": "string",
              "value": "marker"
            }
          ]
        },
        {
          "id": 377,
          "name": "ref-087-warp-2",
          "type": "Warp",
          "x": 2944,
          "y": 128,
          "width": 32,
          "height": 32,
          "rotation": 0,
          "visible": true,
          "properties": [
            {
              "name": "sourceId",
              "type": "string",
              "value": "ref-087-warp-2"
            },
            {
              "name": "collision",
              "type": "string",
              "value": "marker"
            }
          ]
        }
      ]
    }
  ],
  "nextobjectid": 379,
  "nextlayerid": 380,
  "properties": [
    {
      "name": "scope",
      "type": "string",
      "value": "Object-layer export for editing/reference. Tiled reimport is not implemented."
    }
  ]
}
