{
  "type": "map",
  "version": "1.10",
  "orientation": "orthogonal",
  "renderorder": "right-down",
  "width": 224,
  "height": 15,
  "tilewidth": 16,
  "tileheight": 16,
  "infinite": false,
  "nextlayerid": 4,
  "nextobjectid": 70,
  "tilesets": [],
  "layers": [
    {
      "id": 1,
      "name": "collision",
      "type": "objectgroup",
      "visible": true,
      "opacity": 1,
      "x": 0,
      "y": 0,
      "draworder": "index",
      "objects": [
        {
          "id": 1,
          "name": "r000",
          "type": "solid",
          "x": 0,
          "y": 208,
          "width": 784,
          "height": 32,
          "rotation": 0,
          "visible": true,
          "properties": [
            {
              "name": "sourceJson",
              "type": "string",
              "value": "{\"id\":\"r000\",\"x\":0,\"y\":208,\"w\":784,\"h\":32,\"collision\":\"solid\"}"
            }
          ]
        },
        {
          "id": 2,
          "name": "r005",
          "type": "solid",
          "x": 704,
          "y": 160,
          "width": 32,
          "height": 48,
          "rotation": 0,
          "visible": true,
          "properties": [
            {
              "name": "sourceJson",
              "type": "string",
              "value": "{\"id\":\"r005\",\"x\":704,\"y\":160,\"w\":32,\"h\":48,\"collision\":\"solid\"}"
            }
          ]
        },
        {
          "id": 3,
          "name": "r006",
          "type": "solid",
          "x": 816,
          "y": 208,
          "width": 656,
          "height": 32,
          "rotation": 0,
          "visible": true,
          "properties": [
            {
              "name": "sourceJson",
              "type": "string",
              "value": "{\"id\":\"r006\",\"x\":816,\"y\":208,\"w\":656,\"h\":32,\"collision\":\"solid\"}"
            }
          ]
        },
        {
          "id": 4,
          "name": "r007",
          "type": "solid",
          "x": 816,
          "y": 160,
          "width": 32,
          "height": 48,
          "rotation": 0,
          "visible": true,
          "properties": [
            {
              "name": "sourceJson",
              "type": "string",
              "value": "{\"id\":\"r007\",\"x\":816,\"y\":160,\"w\":32,\"h\":48,\"collision\":\"solid\"}"
            }
          ]
        },
        {
          "id": 5,
          "name": "r012",
          "type": "solid",
          "x": 1424,
          "y": 160,
          "width": 16,
          "height": 48,
          "rotation": 0,
          "visible": true,
          "properties": [
            {
              "name": "sourceJson",
              "type": "string",
              "value": "{\"id\":\"r012\",\"x\":1424,\"y\":160,\"w\":16,\"h\":48,\"collision\":\"solid\"}"
            }
          ]
        },
        {
          "id": 6,
          "name": "r013",
          "type": "solid",
          "x": 1424,
          "y": 144,
          "width": 80,
          "height": 16,
          "rotation": 0,
          "visible": true,
          "properties": [
            {
              "name": "sourceJson",
              "type": "string",
              "value": "{\"id\":\"r013\",\"x\":1424,\"y\":144,\"w\":80,\"h\":16,\"collision\":\"solid\"}"
            }
          ]
        },
        {
          "id": 7,
          "name": "r014-0-0",
          "type": "solid",
          "x": 1440,
          "y": 80,
          "width": 16,
          "height": 16,
          "rotation": 0,
          "visible": true,
          "properties": [
            {
              "name": "sourceJson",
              "type": "string",
              "value": "{\"id\":\"r014-0-0\",\"x\":1440,\"y\":80,\"w\":16,\"h\":16,\"collision\":\"solid\"}"
            }
          ]
        },
        {
          "id": 8,
          "name": "r014-1-0",
          "type": "solid",
          "x": 1472,
          "y": 80,
          "width": 16,
          "height": 16,
          "rotation": 0,
          "visible": true,
          "properties": [
            {
              "name": "sourceJson",
              "type": "string",
              "value": "{\"id\":\"r014-1-0\",\"x\":1472,\"y\":80,\"w\":16,\"h\":16,\"collision\":\"solid\"}"
            }
          ]
        },
        {
          "id": 9,
          "name": "r015",
          "type": "solid",
          "x": 1456,
          "y": 80,
          "width": 16,
          "height": 16,
          "rotation": 0,
          "visible": true,
          "properties": [
            {
              "name": "sourceJson",
              "type": "string",
              "value": "{\"id\":\"r015\",\"x\":1456,\"y\":80,\"w\":16,\"h\":16,\"collision\":\"solid\"}"
            }
          ]
        },
        {
          "id": 10,
          "name": "r016",
          "type": "solid",
          "x": 1536,
          "y": 208,
          "width": 648,
          "height": 32,
          "rotation": 0,
          "visible": true,
          "properties": [
            {
              "name": "sourceJson",
              "type": "string",
              "value": "{\"id\":\"r016\",\"x\":1536,\"y\":208,\"w\":648,\"h\":32,\"collision\":\"solid\"}"
            }
          ]
        },
        {
          "id": 11,
          "name": "r018",
          "type": "solid",
          "x": 1776,
          "y": 176,
          "width": 16,
          "height": 32,
          "rotation": 0,
          "visible": true,
          "properties": [
            {
              "name": "sourceJson",
              "type": "string",
              "value": "{\"id\":\"r018\",\"x\":1776,\"y\":176,\"w\":16,\"h\":32,\"collision\":\"solid\"}"
            }
          ]
        },
        {
          "id": 12,
          "name": "r019",
          "type": "solid",
          "x": 1856,
          "y": 208,
          "width": 576,
          "height": 32,
          "rotation": 0,
          "visible": true,
          "properties": [
            {
              "name": "sourceJson",
              "type": "string",
              "value": "{\"id\":\"r019\",\"x\":1856,\"y\":208,\"w\":576,\"h\":32,\"collision\":\"solid\"}"
            }
          ]
        },
        {
          "id": 13,
          "name": "r020",
          "type": "solid",
          "x": 1856,
          "y": 160,
          "width": 16,
          "height": 48,
          "rotation": 0,
          "visible": true,
          "properties": [
            {
              "name": "sourceJson",
              "type": "string",
              "value": "{\"id\":\"r020\",\"x\":1856,\"y\":160,\"w\":16,\"h\":48,\"collision\":\"solid\"}"
            }
          ]
        },
        {
          "id": 14,
          "name": "r025",
          "type": "solid",
          "x": 2352,
          "y": 144,
          "width": 64,
          "height": 16,
          "rotation": 0,
          "visible": true,
          "properties": [
            {
              "name": "sourceJson",
              "type": "string",
              "value": "{\"id\":\"r025\",\"x\":2352,\"y\":144,\"w\":64,\"h\":16,\"collision\":\"solid\"}"
            }
          ]
        },
        {
          "id": 15,
          "name": "r027-0-0",
          "type": "solid",
          "x": 2384,
          "y": 144,
          "width": 16,
          "height": 16,
          "rotation": 0,
          "visible": true,
          "properties": [
            {
              "name": "sourceJson",
              "type": "string",
              "value": "{\"id\":\"r027-0-0\",\"x\":2384,\"y\":144,\"w\":16,\"h\":16,\"collision\":\"solid\"}"
            }
          ]
        },
        {
          "id": 16,
          "name": "r027-1-0",
          "type": "solid",
          "x": 2400,
          "y": 144,
          "width": 16,
          "height": 16,
          "rotation": 0,
          "visible": true,
          "properties": [
            {
              "name": "sourceJson",
              "type": "string",
              "value": "{\"id\":\"r027-1-0\",\"x\":2400,\"y\":144,\"w\":16,\"h\":16,\"collision\":\"solid\"}"
            }
          ]
        },
        {
          "id": 17,
          "name": "r028",
          "type": "solid",
          "x": 2480,
          "y": 208,
          "width": 1104,
          "height": 32,
          "rotation": 0,
          "visible": true,
          "properties": [
            {
              "name": "sourceJson",
              "type": "string",
              "value": "{\"id\":\"r028\",\"x\":2480,\"y\":208,\"w\":1104,\"h\":32,\"collision\":\"solid\"}"
            }
          ]
        },
        {
          "id": 18,
          "name": "r029",
          "type": "solid",
          "x": 2496,
          "y": 144,
          "width": 32,
          "height": 16,
          "rotation": 0,
          "visible": true,
          "properties": [
            {
              "name": "sourceJson",
              "type": "string",
              "value": "{\"id\":\"r029\",\"x\":2496,\"y\":144,\"w\":32,\"h\":16,\"collision\":\"solid\"}"
            }
          ]
        },
        {
          "id": 19,
          "name": "r030",
          "type": "solid",
          "x": 2496,
          "y": 112,
          "width": 32,
          "height": 32,
          "rotation": 0,
          "visible": true,
          "properties": [
            {
              "name": "sourceJson",
              "type": "string",
              "value": "{\"id\":\"r030\",\"x\":2496,\"y\":112,\"w\":32,\"h\":32,\"collision\":\"solid\"}"
            }
          ]
        },
        {
          "id": 20,
          "name": "r031",
          "type": "solid",
          "x": 2544,
          "y": 176,
          "width": 16,
          "height": 32,
          "rotation": 0,
          "visible": true,
          "properties": [
            {
              "name": "sourceJson",
              "type": "string",
              "value": "{\"id\":\"r031\",\"x\":2544,\"y\":176,\"w\":16,\"h\":32,\"collision\":\"solid\"}"
            }
          ]
        },
        {
          "id": 21,
          "name": "r032",
          "type": "solid",
          "x": 2608,
          "y": 176,
          "width": 32,
          "height": 32,
          "rotation": 0,
          "visible": true,
          "properties": [
            {
              "name": "sourceJson",
              "type": "string",
              "value": "{\"id\":\"r032\",\"x\":2608,\"y\":176,\"w\":32,\"h\":32,\"collision\":\"solid\"}"
            }
          ]
        },
        {
          "id": 22,
          "name": "r033",
          "type": "solid",
          "x": 2720,
          "y": 176,
          "width": 16,
          "height": 32,
          "rotation": 0,
          "visible": true,
          "properties": [
            {
              "name": "sourceJson",
              "type": "string",
              "value": "{\"id\":\"r033\",\"x\":2720,\"y\":176,\"w\":16,\"h\":32,\"collision\":\"solid\"}"
            }
          ]
        },
        {
          "id": 23,
          "name": "r035",
          "type": "solid",
          "x": 2912,
          "y": 192,
          "width": 16,
          "height": 16,
          "rotation": 0,
          "visible": true,
          "properties": [
            {
              "name": "sourceJson",
              "type": "string",
              "value": "{\"id\":\"r035\",\"x\":2912,\"y\":192,\"w\":16,\"h\":16,\"collision\":\"solid\"}"
            }
          ]
        },
        {
          "id": 24,
          "name": "r036",
          "type": "solid",
          "x": 2912,
          "y": 120,
          "width": 16,
          "height": 16,
          "rotation": 0,
          "visible": true,
          "properties": [
            {
              "name": "sourceJson",
              "type": "string",
              "value": "{\"id\":\"r036\",\"x\":2912,\"y\":120,\"w\":16,\"h\":16,\"collision\":\"solid\"}"
            }
          ]
        },
        {
          "id": 25,
          "name": "r037",
          "type": "solid",
          "x": 2928,
          "y": 176,
          "width": 16,
          "height": 32,
          "rotation": 0,
          "visible": true,
          "properties": [
            {
              "name": "sourceJson",
              "type": "string",
              "value": "{\"id\":\"r037\",\"x\":2928,\"y\":176,\"w\":16,\"h\":32,\"collision\":\"solid\"}"
            }
          ]
        },
        {
          "id": 26,
          "name": "r038",
          "type": "solid",
          "x": 2944,
          "y": 160,
          "width": 16,
          "height": 48,
          "rotation": 0,
          "visible": true,
          "properties": [
            {
              "name": "sourceJson",
              "type": "string",
              "value": "{\"id\":\"r038\",\"x\":2944,\"y\":160,\"w\":16,\"h\":48,\"collision\":\"solid\"}"
            }
          ]
        },
        {
          "id": 27,
          "name": "r039",
          "type": "solid",
          "x": 2960,
          "y": 144,
          "width": 16,
          "height": 64,
          "rotation": 0,
          "visible": true,
          "properties": [
            {
              "name": "sourceJson",
              "type": "string",
              "value": "{\"id\":\"r039\",\"x\":2960,\"y\":144,\"w\":16,\"h\":64,\"collision\":\"solid\"}"
            }
          ]
        },
        {
          "id": 28,
          "name": "r040",
          "type": "solid",
          "x": 2976,
          "y": 128,
          "width": 16,
          "height": 80,
          "rotation": 0,
          "visible": true,
          "properties": [
            {
              "name": "sourceJson",
              "type": "string",
              "value": "{\"id\":\"r040\",\"x\":2976,\"y\":128,\"w\":16,\"h\":80,\"collision\":\"solid\"}"
            }
          ]
        },
        {
          "id": 29,
          "name": "r041",
          "type": "solid",
          "x": 3024,
          "y": 80,
          "width": 32,
          "height": 96,
          "rotation": 0,
          "visible": true,
          "properties": [
            {
              "name": "sourceJson",
              "type": "string",
              "value": "{\"id\":\"r041\",\"x\":3024,\"y\":80,\"w\":32,\"h\":96,\"collision\":\"solid\"}"
            }
          ]
        },
        {
          "id": 30,
          "name": "r042-base",
          "type": "solid",
          "x": 3184,
          "y": 192,
          "width": 16,
          "height": 16,
          "rotation": 0,
          "visible": true,
          "properties": [
            {
              "name": "sourceJson",
              "type": "string",
              "value": "{\"id\":\"r042-base\",\"x\":3184,\"y\":192,\"w\":16,\"h\":16,\"collision\":\"solid\"}"
            }
          ]
        }
      ]
    },
    {
      "id": 2,
      "name": "objects",
      "type": "objectgroup",
      "visible": true,
      "opacity": 1,
      "x": 0,
      "y": 0,
      "draworder": "index",
      "objects": [
        {
          "id": 31,
          "name": "inspection-start",
          "type": "spawn",
          "x": 24,
          "y": 184,
          "width": 12,
          "height": 24,
          "rotation": 0,
          "visible": true,
          "properties": [
            {
              "name": "sourceJson",
              "type": "string",
              "value": "{\"id\":\"inspection-start\",\"kind\":\"spawn\",\"x\":24,\"y\":184,\"w\":12,\"h\":24}"
            }
          ]
        }
      ]
    },
    {
      "id": 3,
      "name": "pending-mechanics",
      "type": "objectgroup",
      "visible": true,
      "opacity": 1,
      "x": 0,
      "y": 0,
      "draworder": "index",
      "objects": [
        {
          "id": 32,
          "name": "r001",
          "type": "enemy-koopa",
          "x": 256,
          "y": 184,
          "width": 0,
          "height": 0,
          "rotation": 0,
          "visible": true,
          "point": true,
          "properties": [
            {
              "name": "sourceJson",
              "type": "string",
              "value": "{\"id\":\"r001\",\"kind\":\"enemy-koopa\",\"source\":{\"thing\":\"Koopa\",\"x\":128,\"y\":12},\"sourcePath\":{\"area\":0,\"part\":\"base\",\"record\":\"r001\"},\"x\":256,\"y\":184}"
            }
          ]
        },
        {
          "id": 33,
          "name": "r002-0-0",
          "type": "enemy-goomba",
          "x": 304,
          "y": 192,
          "width": 0,
          "height": 0,
          "rotation": 0,
          "visible": true,
          "point": true,
          "properties": [
            {
              "name": "sourceJson",
              "type": "string",
              "value": "{\"id\":\"r002-0-0\",\"kind\":\"enemy-goomba\",\"source\":{\"thing\":\"Goomba\",\"x\":152,\"y\":8},\"sourcePath\":{\"area\":0,\"part\":\"base\",\"record\":\"r002\"},\"x\":304,\"y\":192}"
            }
          ]
        },
        {
          "id": 34,
          "name": "r002-1-0",
          "type": "enemy-goomba",
          "x": 346,
          "y": 192,
          "width": 0,
          "height": 0,
          "rotation": 0,
          "visible": true,
          "point": true,
          "properties": [
            {
              "name": "sourceJson",
              "type": "string",
              "value": "{\"id\":\"r002-1-0\",\"kind\":\"enemy-goomba\",\"source\":{\"thing\":\"Goomba\",\"x\":173,\"y\":8},\"sourcePath\":{\"area\":0,\"part\":\"base\",\"record\":\"r002\"},\"x\":346,\"y\":192}"
            }
          ]
        },
        {
          "id": 35,
          "name": "r002-2-0",
          "type": "enemy-goomba",
          "x": 388,
          "y": 192,
          "width": 0,
          "height": 0,
          "rotation": 0,
          "visible": true,
          "point": true,
          "properties": [
            {
              "name": "sourceJson",
              "type": "string",
              "value": "{\"id\":\"r002-2-0\",\"kind\":\"enemy-goomba\",\"source\":{\"thing\":\"Goomba\",\"x\":194,\"y\":8},\"sourcePath\":{\"area\":0,\"part\":\"base\",\"record\":\"r002\"},\"x\":388,\"y\":192}"
            }
          ]
        },
        {
          "id": 36,
          "name": "r003-0-0",
          "type": "enemy-goomba",
          "x": 480,
          "y": 192,
          "width": 0,
          "height": 0,
          "rotation": 0,
          "visible": true,
          "point": true,
          "properties": [
            {
              "name": "sourceJson",
              "type": "string",
              "value": "{\"id\":\"r003-0-0\",\"kind\":\"enemy-goomba\",\"source\":{\"thing\":\"Goomba\",\"x\":240,\"y\":8},\"sourcePath\":{\"area\":0,\"part\":\"base\",\"record\":\"r003\"},\"x\":480,\"y\":192}"
            }
          ]
        },
        {
          "id": 37,
          "name": "r003-1-0",
          "type": "enemy-goomba",
          "x": 522,
          "y": 192,
          "width": 0,
          "height": 0,
          "rotation": 0,
          "visible": true,
          "point": true,
          "properties": [
            {
              "name": "sourceJson",
              "type": "string",
              "value": "{\"id\":\"r003-1-0\",\"kind\":\"enemy-goomba\",\"source\":{\"thing\":\"Goomba\",\"x\":261,\"y\":8},\"sourcePath\":{\"area\":0,\"part\":\"base\",\"record\":\"r003\"},\"x\":522,\"y\":192}"
            }
          ]
        },
        {
          "id": 38,
          "name": "r003-2-0",
          "type": "enemy-goomba",
          "x": 564,
          "y": 192,
          "width": 0,
          "height": 0,
          "rotation": 0,
          "visible": true,
          "point": true,
          "properties": [
            {
              "name": "sourceJson",
              "type": "string",
              "value": "{\"id\":\"r003-2-0\",\"kind\":\"enemy-goomba\",\"source\":{\"thing\":\"Goomba\",\"x\":282,\"y\":8},\"sourcePath\":{\"area\":0,\"part\":\"base\",\"record\":\"r003\"},\"x\":564,\"y\":192}"
            }
          ]
        },
        {
          "id": 39,
          "name": "r004-0-0",
          "type": "enemy-goomba",
          "x": 656,
          "y": 184,
          "width": 0,
          "height": 0,
          "rotation": 0,
          "visible": true,
          "point": true,
          "properties": [
            {
              "name": "sourceJson",
              "type": "string",
              "value": "{\"id\":\"r004-0-0\",\"kind\":\"enemy-goomba\",\"source\":{\"thing\":\"Goomba\",\"x\":328,\"y\":12},\"sourcePath\":{\"area\":0,\"part\":\"base\",\"record\":\"r004\"},\"x\":656,\"y\":184}"
            }
          ]
        },
        {
          "id": 40,
          "name": "r004-1-0",
          "type": "enemy-goomba",
          "x": 698,
          "y": 184,
          "width": 0,
          "height": 0,
          "rotation": 0,
          "visible": true,
          "point": true,
          "properties": [
            {
              "name": "sourceJson",
              "type": "string",
              "value": "{\"id\":\"r004-1-0\",\"kind\":\"enemy-goomba\",\"source\":{\"thing\":\"Goomba\",\"x\":349,\"y\":12},\"sourcePath\":{\"area\":0,\"part\":\"base\",\"record\":\"r004\"},\"x\":698,\"y\":184}"
            }
          ]
        },
        {
          "id": 41,
          "name": "r005-plant",
          "type": "enemy-piranha",
          "x": 704,
          "y": 160,
          "width": 0,
          "height": 0,
          "rotation": 0,
          "visible": true,
          "point": true,
          "properties": [
            {
              "name": "sourceJson",
              "type": "string",
              "value": "{\"id\":\"r005-plant\",\"kind\":\"enemy-piranha\",\"source\":{\"macro\":\"Pipe\",\"height\":24,\"piranha\":true,\"x\":352,\"y\":24},\"sourcePath\":{\"area\":0,\"part\":\"base\",\"record\":\"r005\"},\"x\":704,\"y\":160}"
            }
          ]
        },
        {
          "id": 42,
          "name": "r007-plant",
          "type": "enemy-piranha",
          "x": 816,
          "y": 160,
          "width": 0,
          "height": 0,
          "rotation": 0,
          "visible": true,
          "point": true,
          "properties": [
            {
              "name": "sourceJson",
              "type": "string",
              "value": "{\"id\":\"r007-plant\",\"kind\":\"enemy-piranha\",\"source\":{\"macro\":\"Pipe\",\"height\":24,\"piranha\":true,\"x\":408,\"y\":24},\"sourcePath\":{\"area\":0,\"part\":\"base\",\"record\":\"r007\"},\"x\":816,\"y\":160}"
            }
          ]
        },
        {
          "id": 43,
          "name": "r008",
          "type": "enemy-koopa",
          "x": 976,
          "y": 144,
          "width": 0,
          "height": 0,
          "rotation": 0,
          "visible": true,
          "point": true,
          "properties": [
            {
              "name": "sourceJson",
              "type": "string",
              "value": "{\"id\":\"r008\",\"kind\":\"enemy-koopa\",\"source\":{\"thing\":\"Koopa\",\"jumping\":true,\"x\":488,\"y\":32},\"sourcePath\":{\"area\":0,\"part\":\"base\",\"record\":\"r008\"},\"x\":976,\"y\":144}"
            }
          ]
        },
        {
          "id": 44,
          "name": "r009",
          "type": "enemy-goomba",
          "x": 1040,
          "y": 192,
          "width": 0,
          "height": 0,
          "rotation": 0,
          "visible": true,
          "point": true,
          "properties": [
            {
              "name": "sourceJson",
              "type": "string",
              "value": "{\"id\":\"r009\",\"kind\":\"enemy-goomba\",\"source\":{\"thing\":\"Goomba\",\"xnum\":3,\"xwidth\":12,\"x\":520,\"y\":8},\"sourcePath\":{\"area\":0,\"part\":\"base\",\"record\":\"r009\"},\"x\":1040,\"y\":192}"
            }
          ]
        },
        {
          "id": 45,
          "name": "r010",
          "type": "enemy-goomba",
          "x": 1216,
          "y": 192,
          "width": 0,
          "height": 0,
          "rotation": 0,
          "visible": true,
          "point": true,
          "properties": [
            {
              "name": "sourceJson",
              "type": "string",
              "value": "{\"id\":\"r010\",\"kind\":\"enemy-goomba\",\"source\":{\"thing\":\"Goomba\",\"xnum\":3,\"xwidth\":12,\"x\":608,\"y\":8},\"sourcePath\":{\"area\":0,\"part\":\"base\",\"record\":\"r010\"},\"x\":1216,\"y\":192}"
            }
          ]
        },
        {
          "id": 46,
          "name": "r011",
          "type": "enemy-koopa",
          "x": 1392,
          "y": 176,
          "width": 0,
          "height": 0,
          "rotation": 0,
          "visible": true,
          "point": true,
          "properties": [
            {
              "name": "sourceJson",
              "type": "string",
              "value": "{\"id\":\"r011\",\"kind\":\"enemy-koopa\",\"source\":{\"thing\":\"Koopa\",\"jumping\":true,\"x\":696,\"y\":16},\"sourcePath\":{\"area\":0,\"part\":\"base\",\"record\":\"r011\"},\"x\":1392,\"y\":176}"
            }
          ]
        },
        {
          "id": 47,
          "name": "r015-contents",
          "type": "block-contents",
          "x": 1456,
          "y": 80,
          "width": 0,
          "height": 0,
          "rotation": 0,
          "visible": true,
          "point": true,
          "properties": [
            {
              "name": "sourceJson",
              "type": "string",
              "value": "{\"id\":\"r015-contents\",\"kind\":\"block-contents\",\"source\":{\"thing\":\"Brick\",\"contents\":\"Star\",\"x\":728,\"y\":64},\"sourcePath\":{\"area\":0,\"part\":\"base\",\"record\":\"r015\"},\"x\":1456,\"y\":80}"
            }
          ]
        },
        {
          "id": 48,
          "name": "r017-0-0",
          "type": "enemy-goomba",
          "x": 1648,
          "y": 192,
          "width": 0,
          "height": 0,
          "rotation": 0,
          "visible": true,
          "point": true,
          "properties": [
            {
              "name": "sourceJson",
              "type": "string",
              "value": "{\"id\":\"r017-0-0\",\"kind\":\"enemy-goomba\",\"source\":{\"thing\":\"Goomba\",\"x\":824,\"y\":8},\"sourcePath\":{\"area\":0,\"part\":\"base\",\"record\":\"r017\"},\"x\":1648,\"y\":192}"
            }
          ]
        },
        {
          "id": 49,
          "name": "r017-1-0",
          "type": "enemy-goomba",
          "x": 1672,
          "y": 192,
          "width": 0,
          "height": 0,
          "rotation": 0,
          "visible": true,
          "point": true,
          "properties": [
            {
              "name": "sourceJson",
              "type": "string",
              "value": "{\"id\":\"r017-1-0\",\"kind\":\"enemy-goomba\",\"source\":{\"thing\":\"Goomba\",\"x\":836,\"y\":8},\"sourcePath\":{\"area\":0,\"part\":\"base\",\"record\":\"r017\"},\"x\":1672,\"y\":192}"
            }
          ]
        },
        {
          "id": 50,
          "name": "r017-2-0",
          "type": "enemy-goomba",
          "x": 1696,
          "y": 192,
          "width": 0,
          "height": 0,
          "rotation": 0,
          "visible": true,
          "point": true,
          "properties": [
            {
              "name": "sourceJson",
              "type": "string",
              "value": "{\"id\":\"r017-2-0\",\"kind\":\"enemy-goomba\",\"source\":{\"thing\":\"Goomba\",\"x\":848,\"y\":8},\"sourcePath\":{\"area\":0,\"part\":\"base\",\"record\":\"r017\"},\"x\":1696,\"y\":192}"
            }
          ]
        },
        {
          "id": 51,
          "name": "r018-fire",
          "type": "cannon-fire",
          "x": 1776,
          "y": 176,
          "width": 0,
          "height": 0,
          "rotation": 0,
          "visible": true,
          "point": true,
          "properties": [
            {
              "name": "sourceJson",
              "type": "string",
              "value": "{\"id\":\"r018-fire\",\"kind\":\"cannon-fire\",\"source\":{\"thing\":\"Cannon\",\"height\":16,\"x\":888,\"y\":16},\"sourcePath\":{\"area\":0,\"part\":\"base\",\"record\":\"r018\"},\"x\":1776,\"y\":176}"
            }
          ]
        },
        {
          "id": 52,
          "name": "r021-0-0",
          "type": "enemy-goomba",
          "x": 1936,
          "y": 192,
          "width": 0,
          "height": 0,
          "rotation": 0,
          "visible": true,
          "point": true,
          "properties": [
            {
              "name": "sourceJson",
              "type": "string",
              "value": "{\"id\":\"r021-0-0\",\"kind\":\"enemy-goomba\",\"source\":{\"thing\":\"Goomba\",\"x\":968,\"y\":8},\"sourcePath\":{\"area\":0,\"part\":\"base\",\"record\":\"r021\"},\"x\":1936,\"y\":192}"
            }
          ]
        },
        {
          "id": 53,
          "name": "r021-1-0",
          "type": "enemy-goomba",
          "x": 1960,
          "y": 192,
          "width": 0,
          "height": 0,
          "rotation": 0,
          "visible": true,
          "point": true,
          "properties": [
            {
              "name": "sourceJson",
              "type": "string",
              "value": "{\"id\":\"r021-1-0\",\"kind\":\"enemy-goomba\",\"source\":{\"thing\":\"Goomba\",\"x\":980,\"y\":8},\"sourcePath\":{\"area\":0,\"part\":\"base\",\"record\":\"r021\"},\"x\":1960,\"y\":192}"
            }
          ]
        },
        {
          "id": 54,
          "name": "r021-2-0",
          "type": "enemy-goomba",
          "x": 1984,
          "y": 192,
          "width": 0,
          "height": 0,
          "rotation": 0,
          "visible": true,
          "point": true,
          "properties": [
            {
              "name": "sourceJson",
              "type": "string",
              "value": "{\"id\":\"r021-2-0\",\"kind\":\"enemy-goomba\",\"source\":{\"thing\":\"Goomba\",\"x\":992,\"y\":8},\"sourcePath\":{\"area\":0,\"part\":\"base\",\"record\":\"r021\"},\"x\":1984,\"y\":192}"
            }
          ]
        },
        {
          "id": 55,
          "name": "r022",
          "type": "enemy-koopa",
          "x": 2032,
          "y": 184,
          "width": 0,
          "height": 0,
          "rotation": 0,
          "visible": true,
          "point": true,
          "properties": [
            {
              "name": "sourceJson",
              "type": "string",
              "value": "{\"id\":\"r022\",\"kind\":\"enemy-koopa\",\"source\":{\"thing\":\"Koopa\",\"x\":1016,\"y\":12},\"sourcePath\":{\"area\":0,\"part\":\"base\",\"record\":\"r022\"},\"x\":2032,\"y\":184}"
            }
          ]
        },
        {
          "id": 56,
          "name": "r023-0-0",
          "type": "enemy-goomba",
          "x": 2160,
          "y": 192,
          "width": 0,
          "height": 0,
          "rotation": 0,
          "visible": true,
          "point": true,
          "properties": [
            {
              "name": "sourceJson",
              "type": "string",
              "value": "{\"id\":\"r023-0-0\",\"kind\":\"enemy-goomba\",\"source\":{\"thing\":\"Goomba\",\"x\":1080,\"y\":8},\"sourcePath\":{\"area\":0,\"part\":\"base\",\"record\":\"r023\"},\"x\":2160,\"y\":192}"
            }
          ]
        },
        {
          "id": 57,
          "name": "r023-1-0",
          "type": "enemy-goomba",
          "x": 2184,
          "y": 192,
          "width": 0,
          "height": 0,
          "rotation": 0,
          "visible": true,
          "point": true,
          "properties": [
            {
              "name": "sourceJson",
              "type": "string",
              "value": "{\"id\":\"r023-1-0\",\"kind\":\"enemy-goomba\",\"source\":{\"thing\":\"Goomba\",\"x\":1092,\"y\":8},\"sourcePath\":{\"area\":0,\"part\":\"base\",\"record\":\"r023\"},\"x\":2184,\"y\":192}"
            }
          ]
        },
        {
          "id": 58,
          "name": "r023-2-0",
          "type": "enemy-goomba",
          "x": 2208,
          "y": 192,
          "width": 0,
          "height": 0,
          "rotation": 0,
          "visible": true,
          "point": true,
          "properties": [
            {
              "name": "sourceJson",
              "type": "string",
              "value": "{\"id\":\"r023-2-0\",\"kind\":\"enemy-goomba\",\"source\":{\"thing\":\"Goomba\",\"x\":1104,\"y\":8},\"sourcePath\":{\"area\":0,\"part\":\"base\",\"record\":\"r023\"},\"x\":2208,\"y\":192}"
            }
          ]
        },
        {
          "id": 59,
          "name": "r024-0-0",
          "type": "enemy-koopa",
          "x": 2304,
          "y": 184,
          "width": 0,
          "height": 0,
          "rotation": 0,
          "visible": true,
          "point": true,
          "properties": [
            {
              "name": "sourceJson",
              "type": "string",
              "value": "{\"id\":\"r024-0-0\",\"kind\":\"enemy-koopa\",\"source\":{\"thing\":\"Koopa\",\"x\":1152,\"y\":12},\"sourcePath\":{\"area\":0,\"part\":\"base\",\"record\":\"r024\"},\"x\":2304,\"y\":184}"
            }
          ]
        },
        {
          "id": 60,
          "name": "r024-1-0",
          "type": "enemy-koopa",
          "x": 2328,
          "y": 184,
          "width": 0,
          "height": 0,
          "rotation": 0,
          "visible": true,
          "point": true,
          "properties": [
            {
              "name": "sourceJson",
              "type": "string",
              "value": "{\"id\":\"r024-1-0\",\"kind\":\"enemy-koopa\",\"source\":{\"thing\":\"Koopa\",\"x\":1164,\"y\":12},\"sourcePath\":{\"area\":0,\"part\":\"base\",\"record\":\"r024\"},\"x\":2328,\"y\":184}"
            }
          ]
        },
        {
          "id": 61,
          "name": "r026",
          "type": "hidden-block",
          "x": 2368,
          "y": 144,
          "width": 0,
          "height": 0,
          "rotation": 0,
          "visible": true,
          "point": true,
          "properties": [
            {
              "name": "sourceJson",
              "type": "string",
              "value": "{\"id\":\"r026\",\"kind\":\"hidden-block\",\"source\":{\"thing\":\"Block\",\"contents\":\"Mushroom1Up\",\"hidden\":true,\"x\":1184,\"y\":32},\"sourcePath\":{\"area\":0,\"part\":\"base\",\"record\":\"r026\"},\"x\":2368,\"y\":144}"
            }
          ]
        },
        {
          "id": 62,
          "name": "r030-transport",
          "type": "source-transport-not-simulated",
          "x": 2496,
          "y": 112,
          "width": 0,
          "height": 0,
          "rotation": 0,
          "visible": true,
          "point": true,
          "properties": [
            {
              "name": "sourceJson",
              "type": "string",
              "value": "{\"id\":\"r030-transport\",\"kind\":\"source-transport-not-simulated\",\"source\":{\"height\":16,\"piranha\":true,\"transport\":2,\"x\":1248,\"y\":48,\"thing\":\"PipeVertical\",\"width\":16},\"sourcePath\":{\"area\":0,\"part\":\"base\",\"record\":\"r030\"},\"x\":2496,\"y\":112}"
            }
          ]
        },
        {
          "id": 63,
          "name": "r030-plant",
          "type": "enemy-piranha",
          "x": 2496,
          "y": 112,
          "width": 0,
          "height": 0,
          "rotation": 0,
          "visible": true,
          "point": true,
          "properties": [
            {
              "name": "sourceJson",
              "type": "string",
              "value": "{\"id\":\"r030-plant\",\"kind\":\"enemy-piranha\",\"source\":{\"macro\":\"Pipe\",\"height\":16,\"piranha\":true,\"transport\":2,\"x\":1248,\"y\":48},\"sourcePath\":{\"area\":0,\"part\":\"base\",\"record\":\"r030\"},\"x\":2496,\"y\":112}"
            }
          ]
        },
        {
          "id": 64,
          "name": "r031-fire",
          "type": "cannon-fire",
          "x": 2544,
          "y": 176,
          "width": 0,
          "height": 0,
          "rotation": 0,
          "visible": true,
          "point": true,
          "properties": [
            {
              "name": "sourceJson",
              "type": "string",
              "value": "{\"id\":\"r031-fire\",\"kind\":\"cannon-fire\",\"source\":{\"thing\":\"Cannon\",\"height\":16,\"x\":1272,\"y\":16},\"sourcePath\":{\"area\":0,\"part\":\"base\",\"record\":\"r031\"},\"x\":2544,\"y\":176}"
            }
          ]
        },
        {
          "id": 65,
          "name": "r032-plant",
          "type": "enemy-piranha",
          "x": 2608,
          "y": 176,
          "width": 0,
          "height": 0,
          "rotation": 0,
          "visible": true,
          "point": true,
          "properties": [
            {
              "name": "sourceJson",
              "type": "string",
              "value": "{\"id\":\"r032-plant\",\"kind\":\"enemy-piranha\",\"source\":{\"macro\":\"Pipe\",\"height\":16,\"piranha\":true,\"entrance\":1,\"x\":1304,\"y\":16},\"sourcePath\":{\"area\":0,\"part\":\"base\",\"record\":\"r032\"},\"x\":2608,\"y\":176}"
            }
          ]
        },
        {
          "id": 66,
          "name": "r033-fire",
          "type": "cannon-fire",
          "x": 2720,
          "y": 176,
          "width": 0,
          "height": 0,
          "rotation": 0,
          "visible": true,
          "point": true,
          "properties": [
            {
              "name": "sourceJson",
              "type": "string",
              "value": "{\"id\":\"r033-fire\",\"kind\":\"cannon-fire\",\"source\":{\"thing\":\"Cannon\",\"height\":16,\"x\":1360,\"y\":16},\"sourcePath\":{\"area\":0,\"part\":\"base\",\"record\":\"r033\"},\"x\":2720,\"y\":176}"
            }
          ]
        },
        {
          "id": 67,
          "name": "r034",
          "type": "enemy-koopa",
          "x": 2848,
          "y": 184,
          "width": 0,
          "height": 0,
          "rotation": 0,
          "visible": true,
          "point": true,
          "properties": [
            {
              "name": "sourceJson",
              "type": "string",
              "value": "{\"id\":\"r034\",\"kind\":\"enemy-koopa\",\"source\":{\"thing\":\"Koopa\",\"jumping\":true,\"x\":1424,\"y\":12},\"sourcePath\":{\"area\":0,\"part\":\"base\",\"record\":\"r034\"},\"x\":2848,\"y\":184}"
            }
          ]
        },
        {
          "id": 68,
          "name": "r042",
          "type": "flagpole-finish",
          "x": 3184,
          "y": 208,
          "width": 0,
          "height": 0,
          "rotation": 0,
          "visible": true,
          "point": true,
          "properties": [
            {
              "name": "sourceJson",
              "type": "string",
              "value": "{\"id\":\"r042\",\"kind\":\"flagpole-finish\",\"source\":{\"macro\":\"EndOutsideCastle\",\"transport\":{\"map\":\"5-2\"},\"x\":1592,\"y\":0},\"sourcePath\":{\"area\":0,\"part\":\"base\",\"record\":\"r042\"},\"x\":3184,\"y\":208}"
            }
          ]
        },
        {
          "id": 69,
          "name": "r042-transport",
          "type": "source-transport-not-simulated",
          "x": 3184,
          "y": 208,
          "width": 0,
          "height": 0,
          "rotation": 0,
          "visible": true,
          "point": true,
          "properties": [
            {
              "name": "sourceJson",
              "type": "string",
              "value": "{\"id\":\"r042-transport\",\"kind\":\"source-transport-not-simulated\",\"source\":{\"macro\":\"EndOutsideCastle\",\"transport\":{\"map\":\"5-2\"},\"x\":1592,\"y\":0},\"sourcePath\":{\"area\":0,\"part\":\"base\",\"record\":\"r042\"},\"x\":3184,\"y\":208}"
            }
          ]
        }
      ]
    }
  ],
  "properties": [
    {
      "name": "room",
      "type": "string",
      "value": "area-0"
    },
    {
      "name": "underwater",
      "type": "bool",
      "value": false
    },
    {
      "name": "inspectionOnly",
      "type": "bool",
      "value": true
    },
    {
      "name": "referenceReview",
      "type": "string",
      "value": "pending"
    }
  ]
}
