{
  "type": "map",
  "version": "1.10",
  "orientation": "orthogonal",
  "renderorder": "right-down",
  "width": 72,
  "height": 15,
  "tilewidth": 16,
  "tileheight": 16,
  "infinite": false,
  "nextlayerid": 4,
  "nextobjectid": 27,
  "tilesets": [],
  "layers": [
    {
      "id": 1,
      "name": "collision",
      "type": "objectgroup",
      "visible": true,
      "opacity": 1,
      "x": 0,
      "y": 0,
      "draworder": "index",
      "objects": [
        {
          "id": 1,
          "name": "r000",
          "type": "solid",
          "x": 0,
          "y": 32,
          "width": 32,
          "height": 208,
          "rotation": 0,
          "visible": true,
          "properties": [
            {
              "name": "sourceJson",
              "type": "string",
              "value": "{\"id\":\"r000\",\"x\":0,\"y\":32,\"w\":32,\"h\":208,\"collision\":\"solid\"}"
            }
          ]
        },
        {
          "id": 2,
          "name": "r001",
          "type": "solid",
          "x": 32,
          "y": 208,
          "width": 16,
          "height": 32,
          "rotation": 0,
          "visible": true,
          "properties": [
            {
              "name": "sourceJson",
              "type": "string",
              "value": "{\"id\":\"r001\",\"x\":32,\"y\":208,\"w\":16,\"h\":32,\"collision\":\"solid\"}"
            }
          ]
        },
        {
          "id": 3,
          "name": "r002",
          "type": "solid",
          "x": 48,
          "y": 176,
          "width": 32,
          "height": 64,
          "rotation": 0,
          "visible": true,
          "properties": [
            {
              "name": "sourceJson",
              "type": "string",
              "value": "{\"id\":\"r002\",\"x\":48,\"y\":176,\"w\":32,\"h\":64,\"collision\":\"solid\"}"
            }
          ]
        },
        {
          "id": 4,
          "name": "r003",
          "type": "solid",
          "x": 80,
          "y": 208,
          "width": 1072,
          "height": 32,
          "rotation": 0,
          "visible": true,
          "properties": [
            {
              "name": "sourceJson",
              "type": "string",
              "value": "{\"id\":\"r003\",\"x\":80,\"y\":208,\"w\":1072,\"h\":32,\"collision\":\"solid\"}"
            }
          ]
        },
        {
          "id": 5,
          "name": "r004",
          "type": "solid",
          "x": 96,
          "y": 160,
          "width": 80,
          "height": 48,
          "rotation": 0,
          "visible": true,
          "properties": [
            {
              "name": "sourceJson",
              "type": "string",
              "value": "{\"id\":\"r004\",\"x\":96,\"y\":160,\"w\":80,\"h\":48,\"collision\":\"solid\"}"
            }
          ]
        },
        {
          "id": 6,
          "name": "r005",
          "type": "solid",
          "x": 96,
          "y": 48,
          "width": 80,
          "height": 32,
          "rotation": 0,
          "visible": true,
          "properties": [
            {
              "name": "sourceJson",
              "type": "string",
              "value": "{\"id\":\"r005\",\"x\":96,\"y\":48,\"w\":80,\"h\":32,\"collision\":\"solid\"}"
            }
          ]
        },
        {
          "id": 7,
          "name": "r006",
          "type": "solid",
          "x": 96,
          "y": 32,
          "width": 1056,
          "height": 16,
          "rotation": 0,
          "visible": true,
          "properties": [
            {
              "name": "sourceJson",
              "type": "string",
              "value": "{\"id\":\"r006\",\"x\":96,\"y\":32,\"w\":1056,\"h\":16,\"collision\":\"solid\"}"
            }
          ]
        },
        {
          "id": 8,
          "name": "r007",
          "type": "solid",
          "x": 176,
          "y": 144,
          "width": 112,
          "height": 64,
          "rotation": 0,
          "visible": true,
          "properties": [
            {
              "name": "sourceJson",
              "type": "string",
              "value": "{\"id\":\"r007\",\"x\":176,\"y\":144,\"w\":112,\"h\":64,\"collision\":\"solid\"}"
            }
          ]
        },
        {
          "id": 9,
          "name": "r008",
          "type": "solid",
          "x": 176,
          "y": 48,
          "width": 112,
          "height": 48,
          "rotation": 0,
          "visible": true,
          "properties": [
            {
              "name": "sourceJson",
              "type": "string",
              "value": "{\"id\":\"r008\",\"x\":176,\"y\":48,\"w\":112,\"h\":48,\"collision\":\"solid\"}"
            }
          ]
        },
        {
          "id": 10,
          "name": "r012",
          "type": "solid",
          "x": 624,
          "y": 160,
          "width": 48,
          "height": 48,
          "rotation": 0,
          "visible": true,
          "properties": [
            {
              "name": "sourceJson",
              "type": "string",
              "value": "{\"id\":\"r012\",\"x\":624,\"y\":160,\"w\":48,\"h\":48,\"collision\":\"solid\"}"
            }
          ]
        },
        {
          "id": 11,
          "name": "r013",
          "type": "solid",
          "x": 624,
          "y": 48,
          "width": 48,
          "height": 48,
          "rotation": 0,
          "visible": true,
          "properties": [
            {
              "name": "sourceJson",
              "type": "string",
              "value": "{\"id\":\"r013\",\"x\":624,\"y\":48,\"w\":48,\"h\":48,\"collision\":\"solid\"}"
            }
          ]
        },
        {
          "id": 12,
          "name": "r019",
          "type": "solid",
          "x": 1072,
          "y": 144,
          "width": 80,
          "height": 64,
          "rotation": 0,
          "visible": true,
          "properties": [
            {
              "name": "sourceJson",
              "type": "string",
              "value": "{\"id\":\"r019\",\"x\":1072,\"y\":144,\"w\":80,\"h\":64,\"collision\":\"solid\"}"
            }
          ]
        },
        {
          "id": 13,
          "name": "r020",
          "type": "solid",
          "x": 1072,
          "y": 48,
          "width": 80,
          "height": 48,
          "rotation": 0,
          "visible": true,
          "properties": [
            {
              "name": "sourceJson",
              "type": "string",
              "value": "{\"id\":\"r020\",\"x\":1072,\"y\":48,\"w\":80,\"h\":48,\"collision\":\"solid\"}"
            }
          ]
        },
        {
          "id": 14,
          "name": "r021",
          "type": "solid",
          "x": 1088,
          "y": 112,
          "width": 39,
          "height": 32,
          "rotation": 0,
          "visible": true,
          "properties": [
            {
              "name": "sourceJson",
              "type": "string",
              "value": "{\"id\":\"r021\",\"x\":1088,\"y\":112,\"w\":39,\"h\":32,\"collision\":\"solid\"}"
            }
          ]
        },
        {
          "id": 15,
          "name": "r022",
          "type": "solid",
          "x": 1104,
          "y": 96,
          "width": 48,
          "height": 48,
          "rotation": 0,
          "visible": true,
          "properties": [
            {
              "name": "sourceJson",
              "type": "string",
              "value": "{\"id\":\"r022\",\"x\":1104,\"y\":96,\"w\":48,\"h\":48,\"collision\":\"solid\"}"
            }
          ]
        }
      ]
    },
    {
      "id": 2,
      "name": "objects",
      "type": "objectgroup",
      "visible": true,
      "opacity": 1,
      "x": 0,
      "y": 0,
      "draworder": "index",
      "objects": [
        {
          "id": 16,
          "name": "inspection-start",
          "type": "spawn",
          "x": 24,
          "y": 8,
          "width": 12,
          "height": 24,
          "rotation": 0,
          "visible": true,
          "properties": [
            {
              "name": "sourceJson",
              "type": "string",
              "value": "{\"id\":\"inspection-start\",\"kind\":\"spawn\",\"x\":24,\"y\":8,\"w\":12,\"h\":24}"
            }
          ]
        }
      ]
    },
    {
      "id": 3,
      "name": "pending-mechanics",
      "type": "objectgroup",
      "visible": true,
      "opacity": 1,
      "x": 0,
      "y": 0,
      "draworder": "index",
      "objects": [
        {
          "id": 17,
          "name": "r009",
          "type": "hidden-block",
          "x": 320,
          "y": 116,
          "width": 0,
          "height": 0,
          "rotation": 0,
          "visible": true,
          "point": true,
          "properties": [
            {
              "name": "sourceJson",
              "type": "string",
              "value": "{\"id\":\"r009\",\"kind\":\"hidden-block\",\"source\":{\"thing\":\"CastleBlock\",\"fireballs\":6,\"hidden\":true,\"x\":160,\"y\":46},\"sourcePath\":{\"area\":3,\"part\":\"base\",\"record\":\"r009\"},\"x\":320,\"y\":116}"
            }
          ]
        },
        {
          "id": 18,
          "name": "r010",
          "type": "enemy-blooper",
          "x": 448,
          "y": 176,
          "width": 0,
          "height": 0,
          "rotation": 0,
          "visible": true,
          "point": true,
          "properties": [
            {
              "name": "sourceJson",
              "type": "string",
              "value": "{\"id\":\"r010\",\"kind\":\"enemy-blooper\",\"source\":{\"thing\":\"Blooper\",\"x\":224,\"y\":16},\"sourcePath\":{\"area\":3,\"part\":\"base\",\"record\":\"r010\"},\"x\":448,\"y\":176}"
            }
          ]
        },
        {
          "id": 19,
          "name": "r011",
          "type": "hidden-block",
          "x": 496,
          "y": 164,
          "width": 0,
          "height": 0,
          "rotation": 0,
          "visible": true,
          "point": true,
          "properties": [
            {
              "name": "sourceJson",
              "type": "string",
              "value": "{\"id\":\"r011\",\"kind\":\"hidden-block\",\"source\":{\"thing\":\"CastleBlock\",\"fireballs\":6,\"hidden\":true,\"x\":248,\"y\":22},\"sourcePath\":{\"area\":3,\"part\":\"base\",\"record\":\"r011\"},\"x\":496,\"y\":164}"
            }
          ]
        },
        {
          "id": 20,
          "name": "r014",
          "type": "hidden-block",
          "x": 640,
          "y": 100,
          "width": 0,
          "height": 0,
          "rotation": 0,
          "visible": true,
          "point": true,
          "properties": [
            {
              "name": "sourceJson",
              "type": "string",
              "value": "{\"id\":\"r014\",\"kind\":\"hidden-block\",\"source\":{\"thing\":\"CastleBlock\",\"fireballs\":6,\"hidden\":true,\"x\":320,\"y\":54},\"sourcePath\":{\"area\":3,\"part\":\"base\",\"record\":\"r014\"},\"x\":640,\"y\":100}"
            }
          ]
        },
        {
          "id": 21,
          "name": "r015",
          "type": "enemy-blooper",
          "x": 816,
          "y": 160,
          "width": 0,
          "height": 0,
          "rotation": 0,
          "visible": true,
          "point": true,
          "properties": [
            {
              "name": "sourceJson",
              "type": "string",
              "value": "{\"id\":\"r015\",\"kind\":\"enemy-blooper\",\"source\":{\"thing\":\"Blooper\",\"x\":408,\"y\":24},\"sourcePath\":{\"area\":3,\"part\":\"base\",\"record\":\"r015\"},\"x\":816,\"y\":160}"
            }
          ]
        },
        {
          "id": 22,
          "name": "r016",
          "type": "enemy-blooper",
          "x": 848,
          "y": 96,
          "width": 0,
          "height": 0,
          "rotation": 0,
          "visible": true,
          "point": true,
          "properties": [
            {
              "name": "sourceJson",
              "type": "string",
              "value": "{\"id\":\"r016\",\"kind\":\"enemy-blooper\",\"source\":{\"thing\":\"Blooper\",\"x\":424,\"y\":56},\"sourcePath\":{\"area\":3,\"part\":\"base\",\"record\":\"r016\"},\"x\":848,\"y\":96}"
            }
          ]
        },
        {
          "id": 23,
          "name": "r017",
          "type": "hidden-block",
          "x": 892,
          "y": 132,
          "width": 0,
          "height": 0,
          "rotation": 0,
          "visible": true,
          "point": true,
          "properties": [
            {
              "name": "sourceJson",
              "type": "string",
              "value": "{\"id\":\"r017\",\"kind\":\"hidden-block\",\"source\":{\"thing\":\"CastleBlock\",\"fireballs\":6,\"hidden\":true,\"x\":446,\"y\":38},\"sourcePath\":{\"area\":3,\"part\":\"base\",\"record\":\"r017\"},\"x\":892,\"y\":132}"
            }
          ]
        },
        {
          "id": 24,
          "name": "r018",
          "type": "hidden-block",
          "x": 1024,
          "y": 120,
          "width": 0,
          "height": 0,
          "rotation": 0,
          "visible": true,
          "point": true,
          "properties": [
            {
              "name": "sourceJson",
              "type": "string",
              "value": "{\"id\":\"r018\",\"kind\":\"hidden-block\",\"source\":{\"thing\":\"CastleBlock\",\"fireballs\":6,\"hidden\":true,\"x\":512,\"y\":44},\"sourcePath\":{\"area\":3,\"part\":\"base\",\"record\":\"r018\"},\"x\":1024,\"y\":120}"
            }
          ]
        },
        {
          "id": 25,
          "name": "r021-transport",
          "type": "source-transport-not-simulated",
          "x": 1088,
          "y": 112,
          "width": 0,
          "height": 0,
          "rotation": 0,
          "visible": true,
          "point": true,
          "properties": [
            {
              "name": "sourceJson",
              "type": "string",
              "value": "{\"id\":\"r021-transport\",\"kind\":\"source-transport-not-simulated\",\"source\":{\"thing\":\"PipeHorizontal\",\"transport\":5,\"x\":544,\"y\":48},\"sourcePath\":{\"area\":3,\"part\":\"base\",\"record\":\"r021\"},\"x\":1088,\"y\":112}"
            }
          ]
        },
        {
          "id": 26,
          "name": "environment",
          "type": "underwater-physics",
          "x": 0,
          "y": 32,
          "width": 0,
          "height": 0,
          "rotation": 0,
          "visible": true,
          "point": true,
          "properties": [
            {
              "name": "sourceJson",
              "type": "string",
              "value": "{\"id\":\"environment\",\"kind\":\"underwater-physics\",\"source\":{\"x\":0,\"y\":88},\"sourcePath\":{\"area\":3,\"part\":\"base\",\"record\":\"environment\"},\"x\":0,\"y\":32}"
            }
          ]
        }
      ]
    }
  ],
  "properties": [
    {
      "name": "room",
      "type": "string",
      "value": "area-3"
    },
    {
      "name": "underwater",
      "type": "bool",
      "value": true
    },
    {
      "name": "inspectionOnly",
      "type": "bool",
      "value": true
    },
    {
      "name": "referenceReview",
      "type": "string",
      "value": "pending"
    }
  ]
}
