{
  "type": "map",
  "version": "1.10",
  "orientation": "orthogonal",
  "renderorder": "right-down",
  "width": 41,
  "height": 15,
  "tilewidth": 16,
  "tileheight": 16,
  "infinite": false,
  "nextlayerid": 4,
  "nextobjectid": 26,
  "tilesets": [],
  "layers": [
    {
      "id": 1,
      "name": "collision",
      "type": "objectgroup",
      "visible": true,
      "opacity": 1,
      "x": 0,
      "y": 0,
      "draworder": "index",
      "objects": [
        {
          "id": 1,
          "name": "r000",
          "type": "solid",
          "x": 0,
          "y": 32,
          "width": 656,
          "height": 16,
          "rotation": 0,
          "visible": true,
          "properties": [
            {
              "name": "sourceJson",
              "type": "string",
              "value": "{\"id\":\"r000\",\"x\":0,\"y\":32,\"w\":656,\"h\":16,\"collision\":\"solid\"}"
            }
          ]
        },
        {
          "id": 2,
          "name": "r001",
          "type": "solid",
          "x": 0,
          "y": 208,
          "width": 80,
          "height": 32,
          "rotation": 0,
          "visible": true,
          "properties": [
            {
              "name": "sourceJson",
              "type": "string",
              "value": "{\"id\":\"r001\",\"x\":0,\"y\":208,\"w\":80,\"h\":32,\"collision\":\"solid\"}"
            }
          ]
        },
        {
          "id": 3,
          "name": "r002",
          "type": "solid",
          "x": 80,
          "y": 160,
          "width": 32,
          "height": 80,
          "rotation": 0,
          "visible": true,
          "properties": [
            {
              "name": "sourceJson",
              "type": "string",
              "value": "{\"id\":\"r002\",\"x\":80,\"y\":160,\"w\":32,\"h\":80,\"collision\":\"solid\"}"
            }
          ]
        },
        {
          "id": 4,
          "name": "r003",
          "type": "solid",
          "x": 112,
          "y": 208,
          "width": 128,
          "height": 32,
          "rotation": 0,
          "visible": true,
          "properties": [
            {
              "name": "sourceJson",
              "type": "string",
              "value": "{\"id\":\"r003\",\"x\":112,\"y\":208,\"w\":128,\"h\":32,\"collision\":\"solid\"}"
            }
          ]
        },
        {
          "id": 5,
          "name": "r005",
          "type": "solid",
          "x": 240,
          "y": 176,
          "width": 32,
          "height": 64,
          "rotation": 0,
          "visible": true,
          "properties": [
            {
              "name": "sourceJson",
              "type": "string",
              "value": "{\"id\":\"r005\",\"x\":240,\"y\":176,\"w\":32,\"h\":64,\"collision\":\"solid\"}"
            }
          ]
        },
        {
          "id": 6,
          "name": "r006",
          "type": "solid",
          "x": 272,
          "y": 208,
          "width": 128,
          "height": 32,
          "rotation": 0,
          "visible": true,
          "properties": [
            {
              "name": "sourceJson",
              "type": "string",
              "value": "{\"id\":\"r006\",\"x\":272,\"y\":208,\"w\":128,\"h\":32,\"collision\":\"solid\"}"
            }
          ]
        },
        {
          "id": 7,
          "name": "r009",
          "type": "solid",
          "x": 400,
          "y": 160,
          "width": 32,
          "height": 80,
          "rotation": 0,
          "visible": true,
          "properties": [
            {
              "name": "sourceJson",
              "type": "string",
              "value": "{\"id\":\"r009\",\"x\":400,\"y\":160,\"w\":32,\"h\":80,\"collision\":\"solid\"}"
            }
          ]
        },
        {
          "id": 8,
          "name": "r011",
          "type": "solid",
          "x": 480,
          "y": 208,
          "width": 176,
          "height": 32,
          "rotation": 0,
          "visible": true,
          "properties": [
            {
              "name": "sourceJson",
              "type": "string",
              "value": "{\"id\":\"r011\",\"x\":480,\"y\":208,\"w\":176,\"h\":32,\"collision\":\"solid\"}"
            }
          ]
        },
        {
          "id": 9,
          "name": "r013",
          "type": "solid",
          "x": 560,
          "y": 144,
          "width": 32,
          "height": 16,
          "rotation": 0,
          "visible": true,
          "properties": [
            {
              "name": "sourceJson",
              "type": "string",
              "value": "{\"id\":\"r013\",\"x\":560,\"y\":144,\"w\":32,\"h\":16,\"collision\":\"solid\"}"
            }
          ]
        },
        {
          "id": 10,
          "name": "r014",
          "type": "solid",
          "x": 560,
          "y": 96,
          "width": 32,
          "height": 48,
          "rotation": 0,
          "visible": true,
          "properties": [
            {
              "name": "sourceJson",
              "type": "string",
              "value": "{\"id\":\"r014\",\"x\":560,\"y\":96,\"w\":32,\"h\":48,\"collision\":\"solid\"}"
            }
          ]
        }
      ]
    },
    {
      "id": 2,
      "name": "objects",
      "type": "objectgroup",
      "visible": true,
      "opacity": 1,
      "x": 0,
      "y": 0,
      "draworder": "index",
      "objects": [
        {
          "id": 11,
          "name": "inspection-start",
          "type": "spawn",
          "x": 24,
          "y": 184,
          "width": 12,
          "height": 24,
          "rotation": 0,
          "visible": true,
          "properties": [
            {
              "name": "sourceJson",
              "type": "string",
              "value": "{\"id\":\"inspection-start\",\"kind\":\"spawn\",\"x\":24,\"y\":184,\"w\":12,\"h\":24}"
            }
          ]
        }
      ]
    },
    {
      "id": 3,
      "name": "pending-mechanics",
      "type": "objectgroup",
      "visible": true,
      "opacity": 1,
      "x": 0,
      "y": 0,
      "draworder": "index",
      "objects": [
        {
          "id": 12,
          "name": "r002-plant",
          "type": "enemy-piranha",
          "x": 80,
          "y": 160,
          "width": 0,
          "height": 0,
          "rotation": 0,
          "visible": true,
          "point": true,
          "properties": [
            {
              "name": "sourceJson",
              "type": "string",
              "value": "{\"id\":\"r002-plant\",\"kind\":\"enemy-piranha\",\"source\":{\"macro\":\"Pipe\",\"height\":\"Infinity\",\"piranha\":true,\"x\":40,\"y\":24},\"sourcePath\":{\"area\":1,\"section\":0,\"part\":\"before\",\"record\":\"r002\"},\"x\":80,\"y\":160}"
            }
          ]
        },
        {
          "id": 13,
          "name": "r004-0-0",
          "type": "enemy-beetle",
          "x": 176,
          "y": 191,
          "width": 0,
          "height": 0,
          "rotation": 0,
          "visible": true,
          "point": true,
          "properties": [
            {
              "name": "sourceJson",
              "type": "string",
              "value": "{\"id\":\"r004-0-0\",\"kind\":\"enemy-beetle\",\"source\":{\"thing\":\"Beetle\",\"x\":88,\"y\":8.5},\"sourcePath\":{\"area\":1,\"section\":0,\"part\":\"before\",\"record\":\"r004\"},\"x\":176,\"y\":191}"
            }
          ]
        },
        {
          "id": 14,
          "name": "r004-1-0",
          "type": "enemy-beetle",
          "x": 208,
          "y": 191,
          "width": 0,
          "height": 0,
          "rotation": 0,
          "visible": true,
          "point": true,
          "properties": [
            {
              "name": "sourceJson",
              "type": "string",
              "value": "{\"id\":\"r004-1-0\",\"kind\":\"enemy-beetle\",\"source\":{\"thing\":\"Beetle\",\"x\":104,\"y\":8.5},\"sourcePath\":{\"area\":1,\"section\":0,\"part\":\"before\",\"record\":\"r004\"},\"x\":208,\"y\":191}"
            }
          ]
        },
        {
          "id": 15,
          "name": "r005-transport",
          "type": "source-transport-not-simulated",
          "x": 240,
          "y": 176,
          "width": 0,
          "height": 0,
          "rotation": 0,
          "visible": true,
          "point": true,
          "properties": [
            {
              "name": "sourceJson",
              "type": "string",
              "value": "{\"id\":\"r005-transport\",\"kind\":\"source-transport-not-simulated\",\"source\":{\"height\":\"Infinity\",\"piranha\":true,\"transport\":1,\"x\":120,\"y\":16,\"thing\":\"PipeVertical\",\"width\":16},\"sourcePath\":{\"area\":1,\"section\":0,\"part\":\"before\",\"record\":\"r005\"},\"x\":240,\"y\":176}"
            }
          ]
        },
        {
          "id": 16,
          "name": "r005-plant",
          "type": "enemy-piranha",
          "x": 240,
          "y": 176,
          "width": 0,
          "height": 0,
          "rotation": 0,
          "visible": true,
          "point": true,
          "properties": [
            {
              "name": "sourceJson",
              "type": "string",
              "value": "{\"id\":\"r005-plant\",\"kind\":\"enemy-piranha\",\"source\":{\"macro\":\"Pipe\",\"height\":\"Infinity\",\"piranha\":true,\"transport\":1,\"x\":120,\"y\":16},\"sourcePath\":{\"area\":1,\"section\":0,\"part\":\"before\",\"record\":\"r005\"},\"x\":240,\"y\":176}"
            }
          ]
        },
        {
          "id": 17,
          "name": "r007",
          "type": "enemy-koopa",
          "x": 352,
          "y": 144,
          "width": 0,
          "height": 0,
          "rotation": 0,
          "visible": true,
          "point": true,
          "properties": [
            {
              "name": "sourceJson",
              "type": "string",
              "value": "{\"id\":\"r007\",\"kind\":\"enemy-koopa\",\"source\":{\"thing\":\"Koopa\",\"jumping\":true,\"x\":176,\"y\":32},\"sourcePath\":{\"area\":1,\"section\":0,\"part\":\"before\",\"record\":\"r007\"},\"x\":352,\"y\":144}"
            }
          ]
        },
        {
          "id": 18,
          "name": "r008",
          "type": "enemy-koopa",
          "x": 384,
          "y": 160,
          "width": 0,
          "height": 0,
          "rotation": 0,
          "visible": true,
          "point": true,
          "properties": [
            {
              "name": "sourceJson",
              "type": "string",
              "value": "{\"id\":\"r008\",\"kind\":\"enemy-koopa\",\"source\":{\"thing\":\"Koopa\",\"jumping\":true,\"x\":192,\"y\":24},\"sourcePath\":{\"area\":1,\"section\":0,\"part\":\"before\",\"record\":\"r008\"},\"x\":384,\"y\":160}"
            }
          ]
        },
        {
          "id": 19,
          "name": "r009-plant",
          "type": "enemy-piranha",
          "x": 400,
          "y": 160,
          "width": 0,
          "height": 0,
          "rotation": 0,
          "visible": true,
          "point": true,
          "properties": [
            {
              "name": "sourceJson",
              "type": "string",
              "value": "{\"id\":\"r009-plant\",\"kind\":\"enemy-piranha\",\"source\":{\"macro\":\"Pipe\",\"height\":\"Infinity\",\"piranha\":true,\"x\":200,\"y\":24},\"sourcePath\":{\"area\":1,\"section\":0,\"part\":\"before\",\"record\":\"r009\"},\"x\":400,\"y\":160}"
            }
          ]
        },
        {
          "id": 20,
          "name": "r010",
          "type": "lava-volume",
          "x": 432,
          "y": 208,
          "width": 0,
          "height": 0,
          "rotation": 0,
          "visible": true,
          "point": true,
          "properties": [
            {
              "name": "sourceJson",
              "type": "string",
              "value": "{\"id\":\"r010\",\"kind\":\"lava-volume\",\"source\":{\"macro\":\"Water\",\"width\":24,\"x\":216,\"y\":0},\"sourcePath\":{\"area\":1,\"section\":0,\"part\":\"before\",\"record\":\"r010\"},\"x\":432,\"y\":208}"
            }
          ]
        },
        {
          "id": 21,
          "name": "r012",
          "type": "hidden-block",
          "x": 528,
          "y": 144,
          "width": 0,
          "height": 0,
          "rotation": 0,
          "visible": true,
          "point": true,
          "properties": [
            {
              "name": "sourceJson",
              "type": "string",
              "value": "{\"id\":\"r012\",\"kind\":\"hidden-block\",\"source\":{\"thing\":\"Block\",\"hidden\":true,\"x\":264,\"y\":32},\"sourcePath\":{\"area\":1,\"section\":0,\"part\":\"before\",\"record\":\"r012\"},\"x\":528,\"y\":144}"
            }
          ]
        },
        {
          "id": 22,
          "name": "r014-transport",
          "type": "source-transport-not-simulated",
          "x": 560,
          "y": 96,
          "width": 0,
          "height": 0,
          "rotation": 0,
          "visible": true,
          "point": true,
          "properties": [
            {
              "name": "sourceJson",
              "type": "string",
              "value": "{\"id\":\"r014-transport\",\"kind\":\"source-transport-not-simulated\",\"source\":{\"height\":24,\"transport\":3,\"x\":280,\"y\":56,\"thing\":\"PipeVertical\",\"width\":16},\"sourcePath\":{\"area\":1,\"section\":0,\"part\":\"before\",\"record\":\"r014\"},\"x\":560,\"y\":96}"
            }
          ]
        },
        {
          "id": 23,
          "name": "r015",
          "type": "enemy-koopa",
          "x": 608,
          "y": 152,
          "width": 0,
          "height": 0,
          "rotation": 0,
          "visible": true,
          "point": true,
          "properties": [
            {
              "name": "sourceJson",
              "type": "string",
              "value": "{\"id\":\"r015\",\"kind\":\"enemy-koopa\",\"source\":{\"thing\":\"Koopa\",\"jumping\":true,\"x\":304,\"y\":28},\"sourcePath\":{\"area\":1,\"section\":0,\"part\":\"before\",\"record\":\"r015\"},\"x\":608,\"y\":152}"
            }
          ]
        },
        {
          "id": 24,
          "name": "r016",
          "type": "enemy-koopa",
          "x": 640,
          "y": 136,
          "width": 0,
          "height": 0,
          "rotation": 0,
          "visible": true,
          "point": true,
          "properties": [
            {
              "name": "sourceJson",
              "type": "string",
              "value": "{\"id\":\"r016\",\"kind\":\"enemy-koopa\",\"source\":{\"thing\":\"Koopa\",\"jumping\":true,\"x\":320,\"y\":36},\"sourcePath\":{\"area\":1,\"section\":0,\"part\":\"before\",\"record\":\"r016\"},\"x\":640,\"y\":136}"
            }
          ]
        },
        {
          "id": 25,
          "name": "section-mode",
          "type": "conditional-section-runtime",
          "x": 0,
          "y": 32,
          "width": 0,
          "height": 0,
          "rotation": 0,
          "visible": true,
          "point": true,
          "properties": [
            {
              "name": "sourceJson",
              "type": "string",
              "value": "{\"id\":\"section-mode\",\"kind\":\"conditional-section-runtime\",\"source\":{\"x\":0,\"y\":88},\"sourcePath\":{\"area\":1,\"section\":0,\"part\":\"before\",\"record\":\"section\"},\"x\":0,\"y\":32}"
            }
          ]
        }
      ]
    }
  ],
  "properties": [
    {
      "name": "room",
      "type": "string",
      "value": "area-1-section-0-before"
    },
    {
      "name": "underwater",
      "type": "bool",
      "value": false
    },
    {
      "name": "inspectionOnly",
      "type": "bool",
      "value": true
    },
    {
      "name": "referenceReview",
      "type": "string",
      "value": "pending"
    }
  ]
}
