{
  "type": "map",
  "version": "1.10",
  "orientation": "orthogonal",
  "renderorder": "right-down",
  "width": 53,
  "height": 15,
  "tilewidth": 16,
  "tileheight": 16,
  "infinite": false,
  "nextlayerid": 4,
  "nextobjectid": 25,
  "tilesets": [],
  "layers": [
    {
      "id": 1,
      "name": "collision",
      "type": "objectgroup",
      "visible": true,
      "opacity": 1,
      "x": 0,
      "y": 0,
      "draworder": "index",
      "objects": [
        {
          "id": 1,
          "name": "r000",
          "type": "solid",
          "x": 0,
          "y": 176,
          "width": 32,
          "height": 64,
          "rotation": 0,
          "visible": true,
          "properties": [
            {
              "name": "sourceJson",
              "type": "string",
              "value": "{\"id\":\"r000\",\"x\":0,\"y\":176,\"w\":32,\"h\":64,\"collision\":\"solid\"}"
            }
          ]
        },
        {
          "id": 2,
          "name": "r001",
          "type": "solid",
          "x": 0,
          "y": 32,
          "width": 848,
          "height": 16,
          "rotation": 0,
          "visible": true,
          "properties": [
            {
              "name": "sourceJson",
              "type": "string",
              "value": "{\"id\":\"r001\",\"x\":0,\"y\":32,\"w\":848,\"h\":16,\"collision\":\"solid\"}"
            }
          ]
        },
        {
          "id": 3,
          "name": "r002",
          "type": "solid",
          "x": 32,
          "y": 208,
          "width": 144,
          "height": 32,
          "rotation": 0,
          "visible": true,
          "properties": [
            {
              "name": "sourceJson",
              "type": "string",
              "value": "{\"id\":\"r002\",\"x\":32,\"y\":208,\"w\":144,\"h\":32,\"collision\":\"solid\"}"
            }
          ]
        },
        {
          "id": 4,
          "name": "r004",
          "type": "solid",
          "x": 176,
          "y": 160,
          "width": 64,
          "height": 80,
          "rotation": 0,
          "visible": true,
          "properties": [
            {
              "name": "sourceJson",
              "type": "string",
              "value": "{\"id\":\"r004\",\"x\":176,\"y\":160,\"w\":64,\"h\":80,\"collision\":\"solid\"}"
            }
          ]
        },
        {
          "id": 5,
          "name": "r006",
          "type": "oneway",
          "x": 304,
          "y": 208,
          "width": 32,
          "height": 8,
          "rotation": 0,
          "visible": true,
          "properties": [
            {
              "name": "sourceJson",
              "type": "string",
              "value": "{\"id\":\"r006\",\"x\":304,\"y\":208,\"w\":32,\"h\":8,\"collision\":\"oneway\",\"motion\":{\"axis\":\"x\",\"min\":280,\"max\":464,\"speed\":0.75}}"
            }
          ]
        },
        {
          "id": 6,
          "name": "r007",
          "type": "solid",
          "x": 512,
          "y": 160,
          "width": 96,
          "height": 80,
          "rotation": 0,
          "visible": true,
          "properties": [
            {
              "name": "sourceJson",
              "type": "string",
              "value": "{\"id\":\"r007\",\"x\":512,\"y\":160,\"w\":96,\"h\":80,\"collision\":\"solid\"}"
            }
          ]
        },
        {
          "id": 7,
          "name": "r008",
          "type": "solid",
          "x": 528,
          "y": 96,
          "width": 64,
          "height": 16,
          "rotation": 0,
          "visible": true,
          "properties": [
            {
              "name": "sourceJson",
              "type": "string",
              "value": "{\"id\":\"r008\",\"x\":528,\"y\":96,\"w\":64,\"h\":16,\"collision\":\"solid\"}"
            }
          ]
        },
        {
          "id": 8,
          "name": "r009",
          "type": "solid",
          "x": 608,
          "y": 128,
          "width": 32,
          "height": 112,
          "rotation": 0,
          "visible": true,
          "properties": [
            {
              "name": "sourceJson",
              "type": "string",
              "value": "{\"id\":\"r009\",\"x\":608,\"y\":128,\"w\":32,\"h\":112,\"collision\":\"solid\"}"
            }
          ]
        },
        {
          "id": 9,
          "name": "r010",
          "type": "solid",
          "x": 640,
          "y": 160,
          "width": 112,
          "height": 80,
          "rotation": 0,
          "visible": true,
          "properties": [
            {
              "name": "sourceJson",
              "type": "string",
              "value": "{\"id\":\"r010\",\"x\":640,\"y\":160,\"w\":112,\"h\":80,\"collision\":\"solid\"}"
            }
          ]
        },
        {
          "id": 10,
          "name": "r011",
          "type": "solid",
          "x": 752,
          "y": 112,
          "width": 32,
          "height": 128,
          "rotation": 0,
          "visible": true,
          "properties": [
            {
              "name": "sourceJson",
              "type": "string",
              "value": "{\"id\":\"r011\",\"x\":752,\"y\":112,\"w\":32,\"h\":128,\"collision\":\"solid\"}"
            }
          ]
        },
        {
          "id": 11,
          "name": "r012",
          "type": "solid",
          "x": 784,
          "y": 160,
          "width": 64,
          "height": 80,
          "rotation": 0,
          "visible": true,
          "properties": [
            {
              "name": "sourceJson",
              "type": "string",
              "value": "{\"id\":\"r012\",\"x\":784,\"y\":160,\"w\":64,\"h\":80,\"collision\":\"solid\"}"
            }
          ]
        }
      ]
    },
    {
      "id": 2,
      "name": "objects",
      "type": "objectgroup",
      "visible": true,
      "opacity": 1,
      "x": 0,
      "y": 0,
      "draworder": "index",
      "objects": [
        {
          "id": 12,
          "name": "inspection-start",
          "type": "spawn",
          "x": 24,
          "y": 152,
          "width": 12,
          "height": 24,
          "rotation": 0,
          "visible": true,
          "properties": [
            {
              "name": "sourceJson",
              "type": "string",
              "value": "{\"id\":\"inspection-start\",\"kind\":\"spawn\",\"x\":24,\"y\":152,\"w\":12,\"h\":24}"
            }
          ]
        }
      ]
    },
    {
      "id": 3,
      "name": "pending-mechanics",
      "type": "objectgroup",
      "visible": true,
      "opacity": 1,
      "x": 0,
      "y": 0,
      "draworder": "index",
      "objects": [
        {
          "id": 13,
          "name": "r000-transport",
          "type": "source-transport-not-simulated",
          "x": 0,
          "y": 176,
          "width": 0,
          "height": 0,
          "rotation": 0,
          "visible": true,
          "point": true,
          "properties": [
            {
              "name": "sourceJson",
              "type": "string",
              "value": "{\"id\":\"r000-transport\",\"kind\":\"source-transport-not-simulated\",\"source\":{\"height\":\"Infinity\",\"piranha\":true,\"transport\":1,\"x\":0,\"y\":16,\"thing\":\"PipeVertical\",\"width\":16},\"sourcePath\":{\"area\":0,\"section\":0,\"part\":\"after\",\"record\":\"r000\"},\"x\":0,\"y\":176}"
            }
          ]
        },
        {
          "id": 14,
          "name": "r000-plant",
          "type": "enemy-piranha",
          "x": 0,
          "y": 176,
          "width": 0,
          "height": 0,
          "rotation": 0,
          "visible": true,
          "point": true,
          "properties": [
            {
              "name": "sourceJson",
              "type": "string",
              "value": "{\"id\":\"r000-plant\",\"kind\":\"enemy-piranha\",\"source\":{\"macro\":\"Pipe\",\"height\":\"Infinity\",\"piranha\":true,\"transport\":1,\"x\":0,\"y\":16},\"sourcePath\":{\"area\":0,\"section\":0,\"part\":\"after\",\"record\":\"r000\"},\"x\":0,\"y\":176}"
            }
          ]
        },
        {
          "id": 15,
          "name": "r003-0-0",
          "type": "enemy-goomba",
          "x": 72,
          "y": 192,
          "width": 0,
          "height": 0,
          "rotation": 0,
          "visible": true,
          "point": true,
          "properties": [
            {
              "name": "sourceJson",
              "type": "string",
              "value": "{\"id\":\"r003-0-0\",\"kind\":\"enemy-goomba\",\"source\":{\"thing\":\"Goomba\",\"x\":36,\"y\":8},\"sourcePath\":{\"area\":0,\"section\":0,\"part\":\"after\",\"record\":\"r003\"},\"x\":72,\"y\":192}"
            }
          ]
        },
        {
          "id": 16,
          "name": "r003-1-0",
          "type": "enemy-goomba",
          "x": 96,
          "y": 192,
          "width": 0,
          "height": 0,
          "rotation": 0,
          "visible": true,
          "point": true,
          "properties": [
            {
              "name": "sourceJson",
              "type": "string",
              "value": "{\"id\":\"r003-1-0\",\"kind\":\"enemy-goomba\",\"source\":{\"thing\":\"Goomba\",\"x\":48,\"y\":8},\"sourcePath\":{\"area\":0,\"section\":0,\"part\":\"after\",\"record\":\"r003\"},\"x\":96,\"y\":192}"
            }
          ]
        },
        {
          "id": 17,
          "name": "r003-2-0",
          "type": "enemy-goomba",
          "x": 120,
          "y": 192,
          "width": 0,
          "height": 0,
          "rotation": 0,
          "visible": true,
          "point": true,
          "properties": [
            {
              "name": "sourceJson",
              "type": "string",
              "value": "{\"id\":\"r003-2-0\",\"kind\":\"enemy-goomba\",\"source\":{\"thing\":\"Goomba\",\"x\":60,\"y\":8},\"sourcePath\":{\"area\":0,\"section\":0,\"part\":\"after\",\"record\":\"r003\"},\"x\":120,\"y\":192}"
            }
          ]
        },
        {
          "id": 18,
          "name": "r005",
          "type": "lava-volume",
          "x": 240,
          "y": 208,
          "width": 0,
          "height": 0,
          "rotation": 0,
          "visible": true,
          "point": true,
          "properties": [
            {
              "name": "sourceJson",
              "type": "string",
              "value": "{\"id\":\"r005\",\"kind\":\"lava-volume\",\"source\":{\"macro\":\"Water\",\"width\":136,\"x\":120,\"y\":0},\"sourcePath\":{\"area\":0,\"section\":0,\"part\":\"after\",\"record\":\"r005\"},\"x\":240,\"y\":208}"
            }
          ]
        },
        {
          "id": 19,
          "name": "r006-timing",
          "type": "platform-timing",
          "x": 304,
          "y": 208,
          "width": 0,
          "height": 0,
          "rotation": 0,
          "visible": true,
          "point": true,
          "properties": [
            {
              "name": "sourceJson",
              "type": "string",
              "value": "{\"id\":\"r006-timing\",\"kind\":\"platform-timing\",\"source\":{\"thing\":\"Platform\",\"width\":16,\"sliding\":true,\"begin\":140,\"end\":232,\"speed\":2,\"x\":152,\"y\":0},\"sourcePath\":{\"area\":0,\"section\":0,\"part\":\"after\",\"record\":\"r006\"},\"x\":304,\"y\":208}"
            }
          ]
        },
        {
          "id": 20,
          "name": "r009-transport",
          "type": "source-transport-not-simulated",
          "x": 608,
          "y": 128,
          "width": 0,
          "height": 0,
          "rotation": 0,
          "visible": true,
          "point": true,
          "properties": [
            {
              "name": "sourceJson",
              "type": "string",
              "value": "{\"id\":\"r009-transport\",\"kind\":\"source-transport-not-simulated\",\"source\":{\"height\":\"Infinity\",\"piranha\":true,\"transport\":2,\"x\":304,\"y\":40,\"thing\":\"PipeVertical\",\"width\":16},\"sourcePath\":{\"area\":0,\"section\":0,\"part\":\"after\",\"record\":\"r009\"},\"x\":608,\"y\":128}"
            }
          ]
        },
        {
          "id": 21,
          "name": "r009-plant",
          "type": "enemy-piranha",
          "x": 608,
          "y": 128,
          "width": 0,
          "height": 0,
          "rotation": 0,
          "visible": true,
          "point": true,
          "properties": [
            {
              "name": "sourceJson",
              "type": "string",
              "value": "{\"id\":\"r009-plant\",\"kind\":\"enemy-piranha\",\"source\":{\"macro\":\"Pipe\",\"height\":\"Infinity\",\"piranha\":true,\"transport\":2,\"x\":304,\"y\":40},\"sourcePath\":{\"area\":0,\"section\":0,\"part\":\"after\",\"record\":\"r009\"},\"x\":608,\"y\":128}"
            }
          ]
        },
        {
          "id": 22,
          "name": "r011-plant",
          "type": "enemy-piranha",
          "x": 752,
          "y": 112,
          "width": 0,
          "height": 0,
          "rotation": 0,
          "visible": true,
          "point": true,
          "properties": [
            {
              "name": "sourceJson",
              "type": "string",
              "value": "{\"id\":\"r011-plant\",\"kind\":\"enemy-piranha\",\"source\":{\"macro\":\"Pipe\",\"height\":\"Infinity\",\"piranha\":true,\"x\":376,\"y\":48},\"sourcePath\":{\"area\":0,\"section\":0,\"part\":\"after\",\"record\":\"r011\"},\"x\":752,\"y\":112}"
            }
          ]
        },
        {
          "id": 23,
          "name": "r013",
          "type": "conditional-section",
          "x": 848,
          "y": 208,
          "width": 0,
          "height": 0,
          "rotation": 0,
          "visible": true,
          "point": true,
          "properties": [
            {
              "name": "sourceJson",
              "type": "string",
              "value": "{\"id\":\"r013\",\"kind\":\"conditional-section\",\"source\":{\"macro\":\"Section\",\"x\":424,\"y\":0},\"sourcePath\":{\"area\":0,\"section\":0,\"part\":\"after\",\"record\":\"r013\"},\"x\":848,\"y\":208}"
            }
          ]
        },
        {
          "id": 24,
          "name": "section-mode",
          "type": "conditional-section-runtime",
          "x": 0,
          "y": 32,
          "width": 0,
          "height": 0,
          "rotation": 0,
          "visible": true,
          "point": true,
          "properties": [
            {
              "name": "sourceJson",
              "type": "string",
              "value": "{\"id\":\"section-mode\",\"kind\":\"conditional-section-runtime\",\"source\":{\"x\":0,\"y\":88},\"sourcePath\":{\"area\":0,\"section\":0,\"part\":\"after\",\"record\":\"section\"},\"x\":0,\"y\":32}"
            }
          ]
        }
      ]
    }
  ],
  "properties": [
    {
      "name": "room",
      "type": "string",
      "value": "area-0-section-0-after"
    },
    {
      "name": "underwater",
      "type": "bool",
      "value": false
    },
    {
      "name": "inspectionOnly",
      "type": "bool",
      "value": true
    },
    {
      "name": "referenceReview",
      "type": "string",
      "value": "pending"
    }
  ]
}
