{
  "type": "map",
  "version": "1.10",
  "orientation": "orthogonal",
  "renderorder": "right-down",
  "width": 262,
  "height": 15,
  "tilewidth": 16,
  "tileheight": 16,
  "infinite": false,
  "nextlayerid": 4,
  "nextobjectid": 126,
  "tilesets": [],
  "layers": [
    {
      "id": 1,
      "name": "collision",
      "type": "objectgroup",
      "visible": true,
      "opacity": 1,
      "x": 0,
      "y": 0,
      "draworder": "index",
      "objects": [
        {
          "id": 1,
          "name": "r000-0",
          "type": "solid",
          "x": 0,
          "y": 112,
          "width": 48,
          "height": 128,
          "rotation": 0,
          "visible": true,
          "properties": [
            {
              "name": "sourceJson",
              "type": "string",
              "value": "{\"id\":\"r000-0\",\"x\":0,\"y\":112,\"w\":48,\"h\":128,\"collision\":\"solid\"}"
            }
          ]
        },
        {
          "id": 2,
          "name": "r000-24",
          "type": "solid",
          "x": 48,
          "y": 128,
          "width": 16,
          "height": 112,
          "rotation": 0,
          "visible": true,
          "properties": [
            {
              "name": "sourceJson",
              "type": "string",
              "value": "{\"id\":\"r000-24\",\"x\":48,\"y\":128,\"w\":16,\"h\":112,\"collision\":\"solid\"}"
            }
          ]
        },
        {
          "id": 3,
          "name": "r000-32",
          "type": "solid",
          "x": 64,
          "y": 144,
          "width": 16,
          "height": 96,
          "rotation": 0,
          "visible": true,
          "properties": [
            {
              "name": "sourceJson",
              "type": "string",
              "value": "{\"id\":\"r000-32\",\"x\":64,\"y\":144,\"w\":16,\"h\":96,\"collision\":\"solid\"}"
            }
          ]
        },
        {
          "id": 4,
          "name": "r001",
          "type": "solid",
          "x": 0,
          "y": 32,
          "width": 256,
          "height": 48,
          "rotation": 0,
          "visible": true,
          "properties": [
            {
              "name": "sourceJson",
              "type": "string",
              "value": "{\"id\":\"r001\",\"x\":0,\"y\":32,\"w\":256,\"h\":48,\"collision\":\"solid\"}"
            }
          ]
        },
        {
          "id": 5,
          "name": "r002",
          "type": "solid",
          "x": 80,
          "y": 160,
          "width": 176,
          "height": 80,
          "rotation": 0,
          "visible": true,
          "properties": [
            {
              "name": "sourceJson",
              "type": "string",
              "value": "{\"id\":\"r002\",\"x\":80,\"y\":160,\"w\":176,\"h\":80,\"collision\":\"solid\"}"
            }
          ]
        },
        {
          "id": 6,
          "name": "r004",
          "type": "solid",
          "x": 256,
          "y": 32,
          "width": 256,
          "height": 16,
          "rotation": 0,
          "visible": true,
          "properties": [
            {
              "name": "sourceJson",
              "type": "string",
              "value": "{\"id\":\"r004\",\"x\":256,\"y\":32,\"w\":256,\"h\":16,\"collision\":\"solid\"}"
            }
          ]
        },
        {
          "id": 7,
          "name": "r005",
          "type": "oneway",
          "x": 288,
          "y": 112,
          "width": 32,
          "height": 8,
          "rotation": 0,
          "visible": true,
          "properties": [
            {
              "name": "sourceJson",
              "type": "string",
              "value": "{\"id\":\"r005\",\"x\":288,\"y\":112,\"w\":32,\"h\":8,\"collision\":\"oneway\"}"
            }
          ]
        },
        {
          "id": 8,
          "name": "r007",
          "type": "oneway",
          "x": 352,
          "y": 128,
          "width": 32,
          "height": 8,
          "rotation": 0,
          "visible": true,
          "properties": [
            {
              "name": "sourceJson",
              "type": "string",
              "value": "{\"id\":\"r007\",\"x\":352,\"y\":128,\"w\":32,\"h\":8,\"collision\":\"oneway\"}"
            }
          ]
        },
        {
          "id": 9,
          "name": "r008",
          "type": "solid",
          "x": 432,
          "y": 160,
          "width": 80,
          "height": 80,
          "rotation": 0,
          "visible": true,
          "properties": [
            {
              "name": "sourceJson",
              "type": "string",
              "value": "{\"id\":\"r008\",\"x\":432,\"y\":160,\"w\":80,\"h\":80,\"collision\":\"solid\"}"
            }
          ]
        },
        {
          "id": 10,
          "name": "r009",
          "type": "solid",
          "x": 448,
          "y": 48,
          "width": 64,
          "height": 32,
          "rotation": 0,
          "visible": true,
          "properties": [
            {
              "name": "sourceJson",
              "type": "string",
              "value": "{\"id\":\"r009\",\"x\":448,\"y\":48,\"w\":64,\"h\":32,\"collision\":\"solid\"}"
            }
          ]
        },
        {
          "id": 11,
          "name": "r011",
          "type": "solid",
          "x": 512,
          "y": 208,
          "width": 96,
          "height": 32,
          "rotation": 0,
          "visible": true,
          "properties": [
            {
              "name": "sourceJson",
              "type": "string",
              "value": "{\"id\":\"r011\",\"x\":512,\"y\":208,\"w\":96,\"h\":32,\"collision\":\"solid\"}"
            }
          ]
        },
        {
          "id": 12,
          "name": "r012",
          "type": "solid",
          "x": 512,
          "y": 32,
          "width": 96,
          "height": 16,
          "rotation": 0,
          "visible": true,
          "properties": [
            {
              "name": "sourceJson",
              "type": "string",
              "value": "{\"id\":\"r012\",\"x\":512,\"y\":32,\"w\":96,\"h\":16,\"collision\":\"solid\"}"
            }
          ]
        },
        {
          "id": 13,
          "name": "r013",
          "type": "solid",
          "x": 544,
          "y": 144,
          "width": 64,
          "height": 16,
          "rotation": 0,
          "visible": true,
          "properties": [
            {
              "name": "sourceJson",
              "type": "string",
              "value": "{\"id\":\"r013\",\"x\":544,\"y\":144,\"w\":64,\"h\":16,\"collision\":\"solid\"}"
            }
          ]
        },
        {
          "id": 14,
          "name": "r014",
          "type": "solid",
          "x": 576,
          "y": 128,
          "width": 32,
          "height": 16,
          "rotation": 0,
          "visible": true,
          "properties": [
            {
              "name": "sourceJson",
              "type": "string",
              "value": "{\"id\":\"r014\",\"x\":576,\"y\":128,\"w\":32,\"h\":16,\"collision\":\"solid\"}"
            }
          ]
        },
        {
          "id": 15,
          "name": "r015",
          "type": "solid",
          "x": 592,
          "y": 112,
          "width": 16,
          "height": 16,
          "rotation": 0,
          "visible": true,
          "properties": [
            {
              "name": "sourceJson",
              "type": "string",
              "value": "{\"id\":\"r015\",\"x\":592,\"y\":112,\"w\":16,\"h\":16,\"collision\":\"solid\"}"
            }
          ]
        },
        {
          "id": 16,
          "name": "r016",
          "type": "solid",
          "x": 608,
          "y": 208,
          "width": 256,
          "height": 32,
          "rotation": 0,
          "visible": true,
          "properties": [
            {
              "name": "sourceJson",
              "type": "string",
              "value": "{\"id\":\"r016\",\"x\":608,\"y\":208,\"w\":256,\"h\":32,\"collision\":\"solid\"}"
            }
          ]
        },
        {
          "id": 17,
          "name": "r018",
          "type": "solid",
          "x": 608,
          "y": 96,
          "width": 256,
          "height": 64,
          "rotation": 0,
          "visible": true,
          "properties": [
            {
              "name": "sourceJson",
              "type": "string",
              "value": "{\"id\":\"r018\",\"x\":608,\"y\":96,\"w\":256,\"h\":64,\"collision\":\"solid\"}"
            }
          ]
        },
        {
          "id": 18,
          "name": "r020",
          "type": "solid",
          "x": 608,
          "y": 32,
          "width": 256,
          "height": 16,
          "rotation": 0,
          "visible": true,
          "properties": [
            {
              "name": "sourceJson",
              "type": "string",
              "value": "{\"id\":\"r020\",\"x\":608,\"y\":32,\"w\":256,\"h\":16,\"collision\":\"solid\"}"
            }
          ]
        },
        {
          "id": 19,
          "name": "r021",
          "type": "solid",
          "x": 864,
          "y": 208,
          "width": 48,
          "height": 32,
          "rotation": 0,
          "visible": true,
          "properties": [
            {
              "name": "sourceJson",
              "type": "string",
              "value": "{\"id\":\"r021\",\"x\":864,\"y\":208,\"w\":48,\"h\":32,\"collision\":\"solid\"}"
            }
          ]
        },
        {
          "id": 20,
          "name": "r022",
          "type": "solid",
          "x": 864,
          "y": 32,
          "width": 48,
          "height": 16,
          "rotation": 0,
          "visible": true,
          "properties": [
            {
              "name": "sourceJson",
              "type": "string",
              "value": "{\"id\":\"r022\",\"x\":864,\"y\":32,\"w\":48,\"h\":16,\"collision\":\"solid\"}"
            }
          ]
        },
        {
          "id": 21,
          "name": "r024",
          "type": "solid",
          "x": 912,
          "y": 208,
          "width": 16,
          "height": 32,
          "rotation": 0,
          "visible": true,
          "properties": [
            {
              "name": "sourceJson",
              "type": "string",
              "value": "{\"id\":\"r024\",\"x\":912,\"y\":208,\"w\":16,\"h\":32,\"collision\":\"solid\"}"
            }
          ]
        },
        {
          "id": 22,
          "name": "r025",
          "type": "solid",
          "x": 912,
          "y": 160,
          "width": 16,
          "height": 16,
          "rotation": 0,
          "visible": true,
          "properties": [
            {
              "name": "sourceJson",
              "type": "string",
              "value": "{\"id\":\"r025\",\"x\":912,\"y\":160,\"w\":16,\"h\":16,\"collision\":\"solid\"}"
            }
          ]
        },
        {
          "id": 23,
          "name": "r026",
          "type": "solid",
          "x": 912,
          "y": 32,
          "width": 16,
          "height": 16,
          "rotation": 0,
          "visible": true,
          "properties": [
            {
              "name": "sourceJson",
              "type": "string",
              "value": "{\"id\":\"r026\",\"x\":912,\"y\":32,\"w\":16,\"h\":16,\"collision\":\"solid\"}"
            }
          ]
        },
        {
          "id": 24,
          "name": "r027",
          "type": "solid",
          "x": 928,
          "y": 208,
          "width": 256,
          "height": 32,
          "rotation": 0,
          "visible": true,
          "properties": [
            {
              "name": "sourceJson",
              "type": "string",
              "value": "{\"id\":\"r027\",\"x\":928,\"y\":208,\"w\":256,\"h\":32,\"collision\":\"solid\"}"
            }
          ]
        },
        {
          "id": 25,
          "name": "r029",
          "type": "solid",
          "x": 928,
          "y": 160,
          "width": 256,
          "height": 16,
          "rotation": 0,
          "visible": true,
          "properties": [
            {
              "name": "sourceJson",
              "type": "string",
              "value": "{\"id\":\"r029\",\"x\":928,\"y\":160,\"w\":256,\"h\":16,\"collision\":\"solid\"}"
            }
          ]
        },
        {
          "id": 26,
          "name": "r031",
          "type": "solid",
          "x": 928,
          "y": 96,
          "width": 256,
          "height": 16,
          "rotation": 0,
          "visible": true,
          "properties": [
            {
              "name": "sourceJson",
              "type": "string",
              "value": "{\"id\":\"r031\",\"x\":928,\"y\":96,\"w\":256,\"h\":16,\"collision\":\"solid\"}"
            }
          ]
        },
        {
          "id": 27,
          "name": "r033",
          "type": "solid",
          "x": 928,
          "y": 32,
          "width": 256,
          "height": 16,
          "rotation": 0,
          "visible": true,
          "properties": [
            {
              "name": "sourceJson",
              "type": "string",
              "value": "{\"id\":\"r033\",\"x\":928,\"y\":32,\"w\":256,\"h\":16,\"collision\":\"solid\"}"
            }
          ]
        },
        {
          "id": 28,
          "name": "r034",
          "type": "solid",
          "x": 1184,
          "y": 208,
          "width": 64,
          "height": 32,
          "rotation": 0,
          "visible": true,
          "properties": [
            {
              "name": "sourceJson",
              "type": "string",
              "value": "{\"id\":\"r034\",\"x\":1184,\"y\":208,\"w\":64,\"h\":32,\"collision\":\"solid\"}"
            }
          ]
        },
        {
          "id": 29,
          "name": "r035",
          "type": "solid",
          "x": 1184,
          "y": 160,
          "width": 16,
          "height": 16,
          "rotation": 0,
          "visible": true,
          "properties": [
            {
              "name": "sourceJson",
              "type": "string",
              "value": "{\"id\":\"r035\",\"x\":1184,\"y\":160,\"w\":16,\"h\":16,\"collision\":\"solid\"}"
            }
          ]
        },
        {
          "id": 30,
          "name": "r036",
          "type": "solid",
          "x": 1184,
          "y": 32,
          "width": 64,
          "height": 16,
          "rotation": 0,
          "visible": true,
          "properties": [
            {
              "name": "sourceJson",
              "type": "string",
              "value": "{\"id\":\"r036\",\"x\":1184,\"y\":32,\"w\":64,\"h\":16,\"collision\":\"solid\"}"
            }
          ]
        },
        {
          "id": 31,
          "name": "r038",
          "type": "solid",
          "x": 1248,
          "y": 208,
          "width": 256,
          "height": 32,
          "rotation": 0,
          "visible": true,
          "properties": [
            {
              "name": "sourceJson",
              "type": "string",
              "value": "{\"id\":\"r038\",\"x\":1248,\"y\":208,\"w\":256,\"h\":32,\"collision\":\"solid\"}"
            }
          ]
        },
        {
          "id": 32,
          "name": "r040",
          "type": "solid",
          "x": 1248,
          "y": 96,
          "width": 256,
          "height": 64,
          "rotation": 0,
          "visible": true,
          "properties": [
            {
              "name": "sourceJson",
              "type": "string",
              "value": "{\"id\":\"r040\",\"x\":1248,\"y\":96,\"w\":256,\"h\":64,\"collision\":\"solid\"}"
            }
          ]
        },
        {
          "id": 33,
          "name": "r042",
          "type": "solid",
          "x": 1248,
          "y": 32,
          "width": 256,
          "height": 16,
          "rotation": 0,
          "visible": true,
          "properties": [
            {
              "name": "sourceJson",
              "type": "string",
              "value": "{\"id\":\"r042\",\"x\":1248,\"y\":32,\"w\":256,\"h\":16,\"collision\":\"solid\"}"
            }
          ]
        },
        {
          "id": 34,
          "name": "r043",
          "type": "solid",
          "x": 1504,
          "y": 208,
          "width": 160,
          "height": 32,
          "rotation": 0,
          "visible": true,
          "properties": [
            {
              "name": "sourceJson",
              "type": "string",
              "value": "{\"id\":\"r043\",\"x\":1504,\"y\":208,\"w\":160,\"h\":32,\"collision\":\"solid\"}"
            }
          ]
        },
        {
          "id": 35,
          "name": "r044",
          "type": "solid",
          "x": 1504,
          "y": 128,
          "width": 16,
          "height": 16,
          "rotation": 0,
          "visible": true,
          "properties": [
            {
              "name": "sourceJson",
              "type": "string",
              "value": "{\"id\":\"r044\",\"x\":1504,\"y\":128,\"w\":16,\"h\":16,\"collision\":\"solid\"}"
            }
          ]
        },
        {
          "id": 36,
          "name": "r045",
          "type": "solid",
          "x": 1504,
          "y": 112,
          "width": 32,
          "height": 16,
          "rotation": 0,
          "visible": true,
          "properties": [
            {
              "name": "sourceJson",
              "type": "string",
              "value": "{\"id\":\"r045\",\"x\":1504,\"y\":112,\"w\":32,\"h\":16,\"collision\":\"solid\"}"
            }
          ]
        },
        {
          "id": 37,
          "name": "r046",
          "type": "solid",
          "x": 1504,
          "y": 96,
          "width": 64,
          "height": 16,
          "rotation": 0,
          "visible": true,
          "properties": [
            {
              "name": "sourceJson",
              "type": "string",
              "value": "{\"id\":\"r046\",\"x\":1504,\"y\":96,\"w\":64,\"h\":16,\"collision\":\"solid\"}"
            }
          ]
        },
        {
          "id": 38,
          "name": "r047",
          "type": "solid",
          "x": 1504,
          "y": 32,
          "width": 160,
          "height": 16,
          "rotation": 0,
          "visible": true,
          "properties": [
            {
              "name": "sourceJson",
              "type": "string",
              "value": "{\"id\":\"r047\",\"x\":1504,\"y\":32,\"w\":160,\"h\":16,\"collision\":\"solid\"}"
            }
          ]
        },
        {
          "id": 39,
          "name": "r048",
          "type": "solid",
          "x": 1584,
          "y": 160,
          "width": 48,
          "height": 48,
          "rotation": 0,
          "visible": true,
          "properties": [
            {
              "name": "sourceJson",
              "type": "string",
              "value": "{\"id\":\"r048\",\"x\":1584,\"y\":160,\"w\":48,\"h\":48,\"collision\":\"solid\"}"
            }
          ]
        },
        {
          "id": 40,
          "name": "r050",
          "type": "solid",
          "x": 1664,
          "y": 160,
          "width": 48,
          "height": 80,
          "rotation": 0,
          "visible": true,
          "properties": [
            {
              "name": "sourceJson",
              "type": "string",
              "value": "{\"id\":\"r050\",\"x\":1664,\"y\":160,\"w\":48,\"h\":80,\"collision\":\"solid\"}"
            }
          ]
        },
        {
          "id": 41,
          "name": "r051",
          "type": "solid",
          "x": 1664,
          "y": 32,
          "width": 272,
          "height": 16,
          "rotation": 0,
          "visible": true,
          "properties": [
            {
              "name": "sourceJson",
              "type": "string",
              "value": "{\"id\":\"r051\",\"x\":1664,\"y\":32,\"w\":272,\"h\":16,\"collision\":\"solid\"}"
            }
          ]
        },
        {
          "id": 42,
          "name": "r052",
          "type": "solid",
          "x": 1712,
          "y": 208,
          "width": 64,
          "height": 32,
          "rotation": 0,
          "visible": true,
          "properties": [
            {
              "name": "sourceJson",
              "type": "string",
              "value": "{\"id\":\"r052\",\"x\":1712,\"y\":208,\"w\":64,\"h\":32,\"collision\":\"solid\"}"
            }
          ]
        },
        {
          "id": 43,
          "name": "r053",
          "type": "solid",
          "x": 1760,
          "y": 96,
          "width": 32,
          "height": 16,
          "rotation": 0,
          "visible": true,
          "properties": [
            {
              "name": "sourceJson",
              "type": "string",
              "value": "{\"id\":\"r053\",\"x\":1760,\"y\":96,\"w\":32,\"h\":16,\"collision\":\"solid\"}"
            }
          ]
        },
        {
          "id": 44,
          "name": "r055",
          "type": "solid",
          "x": 1808,
          "y": 96,
          "width": 48,
          "height": 16,
          "rotation": 0,
          "visible": true,
          "properties": [
            {
              "name": "sourceJson",
              "type": "string",
              "value": "{\"id\":\"r055\",\"x\":1808,\"y\":96,\"w\":48,\"h\":16,\"collision\":\"solid\"}"
            }
          ]
        },
        {
          "id": 45,
          "name": "r056",
          "type": "solid",
          "x": 1824,
          "y": 208,
          "width": 16,
          "height": 32,
          "rotation": 0,
          "visible": true,
          "properties": [
            {
              "name": "sourceJson",
              "type": "string",
              "value": "{\"id\":\"r056\",\"x\":1824,\"y\":208,\"w\":16,\"h\":32,\"collision\":\"solid\"}"
            }
          ]
        },
        {
          "id": 46,
          "name": "r057",
          "type": "solid",
          "x": 1824,
          "y": 112,
          "width": 16,
          "height": 16,
          "rotation": 0,
          "visible": true,
          "properties": [
            {
              "name": "sourceJson",
              "type": "string",
              "value": "{\"id\":\"r057\",\"x\":1824,\"y\":112,\"w\":16,\"h\":16,\"collision\":\"solid\"}"
            }
          ]
        },
        {
          "id": 47,
          "name": "r059",
          "type": "solid",
          "x": 1872,
          "y": 96,
          "width": 64,
          "height": 16,
          "rotation": 0,
          "visible": true,
          "properties": [
            {
              "name": "sourceJson",
              "type": "string",
              "value": "{\"id\":\"r059\",\"x\":1872,\"y\":96,\"w\":64,\"h\":16,\"collision\":\"solid\"}"
            }
          ]
        },
        {
          "id": 48,
          "name": "r060",
          "type": "solid",
          "x": 1888,
          "y": 208,
          "width": 48,
          "height": 32,
          "rotation": 0,
          "visible": true,
          "properties": [
            {
              "name": "sourceJson",
              "type": "string",
              "value": "{\"id\":\"r060\",\"x\":1888,\"y\":208,\"w\":48,\"h\":32,\"collision\":\"solid\"}"
            }
          ]
        },
        {
          "id": 49,
          "name": "r063",
          "type": "solid",
          "x": 1936,
          "y": 208,
          "width": 256,
          "height": 32,
          "rotation": 0,
          "visible": true,
          "properties": [
            {
              "name": "sourceJson",
              "type": "string",
              "value": "{\"id\":\"r063\",\"x\":1936,\"y\":208,\"w\":256,\"h\":32,\"collision\":\"solid\"}"
            }
          ]
        },
        {
          "id": 50,
          "name": "r064",
          "type": "solid",
          "x": 1936,
          "y": 96,
          "width": 256,
          "height": 64,
          "rotation": 0,
          "visible": true,
          "properties": [
            {
              "name": "sourceJson",
              "type": "string",
              "value": "{\"id\":\"r064\",\"x\":1936,\"y\":96,\"w\":256,\"h\":64,\"collision\":\"solid\"}"
            }
          ]
        },
        {
          "id": 51,
          "name": "r065",
          "type": "solid",
          "x": 1936,
          "y": 32,
          "width": 256,
          "height": 16,
          "rotation": 0,
          "visible": true,
          "properties": [
            {
              "name": "sourceJson",
              "type": "string",
              "value": "{\"id\":\"r065\",\"x\":1936,\"y\":32,\"w\":256,\"h\":16,\"collision\":\"solid\"}"
            }
          ]
        },
        {
          "id": 52,
          "name": "r067",
          "type": "solid",
          "x": 2192,
          "y": 208,
          "width": 128,
          "height": 32,
          "rotation": 0,
          "visible": true,
          "properties": [
            {
              "name": "sourceJson",
              "type": "string",
              "value": "{\"id\":\"r067\",\"x\":2192,\"y\":208,\"w\":128,\"h\":32,\"collision\":\"solid\"}"
            }
          ]
        },
        {
          "id": 53,
          "name": "r068",
          "type": "solid",
          "x": 2192,
          "y": 32,
          "width": 128,
          "height": 16,
          "rotation": 0,
          "visible": true,
          "properties": [
            {
              "name": "sourceJson",
              "type": "string",
              "value": "{\"id\":\"r068\",\"x\":2192,\"y\":32,\"w\":128,\"h\":16,\"collision\":\"solid\"}"
            }
          ]
        },
        {
          "id": 54,
          "name": "r069",
          "type": "solid",
          "x": 2224,
          "y": 96,
          "width": 48,
          "height": 16,
          "rotation": 0,
          "visible": true,
          "properties": [
            {
              "name": "sourceJson",
              "type": "string",
              "value": "{\"id\":\"r069\",\"x\":2224,\"y\":96,\"w\":48,\"h\":16,\"collision\":\"solid\"}"
            }
          ]
        },
        {
          "id": 55,
          "name": "r070",
          "type": "solid",
          "x": 2240,
          "y": 160,
          "width": 48,
          "height": 16,
          "rotation": 0,
          "visible": true,
          "properties": [
            {
              "name": "sourceJson",
              "type": "string",
              "value": "{\"id\":\"r070\",\"x\":2240,\"y\":160,\"w\":48,\"h\":16,\"collision\":\"solid\"}"
            }
          ]
        },
        {
          "id": 56,
          "name": "r071",
          "type": "solid",
          "x": 2304,
          "y": 96,
          "width": 16,
          "height": 16,
          "rotation": 0,
          "visible": true,
          "properties": [
            {
              "name": "sourceJson",
              "type": "string",
              "value": "{\"id\":\"r071\",\"x\":2304,\"y\":96,\"w\":16,\"h\":16,\"collision\":\"solid\"}"
            }
          ]
        },
        {
          "id": 57,
          "name": "r072",
          "type": "solid",
          "x": 2320,
          "y": 208,
          "width": 256,
          "height": 32,
          "rotation": 0,
          "visible": true,
          "properties": [
            {
              "name": "sourceJson",
              "type": "string",
              "value": "{\"id\":\"r072\",\"x\":2320,\"y\":208,\"w\":256,\"h\":32,\"collision\":\"solid\"}"
            }
          ]
        },
        {
          "id": 58,
          "name": "r073",
          "type": "solid",
          "x": 2320,
          "y": 160,
          "width": 256,
          "height": 16,
          "rotation": 0,
          "visible": true,
          "properties": [
            {
              "name": "sourceJson",
              "type": "string",
              "value": "{\"id\":\"r073\",\"x\":2320,\"y\":160,\"w\":256,\"h\":16,\"collision\":\"solid\"}"
            }
          ]
        },
        {
          "id": 59,
          "name": "r074",
          "type": "solid",
          "x": 2320,
          "y": 96,
          "width": 256,
          "height": 16,
          "rotation": 0,
          "visible": true,
          "properties": [
            {
              "name": "sourceJson",
              "type": "string",
              "value": "{\"id\":\"r074\",\"x\":2320,\"y\":96,\"w\":256,\"h\":16,\"collision\":\"solid\"}"
            }
          ]
        },
        {
          "id": 60,
          "name": "r075",
          "type": "solid",
          "x": 2320,
          "y": 32,
          "width": 256,
          "height": 16,
          "rotation": 0,
          "visible": true,
          "properties": [
            {
              "name": "sourceJson",
              "type": "string",
              "value": "{\"id\":\"r075\",\"x\":2320,\"y\":32,\"w\":256,\"h\":16,\"collision\":\"solid\"}"
            }
          ]
        },
        {
          "id": 61,
          "name": "r076",
          "type": "solid",
          "x": 2576,
          "y": 208,
          "width": 128,
          "height": 32,
          "rotation": 0,
          "visible": true,
          "properties": [
            {
              "name": "sourceJson",
              "type": "string",
              "value": "{\"id\":\"r076\",\"x\":2576,\"y\":208,\"w\":128,\"h\":32,\"collision\":\"solid\"}"
            }
          ]
        },
        {
          "id": 62,
          "name": "r077",
          "type": "solid",
          "x": 2576,
          "y": 160,
          "width": 16,
          "height": 16,
          "rotation": 0,
          "visible": true,
          "properties": [
            {
              "name": "sourceJson",
              "type": "string",
              "value": "{\"id\":\"r077\",\"x\":2576,\"y\":160,\"w\":16,\"h\":16,\"collision\":\"solid\"}"
            }
          ]
        },
        {
          "id": 63,
          "name": "r078",
          "type": "solid",
          "x": 2576,
          "y": 32,
          "width": 128,
          "height": 16,
          "rotation": 0,
          "visible": true,
          "properties": [
            {
              "name": "sourceJson",
              "type": "string",
              "value": "{\"id\":\"r078\",\"x\":2576,\"y\":32,\"w\":128,\"h\":16,\"collision\":\"solid\"}"
            }
          ]
        },
        {
          "id": 64,
          "name": "r079",
          "type": "solid",
          "x": 2624,
          "y": 96,
          "width": 48,
          "height": 16,
          "rotation": 0,
          "visible": true,
          "properties": [
            {
              "name": "sourceJson",
              "type": "string",
              "value": "{\"id\":\"r079\",\"x\":2624,\"y\":96,\"w\":48,\"h\":16,\"collision\":\"solid\"}"
            }
          ]
        },
        {
          "id": 65,
          "name": "r080",
          "type": "solid",
          "x": 2640,
          "y": 160,
          "width": 48,
          "height": 16,
          "rotation": 0,
          "visible": true,
          "properties": [
            {
              "name": "sourceJson",
              "type": "string",
              "value": "{\"id\":\"r080\",\"x\":2640,\"y\":160,\"w\":48,\"h\":16,\"collision\":\"solid\"}"
            }
          ]
        },
        {
          "id": 66,
          "name": "r082",
          "type": "solid",
          "x": 2704,
          "y": 208,
          "width": 32,
          "height": 32,
          "rotation": 0,
          "visible": true,
          "properties": [
            {
              "name": "sourceJson",
              "type": "string",
              "value": "{\"id\":\"r082\",\"x\":2704,\"y\":208,\"w\":32,\"h\":32,\"collision\":\"solid\"}"
            }
          ]
        },
        {
          "id": 67,
          "name": "r083",
          "type": "solid",
          "x": 2704,
          "y": 96,
          "width": 16,
          "height": 64,
          "rotation": 0,
          "visible": true,
          "properties": [
            {
              "name": "sourceJson",
              "type": "string",
              "value": "{\"id\":\"r083\",\"x\":2704,\"y\":96,\"w\":16,\"h\":64,\"collision\":\"solid\"}"
            }
          ]
        },
        {
          "id": 68,
          "name": "r084",
          "type": "solid",
          "x": 2704,
          "y": 32,
          "width": 64,
          "height": 16,
          "rotation": 0,
          "visible": true,
          "properties": [
            {
              "name": "sourceJson",
              "type": "string",
              "value": "{\"id\":\"r084\",\"x\":2704,\"y\":32,\"w\":64,\"h\":16,\"collision\":\"solid\"}"
            }
          ]
        },
        {
          "id": 69,
          "name": "r085",
          "type": "solid",
          "x": 2720,
          "y": 96,
          "width": 48,
          "height": 16,
          "rotation": 0,
          "visible": true,
          "properties": [
            {
              "name": "sourceJson",
              "type": "string",
              "value": "{\"id\":\"r085\",\"x\":2720,\"y\":96,\"w\":48,\"h\":16,\"collision\":\"solid\"}"
            }
          ]
        },
        {
          "id": 70,
          "name": "r086",
          "type": "solid",
          "x": 2736,
          "y": 192,
          "width": 16,
          "height": 48,
          "rotation": 0,
          "visible": true,
          "properties": [
            {
              "name": "sourceJson",
              "type": "string",
              "value": "{\"id\":\"r086\",\"x\":2736,\"y\":192,\"w\":16,\"h\":48,\"collision\":\"solid\"}"
            }
          ]
        },
        {
          "id": 71,
          "name": "r087",
          "type": "solid",
          "x": 2752,
          "y": 176,
          "width": 16,
          "height": 64,
          "rotation": 0,
          "visible": true,
          "properties": [
            {
              "name": "sourceJson",
              "type": "string",
              "value": "{\"id\":\"r087\",\"x\":2752,\"y\":176,\"w\":16,\"h\":64,\"collision\":\"solid\"}"
            }
          ]
        },
        {
          "id": 72,
          "name": "r088",
          "type": "solid",
          "x": 2768,
          "y": 160,
          "width": 256,
          "height": 80,
          "rotation": 0,
          "visible": true,
          "properties": [
            {
              "name": "sourceJson",
              "type": "string",
              "value": "{\"id\":\"r088\",\"x\":2768,\"y\":160,\"w\":256,\"h\":80,\"collision\":\"solid\"}"
            }
          ]
        },
        {
          "id": 73,
          "name": "r090",
          "type": "solid",
          "x": 2768,
          "y": 96,
          "width": 256,
          "height": 16,
          "rotation": 0,
          "visible": true,
          "properties": [
            {
              "name": "sourceJson",
              "type": "string",
              "value": "{\"id\":\"r090\",\"x\":2768,\"y\":96,\"w\":256,\"h\":16,\"collision\":\"solid\"}"
            }
          ]
        },
        {
          "id": 74,
          "name": "r092",
          "type": "solid",
          "x": 2768,
          "y": 32,
          "width": 256,
          "height": 16,
          "rotation": 0,
          "visible": true,
          "properties": [
            {
              "name": "sourceJson",
              "type": "string",
              "value": "{\"id\":\"r092\",\"x\":2768,\"y\":32,\"w\":256,\"h\":16,\"collision\":\"solid\"}"
            }
          ]
        },
        {
          "id": 75,
          "name": "r093",
          "type": "solid",
          "x": 3024,
          "y": 160,
          "width": 112,
          "height": 80,
          "rotation": 0,
          "visible": true,
          "properties": [
            {
              "name": "sourceJson",
              "type": "string",
              "value": "{\"id\":\"r093\",\"x\":3024,\"y\":160,\"w\":112,\"h\":80,\"collision\":\"solid\"}"
            }
          ]
        },
        {
          "id": 76,
          "name": "r094",
          "type": "solid",
          "x": 3024,
          "y": 32,
          "width": 112,
          "height": 16,
          "rotation": 0,
          "visible": true,
          "properties": [
            {
              "name": "sourceJson",
              "type": "string",
              "value": "{\"id\":\"r094\",\"x\":3024,\"y\":32,\"w\":112,\"h\":16,\"collision\":\"solid\"}"
            }
          ]
        },
        {
          "id": 77,
          "name": "r096",
          "type": "solid",
          "x": 3136,
          "y": 208,
          "width": 48,
          "height": 32,
          "rotation": 0,
          "visible": true,
          "properties": [
            {
              "name": "sourceJson",
              "type": "string",
              "value": "{\"id\":\"r096\",\"x\":3136,\"y\":208,\"w\":48,\"h\":32,\"collision\":\"solid\"}"
            }
          ]
        },
        {
          "id": 78,
          "name": "r097",
          "type": "solid",
          "x": 3136,
          "y": 32,
          "width": 544,
          "height": 16,
          "rotation": 0,
          "visible": true,
          "properties": [
            {
              "name": "sourceJson",
              "type": "string",
              "value": "{\"id\":\"r097\",\"x\":3136,\"y\":32,\"w\":544,\"h\":16,\"collision\":\"solid\"}"
            }
          ]
        },
        {
          "id": 79,
          "name": "r098",
          "type": "solid",
          "x": 3184,
          "y": 160,
          "width": 48,
          "height": 80,
          "rotation": 0,
          "visible": true,
          "properties": [
            {
              "name": "sourceJson",
              "type": "string",
              "value": "{\"id\":\"r098\",\"x\":3184,\"y\":160,\"w\":48,\"h\":80,\"collision\":\"solid\"}"
            }
          ]
        },
        {
          "id": 80,
          "name": "r099",
          "type": "solid",
          "x": 3232,
          "y": 208,
          "width": 32,
          "height": 32,
          "rotation": 0,
          "visible": true,
          "properties": [
            {
              "name": "sourceJson",
              "type": "string",
              "value": "{\"id\":\"r099\",\"x\":3232,\"y\":208,\"w\":32,\"h\":32,\"collision\":\"solid\"}"
            }
          ]
        },
        {
          "id": 81,
          "name": "r100",
          "type": "solid",
          "x": 3264,
          "y": 160,
          "width": 128,
          "height": 80,
          "rotation": 0,
          "visible": true,
          "properties": [
            {
              "name": "sourceJson",
              "type": "string",
              "value": "{\"id\":\"r100\",\"x\":3264,\"y\":160,\"w\":128,\"h\":80,\"collision\":\"solid\"}"
            }
          ]
        },
        {
          "id": 82,
          "name": "r101",
          "type": "solid",
          "x": 3392,
          "y": 208,
          "width": 32,
          "height": 32,
          "rotation": 0,
          "visible": true,
          "properties": [
            {
              "name": "sourceJson",
              "type": "string",
              "value": "{\"id\":\"r101\",\"x\":3392,\"y\":208,\"w\":32,\"h\":32,\"collision\":\"solid\"}"
            }
          ]
        },
        {
          "id": 83,
          "name": "r102",
          "type": "solid",
          "x": 3424,
          "y": 160,
          "width": 32,
          "height": 80,
          "rotation": 0,
          "visible": true,
          "properties": [
            {
              "name": "sourceJson",
              "type": "string",
              "value": "{\"id\":\"r102\",\"x\":3424,\"y\":160,\"w\":32,\"h\":80,\"collision\":\"solid\"}"
            }
          ]
        },
        {
          "id": 84,
          "name": "r103",
          "type": "solid",
          "x": 3456,
          "y": 208,
          "width": 32,
          "height": 32,
          "rotation": 0,
          "visible": true,
          "properties": [
            {
              "name": "sourceJson",
              "type": "string",
              "value": "{\"id\":\"r103\",\"x\":3456,\"y\":208,\"w\":32,\"h\":32,\"collision\":\"solid\"}"
            }
          ]
        },
        {
          "id": 85,
          "name": "r104",
          "type": "solid",
          "x": 3488,
          "y": 160,
          "width": 32,
          "height": 80,
          "rotation": 0,
          "visible": true,
          "properties": [
            {
              "name": "sourceJson",
              "type": "string",
              "value": "{\"id\":\"r104\",\"x\":3488,\"y\":160,\"w\":32,\"h\":80,\"collision\":\"solid\"}"
            }
          ]
        },
        {
          "id": 86,
          "name": "r105",
          "type": "solid",
          "x": 3520,
          "y": 208,
          "width": 32,
          "height": 32,
          "rotation": 0,
          "visible": true,
          "properties": [
            {
              "name": "sourceJson",
              "type": "string",
              "value": "{\"id\":\"r105\",\"x\":3520,\"y\":208,\"w\":32,\"h\":32,\"collision\":\"solid\"}"
            }
          ]
        },
        {
          "id": 87,
          "name": "r106",
          "type": "solid",
          "x": 3552,
          "y": 160,
          "width": 128,
          "height": 80,
          "rotation": 0,
          "visible": true,
          "properties": [
            {
              "name": "sourceJson",
              "type": "string",
              "value": "{\"id\":\"r106\",\"x\":3552,\"y\":160,\"w\":128,\"h\":80,\"collision\":\"solid\"}"
            }
          ]
        },
        {
          "id": 88,
          "name": "r107-roof",
          "type": "solid",
          "x": 3680,
          "y": 32,
          "width": 512,
          "height": 16,
          "rotation": 0,
          "visible": true,
          "properties": [
            {
              "name": "sourceJson",
              "type": "string",
              "value": "{\"id\":\"r107-roof\",\"x\":3680,\"y\":32,\"w\":512,\"h\":16,\"collision\":\"solid\"}"
            }
          ]
        },
        {
          "id": 89,
          "name": "r107-bridge",
          "type": "solid",
          "x": 3680,
          "y": 160,
          "width": 208,
          "height": 16,
          "rotation": 0,
          "visible": true,
          "properties": [
            {
              "name": "sourceJson",
              "type": "string",
              "value": "{\"id\":\"r107-bridge\",\"x\":3680,\"y\":160,\"w\":208,\"h\":16,\"collision\":\"solid\"}"
            }
          ]
        },
        {
          "id": 90,
          "name": "r107-floor",
          "type": "solid",
          "x": 3888,
          "y": 208,
          "width": 304,
          "height": 32,
          "rotation": 0,
          "visible": true,
          "properties": [
            {
              "name": "sourceJson",
              "type": "string",
              "value": "{\"id\":\"r107-floor\",\"x\":3888,\"y\":208,\"w\":304,\"h\":32,\"collision\":\"solid\"}"
            }
          ]
        },
        {
          "id": 91,
          "name": "r107-step",
          "type": "solid",
          "x": 3888,
          "y": 144,
          "width": 48,
          "height": 64,
          "rotation": 0,
          "visible": true,
          "properties": [
            {
              "name": "sourceJson",
              "type": "string",
              "value": "{\"id\":\"r107-step\",\"x\":3888,\"y\":144,\"w\":48,\"h\":64,\"collision\":\"solid\"}"
            }
          ]
        },
        {
          "id": 92,
          "name": "r107-ceiling",
          "type": "solid",
          "x": 3904,
          "y": 48,
          "width": 32,
          "height": 48,
          "rotation": 0,
          "visible": true,
          "properties": [
            {
              "name": "sourceJson",
              "type": "string",
              "value": "{\"id\":\"r107-ceiling\",\"x\":3904,\"y\":48,\"w\":32,\"h\":48,\"collision\":\"solid\"}"
            }
          ]
        }
      ]
    },
    {
      "id": 2,
      "name": "objects",
      "type": "objectgroup",
      "visible": true,
      "opacity": 1,
      "x": 0,
      "y": 0,
      "draworder": "index",
      "objects": [
        {
          "id": 93,
          "name": "inspection-start",
          "type": "spawn",
          "x": 24,
          "y": 88,
          "width": 12,
          "height": 24,
          "rotation": 0,
          "visible": true,
          "properties": [
            {
              "name": "sourceJson",
              "type": "string",
              "value": "{\"id\":\"inspection-start\",\"kind\":\"spawn\",\"x\":24,\"y\":88,\"w\":12,\"h\":24}"
            }
          ]
        }
      ]
    },
    {
      "id": 3,
      "name": "pending-mechanics",
      "type": "objectgroup",
      "visible": true,
      "opacity": 1,
      "x": 0,
      "y": 0,
      "draworder": "index",
      "objects": [
        {
          "id": 94,
          "name": "r003",
          "type": "lava-volume",
          "x": 256,
          "y": 208,
          "width": 0,
          "height": 0,
          "rotation": 0,
          "visible": true,
          "point": true,
          "properties": [
            {
              "name": "sourceJson",
              "type": "string",
              "value": "{\"id\":\"r003\",\"kind\":\"lava-volume\",\"source\":{\"macro\":\"Water\",\"width\":88,\"x\":128,\"y\":0},\"sourcePath\":{\"area\":0,\"part\":\"base\",\"record\":\"r003\"},\"x\":256,\"y\":208}"
            }
          ]
        },
        {
          "id": 95,
          "name": "r005-motion",
          "type": "falling-platform",
          "x": 288,
          "y": 112,
          "width": 0,
          "height": 0,
          "rotation": 0,
          "visible": true,
          "point": true,
          "properties": [
            {
              "name": "sourceJson",
              "type": "string",
              "value": "{\"id\":\"r005-motion\",\"kind\":\"falling-platform\",\"source\":{\"thing\":\"Platform\",\"width\":16,\"falling\":true,\"x\":144,\"y\":48},\"sourcePath\":{\"area\":0,\"part\":\"base\",\"record\":\"r005\"},\"x\":288,\"y\":112}"
            }
          ]
        },
        {
          "id": 96,
          "name": "r006",
          "type": "enemy-podoboo",
          "x": 320,
          "y": 272,
          "width": 0,
          "height": 0,
          "rotation": 0,
          "visible": true,
          "point": true,
          "properties": [
            {
              "name": "sourceJson",
              "type": "string",
              "value": "{\"id\":\"r006\",\"kind\":\"enemy-podoboo\",\"source\":{\"thing\":\"Podoboo\",\"x\":160,\"y\":-32},\"sourcePath\":{\"area\":0,\"part\":\"base\",\"record\":\"r006\"},\"x\":320,\"y\":272}"
            }
          ]
        },
        {
          "id": 97,
          "name": "r007-motion",
          "type": "falling-platform",
          "x": 352,
          "y": 128,
          "width": 0,
          "height": 0,
          "rotation": 0,
          "visible": true,
          "point": true,
          "properties": [
            {
              "name": "sourceJson",
              "type": "string",
              "value": "{\"id\":\"r007-motion\",\"kind\":\"falling-platform\",\"source\":{\"thing\":\"Platform\",\"width\":16,\"falling\":true,\"x\":176,\"y\":40},\"sourcePath\":{\"area\":0,\"part\":\"base\",\"record\":\"r007\"},\"x\":352,\"y\":128}"
            }
          ]
        },
        {
          "id": 98,
          "name": "r010",
          "type": "conditional-section",
          "x": 512,
          "y": 208,
          "width": 0,
          "height": 0,
          "rotation": 0,
          "visible": true,
          "point": true,
          "properties": [
            {
              "name": "sourceJson",
              "type": "string",
              "value": "{\"id\":\"r010\",\"kind\":\"conditional-section\",\"source\":{\"macro\":\"Section\",\"x\":256,\"y\":0},\"sourcePath\":{\"area\":0,\"part\":\"base\",\"record\":\"r010\"},\"x\":512,\"y\":208}"
            }
          ]
        },
        {
          "id": 99,
          "name": "r017",
          "type": "conditional-sectionpass",
          "x": 608,
          "y": 160,
          "width": 0,
          "height": 0,
          "rotation": 0,
          "visible": true,
          "point": true,
          "properties": [
            {
              "name": "sourceJson",
              "type": "string",
              "value": "{\"id\":\"r017\",\"kind\":\"conditional-sectionpass\",\"source\":{\"macro\":\"SectionPass\",\"height\":24,\"x\":304,\"y\":24,\"width\":128},\"sourcePath\":{\"area\":0,\"part\":\"base\",\"record\":\"r017\"},\"x\":608,\"y\":160}"
            }
          ]
        },
        {
          "id": 100,
          "name": "r019",
          "type": "conditional-sectionfail",
          "x": 608,
          "y": 48,
          "width": 0,
          "height": 0,
          "rotation": 0,
          "visible": true,
          "point": true,
          "properties": [
            {
              "name": "sourceJson",
              "type": "string",
              "value": "{\"id\":\"r019\",\"kind\":\"conditional-sectionfail\",\"source\":{\"macro\":\"SectionFail\",\"height\":24,\"x\":304,\"y\":80,\"width\":128},\"sourcePath\":{\"area\":0,\"part\":\"base\",\"record\":\"r019\"},\"x\":608,\"y\":48}"
            }
          ]
        },
        {
          "id": 101,
          "name": "r023",
          "type": "conditional-section",
          "x": 912,
          "y": 208,
          "width": 0,
          "height": 0,
          "rotation": 0,
          "visible": true,
          "point": true,
          "properties": [
            {
              "name": "sourceJson",
              "type": "string",
              "value": "{\"id\":\"r023\",\"kind\":\"conditional-section\",\"source\":{\"macro\":\"Section\",\"section\":1,\"x\":456,\"y\":0},\"sourcePath\":{\"area\":0,\"part\":\"base\",\"record\":\"r023\"},\"x\":912,\"y\":208}"
            }
          ]
        },
        {
          "id": 102,
          "name": "r028",
          "type": "conditional-sectionfail",
          "x": 928,
          "y": 176,
          "width": 0,
          "height": 0,
          "rotation": 0,
          "visible": true,
          "point": true,
          "properties": [
            {
              "name": "sourceJson",
              "type": "string",
              "value": "{\"id\":\"r028\",\"kind\":\"conditional-sectionfail\",\"source\":{\"macro\":\"SectionFail\",\"height\":16,\"x\":464,\"y\":16,\"width\":128},\"sourcePath\":{\"area\":0,\"part\":\"base\",\"record\":\"r028\"},\"x\":928,\"y\":176}"
            }
          ]
        },
        {
          "id": 103,
          "name": "r030",
          "type": "conditional-sectionpass",
          "x": 928,
          "y": 112,
          "width": 0,
          "height": 0,
          "rotation": 0,
          "visible": true,
          "point": true,
          "properties": [
            {
              "name": "sourceJson",
              "type": "string",
              "value": "{\"id\":\"r030\",\"kind\":\"conditional-sectionpass\",\"source\":{\"macro\":\"SectionPass\",\"height\":24,\"x\":464,\"y\":48,\"width\":128},\"sourcePath\":{\"area\":0,\"part\":\"base\",\"record\":\"r030\"},\"x\":928,\"y\":112}"
            }
          ]
        },
        {
          "id": 104,
          "name": "r032",
          "type": "conditional-sectionfail",
          "x": 928,
          "y": 48,
          "width": 0,
          "height": 0,
          "rotation": 0,
          "visible": true,
          "point": true,
          "properties": [
            {
              "name": "sourceJson",
              "type": "string",
              "value": "{\"id\":\"r032\",\"kind\":\"conditional-sectionfail\",\"source\":{\"macro\":\"SectionFail\",\"height\":24,\"x\":464,\"y\":80,\"width\":128},\"sourcePath\":{\"area\":0,\"part\":\"base\",\"record\":\"r032\"},\"x\":928,\"y\":48}"
            }
          ]
        },
        {
          "id": 105,
          "name": "r037",
          "type": "conditional-section",
          "x": 1248,
          "y": 208,
          "width": 0,
          "height": 0,
          "rotation": 0,
          "visible": true,
          "point": true,
          "properties": [
            {
              "name": "sourceJson",
              "type": "string",
              "value": "{\"id\":\"r037\",\"kind\":\"conditional-section\",\"source\":{\"macro\":\"Section\",\"section\":2,\"x\":624,\"y\":0},\"sourcePath\":{\"area\":0,\"part\":\"base\",\"record\":\"r037\"},\"x\":1248,\"y\":208}"
            }
          ]
        },
        {
          "id": 106,
          "name": "r039",
          "type": "conditional-sectionfail",
          "x": 1248,
          "y": 160,
          "width": 0,
          "height": 0,
          "rotation": 0,
          "visible": true,
          "point": true,
          "properties": [
            {
              "name": "sourceJson",
              "type": "string",
              "value": "{\"id\":\"r039\",\"kind\":\"conditional-sectionfail\",\"source\":{\"macro\":\"SectionFail\",\"height\":24,\"x\":624,\"y\":24,\"width\":128},\"sourcePath\":{\"area\":0,\"part\":\"base\",\"record\":\"r039\"},\"x\":1248,\"y\":160}"
            }
          ]
        },
        {
          "id": 107,
          "name": "r041",
          "type": "conditional-sectionpass",
          "x": 1248,
          "y": 48,
          "width": 0,
          "height": 0,
          "rotation": 0,
          "visible": true,
          "point": true,
          "properties": [
            {
              "name": "sourceJson",
              "type": "string",
              "value": "{\"id\":\"r041\",\"kind\":\"conditional-sectionpass\",\"source\":{\"macro\":\"SectionPass\",\"height\":24,\"x\":624,\"y\":80,\"width\":128},\"sourcePath\":{\"area\":0,\"part\":\"base\",\"record\":\"r041\"},\"x\":1248,\"y\":48}"
            }
          ]
        },
        {
          "id": 108,
          "name": "r049",
          "type": "conditional-sectiondecider",
          "x": 1664,
          "y": 208,
          "width": 0,
          "height": 0,
          "rotation": 0,
          "visible": true,
          "point": true,
          "properties": [
            {
              "name": "sourceJson",
              "type": "string",
              "value": "{\"id\":\"r049\",\"kind\":\"conditional-sectiondecider\",\"source\":{\"macro\":\"SectionDecider\",\"pass\":3,\"fail\":0,\"x\":832,\"y\":0},\"sourcePath\":{\"area\":0,\"part\":\"base\",\"record\":\"r049\"},\"x\":1664,\"y\":208}"
            }
          ]
        },
        {
          "id": 109,
          "name": "r054",
          "type": "lava-volume",
          "x": 1776,
          "y": 208,
          "width": 0,
          "height": 0,
          "rotation": 0,
          "visible": true,
          "point": true,
          "properties": [
            {
              "name": "sourceJson",
              "type": "string",
              "value": "{\"id\":\"r054\",\"kind\":\"lava-volume\",\"source\":{\"macro\":\"Water\",\"width\":24,\"x\":888,\"y\":0},\"sourcePath\":{\"area\":0,\"part\":\"base\",\"record\":\"r054\"},\"x\":1776,\"y\":208}"
            }
          ]
        },
        {
          "id": 110,
          "name": "r057-fire",
          "type": "rotating-firebar",
          "x": 1824,
          "y": 112,
          "width": 0,
          "height": 0,
          "rotation": 0,
          "visible": true,
          "point": true,
          "properties": [
            {
              "name": "sourceJson",
              "type": "string",
              "value": "{\"id\":\"r057-fire\",\"kind\":\"rotating-firebar\",\"source\":{\"thing\":\"CastleBlock\",\"fireballs\":6,\"direction\":1,\"x\":912,\"y\":48},\"sourcePath\":{\"area\":0,\"part\":\"base\",\"record\":\"r057\"},\"x\":1824,\"y\":112}"
            }
          ]
        },
        {
          "id": 111,
          "name": "r058",
          "type": "lava-volume",
          "x": 1840,
          "y": 208,
          "width": 0,
          "height": 0,
          "rotation": 0,
          "visible": true,
          "point": true,
          "properties": [
            {
              "name": "sourceJson",
              "type": "string",
              "value": "{\"id\":\"r058\",\"kind\":\"lava-volume\",\"source\":{\"macro\":\"Water\",\"width\":24,\"x\":920,\"y\":0},\"sourcePath\":{\"area\":0,\"part\":\"base\",\"record\":\"r058\"},\"x\":1840,\"y\":208}"
            }
          ]
        },
        {
          "id": 112,
          "name": "r061",
          "type": "conditional-sectionfail",
          "x": 1936,
          "y": 160,
          "width": 0,
          "height": 0,
          "rotation": 0,
          "visible": true,
          "point": true,
          "properties": [
            {
              "name": "sourceJson",
              "type": "string",
              "value": "{\"id\":\"r061\",\"kind\":\"conditional-sectionfail\",\"source\":{\"macro\":\"SectionFail\",\"height\":24,\"x\":968,\"y\":24,\"width\":128},\"sourcePath\":{\"area\":0,\"part\":\"base\",\"record\":\"r061\"},\"x\":1936,\"y\":160}"
            }
          ]
        },
        {
          "id": 113,
          "name": "r062",
          "type": "conditional-sectionpass",
          "x": 1936,
          "y": 48,
          "width": 0,
          "height": 0,
          "rotation": 0,
          "visible": true,
          "point": true,
          "properties": [
            {
              "name": "sourceJson",
              "type": "string",
              "value": "{\"id\":\"r062\",\"kind\":\"conditional-sectionpass\",\"source\":{\"macro\":\"SectionPass\",\"height\":24,\"x\":968,\"y\":80,\"width\":128},\"sourcePath\":{\"area\":0,\"part\":\"base\",\"record\":\"r062\"},\"x\":1936,\"y\":48}"
            }
          ]
        },
        {
          "id": 114,
          "name": "r066",
          "type": "conditional-section",
          "x": 2192,
          "y": 208,
          "width": 0,
          "height": 0,
          "rotation": 0,
          "visible": true,
          "point": true,
          "properties": [
            {
              "name": "sourceJson",
              "type": "string",
              "value": "{\"id\":\"r066\",\"kind\":\"conditional-section\",\"source\":{\"macro\":\"Section\",\"section\":4,\"x\":1096,\"y\":0},\"sourcePath\":{\"area\":0,\"part\":\"base\",\"record\":\"r066\"},\"x\":2192,\"y\":208}"
            }
          ]
        },
        {
          "id": 115,
          "name": "r081",
          "type": "conditional-section",
          "x": 2704,
          "y": 208,
          "width": 0,
          "height": 0,
          "rotation": 0,
          "visible": true,
          "point": true,
          "properties": [
            {
              "name": "sourceJson",
              "type": "string",
              "value": "{\"id\":\"r081\",\"kind\":\"conditional-section\",\"source\":{\"macro\":\"Section\",\"section\":5,\"x\":1352,\"y\":0},\"sourcePath\":{\"area\":0,\"part\":\"base\",\"record\":\"r081\"},\"x\":2704,\"y\":208}"
            }
          ]
        },
        {
          "id": 116,
          "name": "r089",
          "type": "conditional-sectionpass",
          "x": 2768,
          "y": 48,
          "width": 0,
          "height": 0,
          "rotation": 0,
          "visible": true,
          "point": true,
          "properties": [
            {
              "name": "sourceJson",
              "type": "string",
              "value": "{\"id\":\"r089\",\"kind\":\"conditional-sectionpass\",\"source\":{\"macro\":\"SectionPass\",\"height\":24,\"x\":1384,\"y\":80,\"width\":128},\"sourcePath\":{\"area\":0,\"part\":\"base\",\"record\":\"r089\"},\"x\":2768,\"y\":48}"
            }
          ]
        },
        {
          "id": 117,
          "name": "r091",
          "type": "conditional-sectionfail",
          "x": 2768,
          "y": 112,
          "width": 0,
          "height": 0,
          "rotation": 0,
          "visible": true,
          "point": true,
          "properties": [
            {
              "name": "sourceJson",
              "type": "string",
              "value": "{\"id\":\"r091\",\"kind\":\"conditional-sectionfail\",\"source\":{\"macro\":\"SectionFail\",\"height\":24,\"x\":1384,\"y\":48,\"width\":128},\"sourcePath\":{\"area\":0,\"part\":\"base\",\"record\":\"r091\"},\"x\":2768,\"y\":112}"
            }
          ]
        },
        {
          "id": 118,
          "name": "r095",
          "type": "conditional-sectiondecider",
          "x": 3136,
          "y": 48,
          "width": 0,
          "height": 0,
          "rotation": 0,
          "visible": true,
          "point": true,
          "properties": [
            {
              "name": "sourceJson",
              "type": "string",
              "value": "{\"id\":\"r095\",\"kind\":\"conditional-sectiondecider\",\"source\":{\"macro\":\"SectionDecider\",\"height\":56,\"pass\":6,\"fail\":3,\"x\":1568,\"y\":80},\"sourcePath\":{\"area\":0,\"part\":\"base\",\"record\":\"r095\"},\"x\":3136,\"y\":48}"
            }
          ]
        },
        {
          "id": 119,
          "name": "r107-boss",
          "type": "enemy-bowser",
          "x": 3818,
          "y": 124,
          "width": 0,
          "height": 0,
          "rotation": 0,
          "visible": true,
          "point": true,
          "properties": [
            {
              "name": "sourceJson",
              "type": "string",
              "value": "{\"id\":\"r107-boss\",\"kind\":\"enemy-bowser\",\"source\":{\"thing\":\"Bowser\",\"x\":1909,\"y\":42},\"sourcePath\":{\"area\":0,\"part\":\"base\",\"record\":\"r107\"},\"x\":3818,\"y\":124}"
            }
          ]
        },
        {
          "id": 120,
          "name": "r107-lava",
          "type": "lava-volume",
          "x": 3680,
          "y": 208,
          "width": 0,
          "height": 0,
          "rotation": 0,
          "visible": true,
          "point": true,
          "properties": [
            {
              "name": "sourceJson",
              "type": "string",
              "value": "{\"id\":\"r107-lava\",\"kind\":\"lava-volume\",\"source\":{\"macro\":\"Water\",\"x\":1840,\"y\":0,\"width\":104},\"sourcePath\":{\"area\":0,\"part\":\"base\",\"record\":\"r107\"},\"x\":3680,\"y\":208}"
            }
          ]
        },
        {
          "id": 121,
          "name": "r107-chain",
          "type": "marker-CastleChain",
          "x": 3872,
          "y": 144,
          "width": 0,
          "height": 0,
          "rotation": 0,
          "visible": true,
          "point": true,
          "properties": [
            {
              "name": "sourceJson",
              "type": "string",
              "value": "{\"id\":\"r107-chain\",\"kind\":\"marker-CastleChain\",\"source\":{\"thing\":\"CastleChain\",\"x\":1936,\"y\":32},\"sourcePath\":{\"area\":0,\"part\":\"base\",\"record\":\"r107\"},\"x\":3872,\"y\":144}"
            }
          ]
        },
        {
          "id": 122,
          "name": "r107-axe",
          "type": "bridge-axe-finish",
          "x": 3888,
          "y": 128,
          "width": 0,
          "height": 0,
          "rotation": 0,
          "visible": true,
          "point": true,
          "properties": [
            {
              "name": "sourceJson",
              "type": "string",
              "value": "{\"id\":\"r107-axe\",\"kind\":\"bridge-axe-finish\",\"source\":{\"thing\":\"CastleAxe\",\"x\":1944,\"y\":40},\"sourcePath\":{\"area\":0,\"part\":\"base\",\"record\":\"r107\"},\"x\":3888,\"y\":128}"
            }
          ]
        },
        {
          "id": 123,
          "name": "r107",
          "type": "castle-finish",
          "x": 3680,
          "y": 208,
          "width": 0,
          "height": 0,
          "rotation": 0,
          "visible": true,
          "point": true,
          "properties": [
            {
              "name": "sourceJson",
              "type": "string",
              "value": "{\"id\":\"r107\",\"kind\":\"castle-finish\",\"source\":{\"macro\":\"EndInsideCastle\",\"spawnType\":\"HammerBro\",\"throwing\":false,\"transport\":{\"map\":\"8-1\"},\"x\":1840,\"y\":0},\"sourcePath\":{\"area\":0,\"part\":\"base\",\"record\":\"r107\"},\"x\":3680,\"y\":208}"
            }
          ]
        },
        {
          "id": 124,
          "name": "r107-transport",
          "type": "source-transport-not-simulated",
          "x": 3680,
          "y": 208,
          "width": 0,
          "height": 0,
          "rotation": 0,
          "visible": true,
          "point": true,
          "properties": [
            {
              "name": "sourceJson",
              "type": "string",
              "value": "{\"id\":\"r107-transport\",\"kind\":\"source-transport-not-simulated\",\"source\":{\"macro\":\"EndInsideCastle\",\"spawnType\":\"HammerBro\",\"throwing\":false,\"transport\":{\"map\":\"8-1\"},\"x\":1840,\"y\":0},\"sourcePath\":{\"area\":0,\"part\":\"base\",\"record\":\"r107\"},\"x\":3680,\"y\":208}"
            }
          ]
        },
        {
          "id": 125,
          "name": "section-mode",
          "type": "conditional-section-runtime",
          "x": 0,
          "y": 32,
          "width": 0,
          "height": 0,
          "rotation": 0,
          "visible": true,
          "point": true,
          "properties": [
            {
              "name": "sourceJson",
              "type": "string",
              "value": "{\"id\":\"section-mode\",\"kind\":\"conditional-section-runtime\",\"source\":{\"x\":0,\"y\":88},\"sourcePath\":{\"area\":0,\"part\":\"base\",\"record\":\"section\"},\"x\":0,\"y\":32}"
            }
          ]
        }
      ]
    }
  ],
  "properties": [
    {
      "name": "room",
      "type": "string",
      "value": "area-0"
    },
    {
      "name": "underwater",
      "type": "bool",
      "value": false
    },
    {
      "name": "inspectionOnly",
      "type": "bool",
      "value": true
    },
    {
      "name": "referenceReview",
      "type": "string",
      "value": "pending"
    }
  ]
}
