{
  "type": "map",
  "version": "1.10",
  "orientation": "orthogonal",
  "renderorder": "right-down",
  "width": 16,
  "height": 15,
  "tilewidth": 16,
  "tileheight": 16,
  "infinite": false,
  "nextlayerid": 4,
  "nextobjectid": 10,
  "tilesets": [],
  "layers": [
    {
      "id": 1,
      "name": "collision",
      "type": "objectgroup",
      "visible": true,
      "opacity": 1,
      "x": 0,
      "y": 0,
      "draworder": "index",
      "objects": [
        {
          "id": 1,
          "name": "r000",
          "type": "solid",
          "x": 0,
          "y": 208,
          "width": 16,
          "height": 32,
          "rotation": 0,
          "visible": true,
          "properties": [
            {
              "name": "sourceJson",
              "type": "string",
              "value": "{\"id\":\"r000\",\"x\":0,\"y\":208,\"w\":16,\"h\":32,\"collision\":\"solid\"}"
            }
          ]
        },
        {
          "id": 2,
          "name": "r002",
          "type": "solid",
          "x": 0,
          "y": 160,
          "width": 16,
          "height": 16,
          "rotation": 0,
          "visible": true,
          "properties": [
            {
              "name": "sourceJson",
              "type": "string",
              "value": "{\"id\":\"r002\",\"x\":0,\"y\":160,\"w\":16,\"h\":16,\"collision\":\"solid\"}"
            }
          ]
        },
        {
          "id": 3,
          "name": "r004",
          "type": "solid",
          "x": 0,
          "y": 96,
          "width": 16,
          "height": 16,
          "rotation": 0,
          "visible": true,
          "properties": [
            {
              "name": "sourceJson",
              "type": "string",
              "value": "{\"id\":\"r004\",\"x\":0,\"y\":96,\"w\":16,\"h\":16,\"collision\":\"solid\"}"
            }
          ]
        },
        {
          "id": 4,
          "name": "r006",
          "type": "solid",
          "x": 0,
          "y": 32,
          "width": 16,
          "height": 16,
          "rotation": 0,
          "visible": true,
          "properties": [
            {
              "name": "sourceJson",
              "type": "string",
              "value": "{\"id\":\"r006\",\"x\":0,\"y\":32,\"w\":16,\"h\":16,\"collision\":\"solid\"}"
            }
          ]
        }
      ]
    },
    {
      "id": 2,
      "name": "objects",
      "type": "objectgroup",
      "visible": true,
      "opacity": 1,
      "x": 0,
      "y": 0,
      "draworder": "index",
      "objects": [
        {
          "id": 5,
          "name": "inspection-start",
          "type": "spawn",
          "x": 24,
          "y": 24,
          "width": 12,
          "height": 24,
          "rotation": 0,
          "visible": true,
          "properties": [
            {
              "name": "sourceJson",
              "type": "string",
              "value": "{\"id\":\"inspection-start\",\"kind\":\"spawn\",\"x\":24,\"y\":24,\"w\":12,\"h\":24}"
            }
          ]
        }
      ]
    },
    {
      "id": 3,
      "name": "pending-mechanics",
      "type": "objectgroup",
      "visible": true,
      "opacity": 1,
      "x": 0,
      "y": 0,
      "draworder": "index",
      "objects": [
        {
          "id": 6,
          "name": "r001",
          "type": "conditional-sectionfail",
          "x": 0,
          "y": 176,
          "width": 0,
          "height": 0,
          "rotation": 0,
          "visible": true,
          "point": true,
          "properties": [
            {
              "name": "sourceJson",
              "type": "string",
              "value": "{\"id\":\"r001\",\"kind\":\"conditional-sectionfail\",\"source\":{\"macro\":\"SectionFail\",\"height\":16,\"x\":0,\"y\":16},\"sourcePath\":{\"area\":0,\"section\":1,\"part\":\"stretch\",\"record\":\"r001\"},\"x\":0,\"y\":176}"
            }
          ]
        },
        {
          "id": 7,
          "name": "r003",
          "type": "conditional-sectionpass",
          "x": 0,
          "y": 112,
          "width": 0,
          "height": 0,
          "rotation": 0,
          "visible": true,
          "point": true,
          "properties": [
            {
              "name": "sourceJson",
              "type": "string",
              "value": "{\"id\":\"r003\",\"kind\":\"conditional-sectionpass\",\"source\":{\"macro\":\"SectionPass\",\"height\":24,\"x\":0,\"y\":48},\"sourcePath\":{\"area\":0,\"section\":1,\"part\":\"stretch\",\"record\":\"r003\"},\"x\":0,\"y\":112}"
            }
          ]
        },
        {
          "id": 8,
          "name": "r005",
          "type": "conditional-sectionfail",
          "x": 0,
          "y": 48,
          "width": 0,
          "height": 0,
          "rotation": 0,
          "visible": true,
          "point": true,
          "properties": [
            {
              "name": "sourceJson",
              "type": "string",
              "value": "{\"id\":\"r005\",\"kind\":\"conditional-sectionfail\",\"source\":{\"macro\":\"SectionFail\",\"height\":24,\"x\":0,\"y\":80},\"sourcePath\":{\"area\":0,\"section\":1,\"part\":\"stretch\",\"record\":\"r005\"},\"x\":0,\"y\":48}"
            }
          ]
        },
        {
          "id": 9,
          "name": "section-mode",
          "type": "conditional-section-runtime",
          "x": 0,
          "y": 32,
          "width": 0,
          "height": 0,
          "rotation": 0,
          "visible": true,
          "point": true,
          "properties": [
            {
              "name": "sourceJson",
              "type": "string",
              "value": "{\"id\":\"section-mode\",\"kind\":\"conditional-section-runtime\",\"source\":{\"x\":0,\"y\":88},\"sourcePath\":{\"area\":0,\"section\":1,\"part\":\"stretch\",\"record\":\"section\"},\"x\":0,\"y\":32}"
            }
          ]
        }
      ]
    }
  ],
  "properties": [
    {
      "name": "room",
      "type": "string",
      "value": "area-0-section-1-stretch"
    },
    {
      "name": "underwater",
      "type": "bool",
      "value": false
    },
    {
      "name": "inspectionOnly",
      "type": "bool",
      "value": true
    },
    {
      "name": "referenceReview",
      "type": "string",
      "value": "pending"
    }
  ]
}
