{
  "type": "map",
  "version": "1.10",
  "orientation": "orthogonal",
  "renderorder": "right-down",
  "width": 205,
  "height": 15,
  "tilewidth": 16,
  "tileheight": 16,
  "infinite": false,
  "nextlayerid": 4,
  "nextobjectid": 109,
  "tilesets": [],
  "layers": [
    {
      "id": 1,
      "name": "collision",
      "type": "objectgroup",
      "visible": true,
      "opacity": 1,
      "x": 0,
      "y": 0,
      "draworder": "index",
      "objects": [
        {
          "id": 1,
          "name": "r000",
          "type": "solid",
          "x": 0,
          "y": 208,
          "width": 1072,
          "height": 32,
          "rotation": 0,
          "visible": true,
          "properties": [
            {
              "name": "sourceJson",
              "type": "string",
              "value": "{\"id\":\"r000\",\"x\":0,\"y\":208,\"w\":1072,\"h\":32,\"collision\":\"solid\"}"
            }
          ]
        },
        {
          "id": 2,
          "name": "r001",
          "type": "solid",
          "x": 192,
          "y": 160,
          "width": 16,
          "height": 48,
          "rotation": 0,
          "visible": true,
          "properties": [
            {
              "name": "sourceJson",
              "type": "string",
              "value": "{\"id\":\"r001\",\"x\":192,\"y\":160,\"w\":16,\"h\":48,\"collision\":\"solid\"}"
            }
          ]
        },
        {
          "id": 3,
          "name": "r003",
          "type": "solid",
          "x": 304,
          "y": 144,
          "width": 48,
          "height": 16,
          "rotation": 0,
          "visible": true,
          "properties": [
            {
              "name": "sourceJson",
              "type": "string",
              "value": "{\"id\":\"r003\",\"x\":304,\"y\":144,\"w\":48,\"h\":16,\"collision\":\"solid\"}"
            }
          ]
        },
        {
          "id": 4,
          "name": "r006",
          "type": "solid",
          "x": 544,
          "y": 128,
          "width": 16,
          "height": 80,
          "rotation": 0,
          "visible": true,
          "properties": [
            {
              "name": "sourceJson",
              "type": "string",
              "value": "{\"id\":\"r006\",\"x\":544,\"y\":128,\"w\":16,\"h\":80,\"collision\":\"solid\"}"
            }
          ]
        },
        {
          "id": 5,
          "name": "r008",
          "type": "solid",
          "x": 688,
          "y": 144,
          "width": 32,
          "height": 16,
          "rotation": 0,
          "visible": true,
          "properties": [
            {
              "name": "sourceJson",
              "type": "string",
              "value": "{\"id\":\"r008\",\"x\":688,\"y\":144,\"w\":32,\"h\":16,\"collision\":\"solid\"}"
            }
          ]
        },
        {
          "id": 6,
          "name": "r010",
          "type": "solid",
          "x": 816,
          "y": 144,
          "width": 16,
          "height": 64,
          "rotation": 0,
          "visible": true,
          "properties": [
            {
              "name": "sourceJson",
              "type": "string",
              "value": "{\"id\":\"r010\",\"x\":816,\"y\":144,\"w\":16,\"h\":64,\"collision\":\"solid\"}"
            }
          ]
        },
        {
          "id": 7,
          "name": "r012",
          "type": "solid",
          "x": 1040,
          "y": 160,
          "width": 16,
          "height": 48,
          "rotation": 0,
          "visible": true,
          "properties": [
            {
              "name": "sourceJson",
              "type": "string",
              "value": "{\"id\":\"r012\",\"x\":1040,\"y\":160,\"w\":16,\"h\":48,\"collision\":\"solid\"}"
            }
          ]
        },
        {
          "id": 8,
          "name": "r013",
          "type": "solid",
          "x": 1056,
          "y": 128,
          "width": 16,
          "height": 80,
          "rotation": 0,
          "visible": true,
          "properties": [
            {
              "name": "sourceJson",
              "type": "string",
              "value": "{\"id\":\"r013\",\"x\":1056,\"y\":128,\"w\":16,\"h\":80,\"collision\":\"solid\"}"
            }
          ]
        },
        {
          "id": 9,
          "name": "r015",
          "type": "solid",
          "x": 1152,
          "y": 208,
          "width": 960,
          "height": 32,
          "rotation": 0,
          "visible": true,
          "properties": [
            {
              "name": "sourceJson",
              "type": "string",
              "value": "{\"id\":\"r015\",\"x\":1152,\"y\":208,\"w\":960,\"h\":32,\"collision\":\"solid\"}"
            }
          ]
        },
        {
          "id": 10,
          "name": "r016",
          "type": "solid",
          "x": 1152,
          "y": 128,
          "width": 16,
          "height": 80,
          "rotation": 0,
          "visible": true,
          "properties": [
            {
              "name": "sourceJson",
              "type": "string",
              "value": "{\"id\":\"r016\",\"x\":1152,\"y\":128,\"w\":16,\"h\":80,\"collision\":\"solid\"}"
            }
          ]
        },
        {
          "id": 11,
          "name": "r017",
          "type": "solid",
          "x": 1168,
          "y": 160,
          "width": 16,
          "height": 48,
          "rotation": 0,
          "visible": true,
          "properties": [
            {
              "name": "sourceJson",
              "type": "string",
              "value": "{\"id\":\"r017\",\"x\":1168,\"y\":160,\"w\":16,\"h\":48,\"collision\":\"solid\"}"
            }
          ]
        },
        {
          "id": 12,
          "name": "r019",
          "type": "solid",
          "x": 1264,
          "y": 160,
          "width": 32,
          "height": 48,
          "rotation": 0,
          "visible": true,
          "properties": [
            {
              "name": "sourceJson",
              "type": "string",
              "value": "{\"id\":\"r019\",\"x\":1264,\"y\":160,\"w\":32,\"h\":48,\"collision\":\"solid\"}"
            }
          ]
        },
        {
          "id": 13,
          "name": "r020",
          "type": "solid",
          "x": 1064,
          "y": 32,
          "width": 32,
          "height": 48,
          "rotation": 0,
          "visible": true,
          "properties": [
            {
              "name": "sourceJson",
              "type": "string",
              "value": "{\"id\":\"r020\",\"x\":1064,\"y\":32,\"w\":32,\"h\":48,\"collision\":\"solid\"}"
            }
          ]
        },
        {
          "id": 14,
          "name": "r023",
          "type": "solid",
          "x": 1328,
          "y": 80,
          "width": 16,
          "height": 48,
          "rotation": 0,
          "visible": true,
          "properties": [
            {
              "name": "sourceJson",
              "type": "string",
              "value": "{\"id\":\"r023\",\"x\":1328,\"y\":80,\"w\":16,\"h\":48,\"collision\":\"solid\"}"
            }
          ]
        },
        {
          "id": 15,
          "name": "r025",
          "type": "solid",
          "x": 1344,
          "y": 48,
          "width": 16,
          "height": 32,
          "rotation": 0,
          "visible": true,
          "properties": [
            {
              "name": "sourceJson",
              "type": "string",
              "value": "{\"id\":\"r025\",\"x\":1344,\"y\":48,\"w\":16,\"h\":32,\"collision\":\"solid\"}"
            }
          ]
        },
        {
          "id": 16,
          "name": "r026",
          "type": "solid",
          "x": 1440,
          "y": 160,
          "width": 16,
          "height": 48,
          "rotation": 0,
          "visible": true,
          "properties": [
            {
              "name": "sourceJson",
              "type": "string",
              "value": "{\"id\":\"r026\",\"x\":1440,\"y\":160,\"w\":16,\"h\":48,\"collision\":\"solid\"}"
            }
          ]
        },
        {
          "id": 17,
          "name": "r031",
          "type": "solid",
          "x": 1648,
          "y": 144,
          "width": 32,
          "height": 16,
          "rotation": 0,
          "visible": true,
          "properties": [
            {
              "name": "sourceJson",
              "type": "string",
              "value": "{\"id\":\"r031\",\"x\":1648,\"y\":144,\"w\":32,\"h\":16,\"collision\":\"solid\"}"
            }
          ]
        },
        {
          "id": 18,
          "name": "r032",
          "type": "solid",
          "x": 1648,
          "y": 80,
          "width": 16,
          "height": 64,
          "rotation": 0,
          "visible": true,
          "properties": [
            {
              "name": "sourceJson",
              "type": "string",
              "value": "{\"id\":\"r032\",\"x\":1648,\"y\":80,\"w\":16,\"h\":64,\"collision\":\"solid\"}"
            }
          ]
        },
        {
          "id": 19,
          "name": "r035",
          "type": "solid",
          "x": 1856,
          "y": 128,
          "width": 32,
          "height": 16,
          "rotation": 0,
          "visible": true,
          "properties": [
            {
              "name": "sourceJson",
              "type": "string",
              "value": "{\"id\":\"r035\",\"x\":1856,\"y\":128,\"w\":32,\"h\":16,\"collision\":\"solid\"}"
            }
          ]
        },
        {
          "id": 20,
          "name": "r037",
          "type": "solid",
          "x": 1936,
          "y": 144,
          "width": 16,
          "height": 64,
          "rotation": 0,
          "visible": true,
          "properties": [
            {
              "name": "sourceJson",
              "type": "string",
              "value": "{\"id\":\"r037\",\"x\":1936,\"y\":144,\"w\":16,\"h\":64,\"collision\":\"solid\"}"
            }
          ]
        },
        {
          "id": 21,
          "name": "r039",
          "type": "solid",
          "x": 2080,
          "y": 144,
          "width": 16,
          "height": 64,
          "rotation": 0,
          "visible": true,
          "properties": [
            {
              "name": "sourceJson",
              "type": "string",
              "value": "{\"id\":\"r039\",\"x\":2080,\"y\":144,\"w\":16,\"h\":64,\"collision\":\"solid\"}"
            }
          ]
        },
        {
          "id": 22,
          "name": "r040",
          "type": "solid",
          "x": 2096,
          "y": 176,
          "width": 16,
          "height": 32,
          "rotation": 0,
          "visible": true,
          "properties": [
            {
              "name": "sourceJson",
              "type": "string",
              "value": "{\"id\":\"r040\",\"x\":2096,\"y\":176,\"w\":16,\"h\":32,\"collision\":\"solid\"}"
            }
          ]
        },
        {
          "id": 23,
          "name": "r042",
          "type": "solid",
          "x": 2112,
          "y": 32,
          "width": 16,
          "height": 48,
          "rotation": 0,
          "visible": true,
          "properties": [
            {
              "name": "sourceJson",
              "type": "string",
              "value": "{\"id\":\"r042\",\"x\":2112,\"y\":32,\"w\":16,\"h\":48,\"collision\":\"solid\"}"
            }
          ]
        },
        {
          "id": 24,
          "name": "r043",
          "type": "solid",
          "x": 2128,
          "y": 64,
          "width": 128,
          "height": 16,
          "rotation": 0,
          "visible": true,
          "properties": [
            {
              "name": "sourceJson",
              "type": "string",
              "value": "{\"id\":\"r043\",\"x\":2128,\"y\":64,\"w\":128,\"h\":16,\"collision\":\"solid\"}"
            }
          ]
        },
        {
          "id": 25,
          "name": "r048",
          "type": "solid",
          "x": 2256,
          "y": 208,
          "width": 272,
          "height": 32,
          "rotation": 0,
          "visible": true,
          "properties": [
            {
              "name": "sourceJson",
              "type": "string",
              "value": "{\"id\":\"r048\",\"x\":2256,\"y\":208,\"w\":272,\"h\":32,\"collision\":\"solid\"}"
            }
          ]
        },
        {
          "id": 26,
          "name": "r049",
          "type": "solid",
          "x": 2256,
          "y": 176,
          "width": 16,
          "height": 32,
          "rotation": 0,
          "visible": true,
          "properties": [
            {
              "name": "sourceJson",
              "type": "string",
              "value": "{\"id\":\"r049\",\"x\":2256,\"y\":176,\"w\":16,\"h\":32,\"collision\":\"solid\"}"
            }
          ]
        },
        {
          "id": 27,
          "name": "r050",
          "type": "solid",
          "x": 2272,
          "y": 144,
          "width": 16,
          "height": 64,
          "rotation": 0,
          "visible": true,
          "properties": [
            {
              "name": "sourceJson",
              "type": "string",
              "value": "{\"id\":\"r050\",\"x\":2272,\"y\":144,\"w\":16,\"h\":64,\"collision\":\"solid\"}"
            }
          ]
        },
        {
          "id": 28,
          "name": "r052",
          "type": "solid",
          "x": 2368,
          "y": 176,
          "width": 16,
          "height": 32,
          "rotation": 0,
          "visible": true,
          "properties": [
            {
              "name": "sourceJson",
              "type": "string",
              "value": "{\"id\":\"r052\",\"x\":2368,\"y\":176,\"w\":16,\"h\":32,\"collision\":\"solid\"}"
            }
          ]
        },
        {
          "id": 29,
          "name": "r053",
          "type": "solid",
          "x": 2400,
          "y": 160,
          "width": 16,
          "height": 48,
          "rotation": 0,
          "visible": true,
          "properties": [
            {
              "name": "sourceJson",
              "type": "string",
              "value": "{\"id\":\"r053\",\"x\":2400,\"y\":160,\"w\":16,\"h\":48,\"collision\":\"solid\"}"
            }
          ]
        },
        {
          "id": 30,
          "name": "r055",
          "type": "solid",
          "x": 2512,
          "y": 80,
          "width": 16,
          "height": 128,
          "rotation": 0,
          "visible": true,
          "properties": [
            {
              "name": "sourceJson",
              "type": "string",
              "value": "{\"id\":\"r055\",\"x\":2512,\"y\":80,\"w\":16,\"h\":128,\"collision\":\"solid\"}"
            }
          ]
        },
        {
          "id": 31,
          "name": "r056",
          "type": "solid",
          "x": 2528,
          "y": 80,
          "width": 32,
          "height": 16,
          "rotation": 0,
          "visible": true,
          "properties": [
            {
              "name": "sourceJson",
              "type": "string",
              "value": "{\"id\":\"r056\",\"x\":2528,\"y\":80,\"w\":32,\"h\":16,\"collision\":\"solid\"}"
            }
          ]
        },
        {
          "id": 32,
          "name": "r058",
          "type": "solid",
          "x": 2608,
          "y": 80,
          "width": 32,
          "height": 16,
          "rotation": 0,
          "visible": true,
          "properties": [
            {
              "name": "sourceJson",
              "type": "string",
              "value": "{\"id\":\"r058\",\"x\":2608,\"y\":80,\"w\":32,\"h\":16,\"collision\":\"solid\"}"
            }
          ]
        },
        {
          "id": 33,
          "name": "r059",
          "type": "solid",
          "x": 2640,
          "y": 80,
          "width": 16,
          "height": 128,
          "rotation": 0,
          "visible": true,
          "properties": [
            {
              "name": "sourceJson",
              "type": "string",
              "value": "{\"id\":\"r059\",\"x\":2640,\"y\":80,\"w\":16,\"h\":128,\"collision\":\"solid\"}"
            }
          ]
        },
        {
          "id": 34,
          "name": "r060",
          "type": "solid",
          "x": 2640,
          "y": 208,
          "width": 640,
          "height": 32,
          "rotation": 0,
          "visible": true,
          "properties": [
            {
              "name": "sourceJson",
              "type": "string",
              "value": "{\"id\":\"r060\",\"x\":2640,\"y\":208,\"w\":640,\"h\":32,\"collision\":\"solid\"}"
            }
          ]
        },
        {
          "id": 35,
          "name": "r063-0-0",
          "type": "solid",
          "x": 2768,
          "y": 144,
          "width": 80,
          "height": 16,
          "rotation": 0,
          "visible": true,
          "properties": [
            {
              "name": "sourceJson",
              "type": "string",
              "value": "{\"id\":\"r063-0-0\",\"x\":2768,\"y\":144,\"w\":80,\"h\":16,\"collision\":\"solid\"}"
            }
          ]
        },
        {
          "id": 36,
          "name": "r063-0-1",
          "type": "solid",
          "x": 2768,
          "y": 80,
          "width": 80,
          "height": 16,
          "rotation": 0,
          "visible": true,
          "properties": [
            {
              "name": "sourceJson",
              "type": "string",
              "value": "{\"id\":\"r063-0-1\",\"x\":2768,\"y\":80,\"w\":80,\"h\":16,\"collision\":\"solid\"}"
            }
          ]
        },
        {
          "id": 37,
          "name": "r064",
          "type": "solid",
          "x": 2784,
          "y": 48,
          "width": 16,
          "height": 32,
          "rotation": 0,
          "visible": true,
          "properties": [
            {
              "name": "sourceJson",
              "type": "string",
              "value": "{\"id\":\"r064\",\"x\":2784,\"y\":48,\"w\":16,\"h\":32,\"collision\":\"solid\"}"
            }
          ]
        },
        {
          "id": 38,
          "name": "r066-0-0",
          "type": "solid",
          "x": 2896,
          "y": 144,
          "width": 64,
          "height": 16,
          "rotation": 0,
          "visible": true,
          "properties": [
            {
              "name": "sourceJson",
              "type": "string",
              "value": "{\"id\":\"r066-0-0\",\"x\":2896,\"y\":144,\"w\":64,\"h\":16,\"collision\":\"solid\"}"
            }
          ]
        },
        {
          "id": 39,
          "name": "r069",
          "type": "solid",
          "x": 2976,
          "y": 192,
          "width": 80,
          "height": 16,
          "rotation": 0,
          "visible": true,
          "properties": [
            {
              "name": "sourceJson",
              "type": "string",
              "value": "{\"id\":\"r069\",\"x\":2976,\"y\":192,\"w\":80,\"h\":16,\"collision\":\"solid\"}"
            }
          ]
        },
        {
          "id": 40,
          "name": "r070",
          "type": "solid",
          "x": 2992,
          "y": 176,
          "width": 64,
          "height": 16,
          "rotation": 0,
          "visible": true,
          "properties": [
            {
              "name": "sourceJson",
              "type": "string",
              "value": "{\"id\":\"r070\",\"x\":2992,\"y\":176,\"w\":64,\"h\":16,\"collision\":\"solid\"}"
            }
          ]
        },
        {
          "id": 41,
          "name": "r071",
          "type": "solid",
          "x": 3008,
          "y": 160,
          "width": 48,
          "height": 16,
          "rotation": 0,
          "visible": true,
          "properties": [
            {
              "name": "sourceJson",
              "type": "string",
              "value": "{\"id\":\"r071\",\"x\":3008,\"y\":160,\"w\":48,\"h\":16,\"collision\":\"solid\"}"
            }
          ]
        },
        {
          "id": 42,
          "name": "r072",
          "type": "solid",
          "x": 3024,
          "y": 144,
          "width": 32,
          "height": 64,
          "rotation": 0,
          "visible": true,
          "properties": [
            {
              "name": "sourceJson",
              "type": "string",
              "value": "{\"id\":\"r072\",\"x\":3024,\"y\":144,\"w\":32,\"h\":64,\"collision\":\"solid\"}"
            }
          ]
        },
        {
          "id": 43,
          "name": "r073",
          "type": "solid",
          "x": 3024,
          "y": 32,
          "width": 176,
          "height": 16,
          "rotation": 0,
          "visible": true,
          "properties": [
            {
              "name": "sourceJson",
              "type": "string",
              "value": "{\"id\":\"r073\",\"x\":3024,\"y\":32,\"w\":176,\"h\":16,\"collision\":\"solid\"}"
            }
          ]
        },
        {
          "id": 44,
          "name": "r074",
          "type": "solid",
          "x": 3040,
          "y": 112,
          "width": 32,
          "height": 32,
          "rotation": 0,
          "visible": true,
          "properties": [
            {
              "name": "sourceJson",
              "type": "string",
              "value": "{\"id\":\"r074\",\"x\":3040,\"y\":112,\"w\":32,\"h\":32,\"collision\":\"solid\"}"
            }
          ]
        },
        {
          "id": 45,
          "name": "r075",
          "type": "solid",
          "x": 3056,
          "y": 32,
          "width": 224,
          "height": 176,
          "rotation": 0,
          "visible": true,
          "properties": [
            {
              "name": "sourceJson",
              "type": "string",
              "value": "{\"id\":\"r075\",\"x\":3056,\"y\":32,\"w\":224,\"h\":176,\"collision\":\"solid\"}"
            }
          ]
        }
      ]
    },
    {
      "id": 2,
      "name": "objects",
      "type": "objectgroup",
      "visible": true,
      "opacity": 1,
      "x": 0,
      "y": 0,
      "draworder": "index",
      "objects": [
        {
          "id": 46,
          "name": "r002-0-0",
          "type": "coin",
          "x": 240,
          "y": 194,
          "width": 10,
          "height": 14,
          "rotation": 0,
          "visible": true,
          "properties": [
            {
              "name": "sourceJson",
              "type": "string",
              "value": "{\"id\":\"r002-0-0\",\"kind\":\"coin\",\"x\":240,\"y\":194,\"w\":10,\"h\":14}"
            }
          ]
        },
        {
          "id": 47,
          "name": "r002-1-0",
          "type": "coin",
          "x": 256,
          "y": 194,
          "width": 10,
          "height": 14,
          "rotation": 0,
          "visible": true,
          "properties": [
            {
              "name": "sourceJson",
              "type": "string",
              "value": "{\"id\":\"r002-1-0\",\"kind\":\"coin\",\"x\":256,\"y\":194,\"w\":10,\"h\":14}"
            }
          ]
        },
        {
          "id": 48,
          "name": "r005-0-0",
          "type": "coin",
          "x": 448,
          "y": 80,
          "width": 10,
          "height": 14,
          "rotation": 0,
          "visible": true,
          "properties": [
            {
              "name": "sourceJson",
              "type": "string",
              "value": "{\"id\":\"r005-0-0\",\"kind\":\"coin\",\"x\":448,\"y\":80,\"w\":10,\"h\":14}"
            }
          ]
        },
        {
          "id": 49,
          "name": "r005-1-0",
          "type": "coin",
          "x": 464,
          "y": 80,
          "width": 10,
          "height": 14,
          "rotation": 0,
          "visible": true,
          "properties": [
            {
              "name": "sourceJson",
              "type": "string",
              "value": "{\"id\":\"r005-1-0\",\"kind\":\"coin\",\"x\":464,\"y\":80,\"w\":10,\"h\":14}"
            }
          ]
        },
        {
          "id": 50,
          "name": "r005-2-0",
          "type": "coin",
          "x": 480,
          "y": 80,
          "width": 10,
          "height": 14,
          "rotation": 0,
          "visible": true,
          "properties": [
            {
              "name": "sourceJson",
              "type": "string",
              "value": "{\"id\":\"r005-2-0\",\"kind\":\"coin\",\"x\":480,\"y\":80,\"w\":10,\"h\":14}"
            }
          ]
        },
        {
          "id": 51,
          "name": "r007-0-0",
          "type": "coin",
          "x": 592,
          "y": 194,
          "width": 10,
          "height": 14,
          "rotation": 0,
          "visible": true,
          "properties": [
            {
              "name": "sourceJson",
              "type": "string",
              "value": "{\"id\":\"r007-0-0\",\"kind\":\"coin\",\"x\":592,\"y\":194,\"w\":10,\"h\":14}"
            }
          ]
        },
        {
          "id": 52,
          "name": "r007-1-0",
          "type": "coin",
          "x": 608,
          "y": 194,
          "width": 10,
          "height": 14,
          "rotation": 0,
          "visible": true,
          "properties": [
            {
              "name": "sourceJson",
              "type": "string",
              "value": "{\"id\":\"r007-1-0\",\"kind\":\"coin\",\"x\":608,\"y\":194,\"w\":10,\"h\":14}"
            }
          ]
        },
        {
          "id": 53,
          "name": "r007-2-0",
          "type": "coin",
          "x": 624,
          "y": 194,
          "width": 10,
          "height": 14,
          "rotation": 0,
          "visible": true,
          "properties": [
            {
              "name": "sourceJson",
              "type": "string",
              "value": "{\"id\":\"r007-2-0\",\"kind\":\"coin\",\"x\":624,\"y\":194,\"w\":10,\"h\":14}"
            }
          ]
        },
        {
          "id": 54,
          "name": "r014-0-0",
          "type": "coin",
          "x": 1092,
          "y": 162,
          "width": 10,
          "height": 14,
          "rotation": 0,
          "visible": true,
          "properties": [
            {
              "name": "sourceJson",
              "type": "string",
              "value": "{\"id\":\"r014-0-0\",\"kind\":\"coin\",\"x\":1092,\"y\":162,\"w\":10,\"h\":14}"
            }
          ]
        },
        {
          "id": 55,
          "name": "r014-1-0",
          "type": "coin",
          "x": 1108,
          "y": 162,
          "width": 10,
          "height": 14,
          "rotation": 0,
          "visible": true,
          "properties": [
            {
              "name": "sourceJson",
              "type": "string",
              "value": "{\"id\":\"r014-1-0\",\"kind\":\"coin\",\"x\":1108,\"y\":162,\"w\":10,\"h\":14}"
            }
          ]
        },
        {
          "id": 56,
          "name": "r014-2-0",
          "type": "coin",
          "x": 1124,
          "y": 162,
          "width": 10,
          "height": 14,
          "rotation": 0,
          "visible": true,
          "properties": [
            {
              "name": "sourceJson",
              "type": "string",
              "value": "{\"id\":\"r014-2-0\",\"kind\":\"coin\",\"x\":1124,\"y\":162,\"w\":10,\"h\":14}"
            }
          ]
        },
        {
          "id": 57,
          "name": "r030-0-0",
          "type": "coin",
          "x": 1632,
          "y": 178,
          "width": 10,
          "height": 14,
          "rotation": 0,
          "visible": true,
          "properties": [
            {
              "name": "sourceJson",
              "type": "string",
              "value": "{\"id\":\"r030-0-0\",\"kind\":\"coin\",\"x\":1632,\"y\":178,\"w\":10,\"h\":14}"
            }
          ]
        },
        {
          "id": 58,
          "name": "r030-1-0",
          "type": "coin",
          "x": 1648,
          "y": 178,
          "width": 10,
          "height": 14,
          "rotation": 0,
          "visible": true,
          "properties": [
            {
              "name": "sourceJson",
              "type": "string",
              "value": "{\"id\":\"r030-1-0\",\"kind\":\"coin\",\"x\":1648,\"y\":178,\"w\":10,\"h\":14}"
            }
          ]
        },
        {
          "id": 59,
          "name": "r030-2-0",
          "type": "coin",
          "x": 1664,
          "y": 178,
          "width": 10,
          "height": 14,
          "rotation": 0,
          "visible": true,
          "properties": [
            {
              "name": "sourceJson",
              "type": "string",
              "value": "{\"id\":\"r030-2-0\",\"kind\":\"coin\",\"x\":1664,\"y\":178,\"w\":10,\"h\":14}"
            }
          ]
        },
        {
          "id": 60,
          "name": "r034-0-0",
          "type": "coin",
          "x": 1824,
          "y": 98,
          "width": 10,
          "height": 14,
          "rotation": 0,
          "visible": true,
          "properties": [
            {
              "name": "sourceJson",
              "type": "string",
              "value": "{\"id\":\"r034-0-0\",\"kind\":\"coin\",\"x\":1824,\"y\":98,\"w\":10,\"h\":14}"
            }
          ]
        },
        {
          "id": 61,
          "name": "r034-1-0",
          "type": "coin",
          "x": 1840,
          "y": 98,
          "width": 10,
          "height": 14,
          "rotation": 0,
          "visible": true,
          "properties": [
            {
              "name": "sourceJson",
              "type": "string",
              "value": "{\"id\":\"r034-1-0\",\"kind\":\"coin\",\"x\":1840,\"y\":98,\"w\":10,\"h\":14}"
            }
          ]
        },
        {
          "id": 62,
          "name": "r034-2-0",
          "type": "coin",
          "x": 1856,
          "y": 98,
          "width": 10,
          "height": 14,
          "rotation": 0,
          "visible": true,
          "properties": [
            {
              "name": "sourceJson",
              "type": "string",
              "value": "{\"id\":\"r034-2-0\",\"kind\":\"coin\",\"x\":1856,\"y\":98,\"w\":10,\"h\":14}"
            }
          ]
        },
        {
          "id": 63,
          "name": "r044",
          "type": "coin",
          "x": 2144,
          "y": 178,
          "width": 10,
          "height": 14,
          "rotation": 0,
          "visible": true,
          "properties": [
            {
              "name": "sourceJson",
              "type": "string",
              "value": "{\"id\":\"r044\",\"kind\":\"coin\",\"x\":2144,\"y\":178,\"w\":10,\"h\":14}"
            }
          ]
        },
        {
          "id": 64,
          "name": "r045-0-0",
          "type": "coin",
          "x": 2160,
          "y": 194,
          "width": 10,
          "height": 14,
          "rotation": 0,
          "visible": true,
          "properties": [
            {
              "name": "sourceJson",
              "type": "string",
              "value": "{\"id\":\"r045-0-0\",\"kind\":\"coin\",\"x\":2160,\"y\":194,\"w\":10,\"h\":14}"
            }
          ]
        },
        {
          "id": 65,
          "name": "r045-1-0",
          "type": "coin",
          "x": 2176,
          "y": 194,
          "width": 10,
          "height": 14,
          "rotation": 0,
          "visible": true,
          "properties": [
            {
              "name": "sourceJson",
              "type": "string",
              "value": "{\"id\":\"r045-1-0\",\"kind\":\"coin\",\"x\":2176,\"y\":194,\"w\":10,\"h\":14}"
            }
          ]
        },
        {
          "id": 66,
          "name": "r045-2-0",
          "type": "coin",
          "x": 2192,
          "y": 194,
          "width": 10,
          "height": 14,
          "rotation": 0,
          "visible": true,
          "properties": [
            {
              "name": "sourceJson",
              "type": "string",
              "value": "{\"id\":\"r045-2-0\",\"kind\":\"coin\",\"x\":2192,\"y\":194,\"w\":10,\"h\":14}"
            }
          ]
        },
        {
          "id": 67,
          "name": "r046",
          "type": "coin",
          "x": 2208,
          "y": 178,
          "width": 10,
          "height": 14,
          "rotation": 0,
          "visible": true,
          "properties": [
            {
              "name": "sourceJson",
              "type": "string",
              "value": "{\"id\":\"r046\",\"kind\":\"coin\",\"x\":2208,\"y\":178,\"w\":10,\"h\":14}"
            }
          ]
        },
        {
          "id": 68,
          "name": "r057-0-0",
          "type": "coin",
          "x": 2562,
          "y": 144,
          "width": 10,
          "height": 14,
          "rotation": 0,
          "visible": true,
          "properties": [
            {
              "name": "sourceJson",
              "type": "string",
              "value": "{\"id\":\"r057-0-0\",\"kind\":\"coin\",\"x\":2562,\"y\":144,\"w\":10,\"h\":14}"
            }
          ]
        },
        {
          "id": 69,
          "name": "r057-0-1",
          "type": "coin",
          "x": 2562,
          "y": 192,
          "width": 10,
          "height": 14,
          "rotation": 0,
          "visible": true,
          "properties": [
            {
              "name": "sourceJson",
              "type": "string",
              "value": "{\"id\":\"r057-0-1\",\"kind\":\"coin\",\"x\":2562,\"y\":192,\"w\":10,\"h\":14}"
            }
          ]
        },
        {
          "id": 70,
          "name": "r057-1-0",
          "type": "coin",
          "x": 2578,
          "y": 144,
          "width": 10,
          "height": 14,
          "rotation": 0,
          "visible": true,
          "properties": [
            {
              "name": "sourceJson",
              "type": "string",
              "value": "{\"id\":\"r057-1-0\",\"kind\":\"coin\",\"x\":2578,\"y\":144,\"w\":10,\"h\":14}"
            }
          ]
        },
        {
          "id": 71,
          "name": "r057-1-1",
          "type": "coin",
          "x": 2578,
          "y": 192,
          "width": 10,
          "height": 14,
          "rotation": 0,
          "visible": true,
          "properties": [
            {
              "name": "sourceJson",
              "type": "string",
              "value": "{\"id\":\"r057-1-1\",\"kind\":\"coin\",\"x\":2578,\"y\":192,\"w\":10,\"h\":14}"
            }
          ]
        },
        {
          "id": 72,
          "name": "r057-2-0",
          "type": "coin",
          "x": 2594,
          "y": 144,
          "width": 10,
          "height": 14,
          "rotation": 0,
          "visible": true,
          "properties": [
            {
              "name": "sourceJson",
              "type": "string",
              "value": "{\"id\":\"r057-2-0\",\"kind\":\"coin\",\"x\":2594,\"y\":144,\"w\":10,\"h\":14}"
            }
          ]
        },
        {
          "id": 73,
          "name": "r057-2-1",
          "type": "coin",
          "x": 2594,
          "y": 192,
          "width": 10,
          "height": 14,
          "rotation": 0,
          "visible": true,
          "properties": [
            {
              "name": "sourceJson",
              "type": "string",
              "value": "{\"id\":\"r057-2-1\",\"kind\":\"coin\",\"x\":2594,\"y\":192,\"w\":10,\"h\":14}"
            }
          ]
        },
        {
          "id": 74,
          "name": "inspection-start",
          "type": "spawn",
          "x": 24,
          "y": 184,
          "width": 12,
          "height": 24,
          "rotation": 0,
          "visible": true,
          "properties": [
            {
              "name": "sourceJson",
              "type": "string",
              "value": "{\"id\":\"inspection-start\",\"kind\":\"spawn\",\"x\":24,\"y\":184,\"w\":12,\"h\":24}"
            }
          ]
        }
      ]
    },
    {
      "id": 3,
      "name": "pending-mechanics",
      "type": "objectgroup",
      "visible": true,
      "opacity": 1,
      "x": 0,
      "y": 0,
      "draworder": "index",
      "objects": [
        {
          "id": 75,
          "name": "r004",
          "type": "enemy-blooper",
          "x": 368,
          "y": 176,
          "width": 0,
          "height": 0,
          "rotation": 0,
          "visible": true,
          "point": true,
          "properties": [
            {
              "name": "sourceJson",
              "type": "string",
              "value": "{\"id\":\"r004\",\"kind\":\"enemy-blooper\",\"source\":{\"thing\":\"Blooper\",\"x\":184,\"y\":16},\"sourcePath\":{\"area\":1,\"part\":\"base\",\"record\":\"r004\"},\"x\":368,\"y\":176}"
            }
          ]
        },
        {
          "id": 76,
          "name": "r009",
          "type": "enemy-blooper",
          "x": 752,
          "y": 144,
          "width": 0,
          "height": 0,
          "rotation": 0,
          "visible": true,
          "point": true,
          "properties": [
            {
              "name": "sourceJson",
              "type": "string",
              "value": "{\"id\":\"r009\",\"kind\":\"enemy-blooper\",\"source\":{\"thing\":\"Blooper\",\"x\":376,\"y\":32},\"sourcePath\":{\"area\":1,\"part\":\"base\",\"record\":\"r009\"},\"x\":752,\"y\":144}"
            }
          ]
        },
        {
          "id": 77,
          "name": "r011",
          "type": "enemy-blooper",
          "x": 896,
          "y": 160,
          "width": 0,
          "height": 0,
          "rotation": 0,
          "visible": true,
          "point": true,
          "properties": [
            {
              "name": "sourceJson",
              "type": "string",
              "value": "{\"id\":\"r011\",\"kind\":\"enemy-blooper\",\"source\":{\"thing\":\"Blooper\",\"x\":448,\"y\":24},\"sourcePath\":{\"area\":1,\"part\":\"base\",\"record\":\"r011\"},\"x\":896,\"y\":160}"
            }
          ]
        },
        {
          "id": 78,
          "name": "r018",
          "type": "enemy-cheepcheep",
          "x": 1232,
          "y": 160,
          "width": 0,
          "height": 0,
          "rotation": 0,
          "visible": true,
          "point": true,
          "properties": [
            {
              "name": "sourceJson",
              "type": "string",
              "value": "{\"id\":\"r018\",\"kind\":\"enemy-cheepcheep\",\"source\":{\"thing\":\"CheepCheep\",\"x\":616,\"y\":24},\"sourcePath\":{\"area\":1,\"part\":\"base\",\"record\":\"r018\"},\"x\":1232,\"y\":160}"
            }
          ]
        },
        {
          "id": 79,
          "name": "r021",
          "type": "enemy-cheepcheep",
          "x": 1280,
          "y": 112,
          "width": 0,
          "height": 0,
          "rotation": 0,
          "visible": true,
          "point": true,
          "properties": [
            {
              "name": "sourceJson",
              "type": "string",
              "value": "{\"id\":\"r021\",\"kind\":\"enemy-cheepcheep\",\"source\":{\"thing\":\"CheepCheep\",\"x\":640,\"y\":48},\"sourcePath\":{\"area\":1,\"part\":\"base\",\"record\":\"r021\"},\"x\":1280,\"y\":112}"
            }
          ]
        },
        {
          "id": 80,
          "name": "r022",
          "type": "enemy-cheepcheep",
          "x": 1312,
          "y": 176,
          "width": 0,
          "height": 0,
          "rotation": 0,
          "visible": true,
          "point": true,
          "properties": [
            {
              "name": "sourceJson",
              "type": "string",
              "value": "{\"id\":\"r022\",\"kind\":\"enemy-cheepcheep\",\"source\":{\"thing\":\"CheepCheep\",\"x\":656,\"y\":16},\"sourcePath\":{\"area\":1,\"part\":\"base\",\"record\":\"r022\"},\"x\":1312,\"y\":176}"
            }
          ]
        },
        {
          "id": 81,
          "name": "r024",
          "type": "enemy-blooper",
          "x": 1344,
          "y": 128,
          "width": 0,
          "height": 0,
          "rotation": 0,
          "visible": true,
          "point": true,
          "properties": [
            {
              "name": "sourceJson",
              "type": "string",
              "value": "{\"id\":\"r024\",\"kind\":\"enemy-blooper\",\"source\":{\"thing\":\"Blooper\",\"x\":672,\"y\":40},\"sourcePath\":{\"area\":1,\"part\":\"base\",\"record\":\"r024\"},\"x\":1344,\"y\":128}"
            }
          ]
        },
        {
          "id": 82,
          "name": "r027",
          "type": "enemy-blooper",
          "x": 1520,
          "y": 48,
          "width": 0,
          "height": 0,
          "rotation": 0,
          "visible": true,
          "point": true,
          "properties": [
            {
              "name": "sourceJson",
              "type": "string",
              "value": "{\"id\":\"r027\",\"kind\":\"enemy-blooper\",\"source\":{\"thing\":\"Blooper\",\"x\":760,\"y\":80},\"sourcePath\":{\"area\":1,\"part\":\"base\",\"record\":\"r027\"},\"x\":1520,\"y\":48}"
            }
          ]
        },
        {
          "id": 83,
          "name": "r028",
          "type": "enemy-cheepcheep",
          "x": 1520,
          "y": 96,
          "width": 0,
          "height": 0,
          "rotation": 0,
          "visible": true,
          "point": true,
          "properties": [
            {
              "name": "sourceJson",
              "type": "string",
              "value": "{\"id\":\"r028\",\"kind\":\"enemy-cheepcheep\",\"source\":{\"thing\":\"CheepCheep\",\"x\":760,\"y\":56},\"sourcePath\":{\"area\":1,\"part\":\"base\",\"record\":\"r028\"},\"x\":1520,\"y\":96}"
            }
          ]
        },
        {
          "id": 84,
          "name": "r029",
          "type": "enemy-cheepcheep",
          "x": 1568,
          "y": 48,
          "width": 0,
          "height": 0,
          "rotation": 0,
          "visible": true,
          "point": true,
          "properties": [
            {
              "name": "sourceJson",
              "type": "string",
              "value": "{\"id\":\"r029\",\"kind\":\"enemy-cheepcheep\",\"source\":{\"thing\":\"CheepCheep\",\"smart\":true,\"x\":784,\"y\":80},\"sourcePath\":{\"area\":1,\"part\":\"base\",\"record\":\"r029\"},\"x\":1568,\"y\":48}"
            }
          ]
        },
        {
          "id": 85,
          "name": "r033",
          "type": "enemy-blooper",
          "x": 1696,
          "y": 176,
          "width": 0,
          "height": 0,
          "rotation": 0,
          "visible": true,
          "point": true,
          "properties": [
            {
              "name": "sourceJson",
              "type": "string",
              "value": "{\"id\":\"r033\",\"kind\":\"enemy-blooper\",\"source\":{\"thing\":\"Blooper\",\"x\":848,\"y\":16},\"sourcePath\":{\"area\":1,\"part\":\"base\",\"record\":\"r033\"},\"x\":1696,\"y\":176}"
            }
          ]
        },
        {
          "id": 86,
          "name": "r036",
          "type": "enemy-cheepcheep",
          "x": 1888,
          "y": 64,
          "width": 0,
          "height": 0,
          "rotation": 0,
          "visible": true,
          "point": true,
          "properties": [
            {
              "name": "sourceJson",
              "type": "string",
              "value": "{\"id\":\"r036\",\"kind\":\"enemy-cheepcheep\",\"source\":{\"thing\":\"CheepCheep\",\"x\":944,\"y\":72},\"sourcePath\":{\"area\":1,\"part\":\"base\",\"record\":\"r036\"},\"x\":1888,\"y\":64}"
            }
          ]
        },
        {
          "id": 87,
          "name": "r038",
          "type": "enemy-cheepcheep",
          "x": 2064,
          "y": 160,
          "width": 0,
          "height": 0,
          "rotation": 0,
          "visible": true,
          "point": true,
          "properties": [
            {
              "name": "sourceJson",
              "type": "string",
              "value": "{\"id\":\"r038\",\"kind\":\"enemy-cheepcheep\",\"source\":{\"thing\":\"CheepCheep\",\"smart\":true,\"x\":1032,\"y\":24},\"sourcePath\":{\"area\":1,\"part\":\"base\",\"record\":\"r038\"},\"x\":2064,\"y\":160}"
            }
          ]
        },
        {
          "id": 88,
          "name": "r041",
          "type": "enemy-cheepcheep",
          "x": 2112,
          "y": 176,
          "width": 0,
          "height": 0,
          "rotation": 0,
          "visible": true,
          "point": true,
          "properties": [
            {
              "name": "sourceJson",
              "type": "string",
              "value": "{\"id\":\"r041\",\"kind\":\"enemy-cheepcheep\",\"source\":{\"thing\":\"CheepCheep\",\"x\":1056,\"y\":16},\"sourcePath\":{\"area\":1,\"part\":\"base\",\"record\":\"r041\"},\"x\":2112,\"y\":176}"
            }
          ]
        },
        {
          "id": 89,
          "name": "r047",
          "type": "enemy-cheepcheep",
          "x": 2200,
          "y": 128,
          "width": 0,
          "height": 0,
          "rotation": 0,
          "visible": true,
          "point": true,
          "properties": [
            {
              "name": "sourceJson",
              "type": "string",
              "value": "{\"id\":\"r047\",\"kind\":\"enemy-cheepcheep\",\"source\":{\"thing\":\"CheepCheep\",\"x\":1100,\"y\":40},\"sourcePath\":{\"area\":1,\"part\":\"base\",\"record\":\"r047\"},\"x\":2200,\"y\":128}"
            }
          ]
        },
        {
          "id": 90,
          "name": "r051",
          "type": "enemy-cheepcheep",
          "x": 2320,
          "y": 144,
          "width": 0,
          "height": 0,
          "rotation": 0,
          "visible": true,
          "point": true,
          "properties": [
            {
              "name": "sourceJson",
              "type": "string",
              "value": "{\"id\":\"r051\",\"kind\":\"enemy-cheepcheep\",\"source\":{\"thing\":\"CheepCheep\",\"x\":1160,\"y\":32},\"sourcePath\":{\"area\":1,\"part\":\"base\",\"record\":\"r051\"},\"x\":2320,\"y\":144}"
            }
          ]
        },
        {
          "id": 91,
          "name": "r054",
          "type": "enemy-cheepcheep",
          "x": 2412,
          "y": 96,
          "width": 0,
          "height": 0,
          "rotation": 0,
          "visible": true,
          "point": true,
          "properties": [
            {
              "name": "sourceJson",
              "type": "string",
              "value": "{\"id\":\"r054\",\"kind\":\"enemy-cheepcheep\",\"source\":{\"thing\":\"CheepCheep\",\"smart\":true,\"x\":1206,\"y\":56},\"sourcePath\":{\"area\":1,\"part\":\"base\",\"record\":\"r054\"},\"x\":2412,\"y\":96}"
            }
          ]
        },
        {
          "id": 92,
          "name": "r061",
          "type": "enemy-cheepcheep",
          "x": 2640,
          "y": 48,
          "width": 0,
          "height": 0,
          "rotation": 0,
          "visible": true,
          "point": true,
          "properties": [
            {
              "name": "sourceJson",
              "type": "string",
              "value": "{\"id\":\"r061\",\"kind\":\"enemy-cheepcheep\",\"source\":{\"thing\":\"CheepCheep\",\"x\":1320,\"y\":80},\"sourcePath\":{\"area\":1,\"part\":\"base\",\"record\":\"r061\"},\"x\":2640,\"y\":48}"
            }
          ]
        },
        {
          "id": 93,
          "name": "r062",
          "type": "enemy-cheepcheep",
          "x": 2688,
          "y": 176,
          "width": 0,
          "height": 0,
          "rotation": 0,
          "visible": true,
          "point": true,
          "properties": [
            {
              "name": "sourceJson",
              "type": "string",
              "value": "{\"id\":\"r062\",\"kind\":\"enemy-cheepcheep\",\"source\":{\"thing\":\"CheepCheep\",\"x\":1344,\"y\":16,\"smart\":true},\"sourcePath\":{\"area\":1,\"part\":\"base\",\"record\":\"r062\"},\"x\":2688,\"y\":176}"
            }
          ]
        },
        {
          "id": 94,
          "name": "r065",
          "type": "enemy-cheepcheep",
          "x": 2816,
          "y": 128,
          "width": 0,
          "height": 0,
          "rotation": 0,
          "visible": true,
          "point": true,
          "properties": [
            {
              "name": "sourceJson",
              "type": "string",
              "value": "{\"id\":\"r065\",\"kind\":\"enemy-cheepcheep\",\"source\":{\"thing\":\"CheepCheep\",\"x\":1408,\"y\":40},\"sourcePath\":{\"area\":1,\"part\":\"base\",\"record\":\"r065\"},\"x\":2816,\"y\":128}"
            }
          ]
        },
        {
          "id": 95,
          "name": "r066-attribute-yum",
          "type": "source-attribute-review",
          "x": 2896,
          "y": 144,
          "width": 0,
          "height": 0,
          "rotation": 0,
          "visible": true,
          "point": true,
          "properties": [
            {
              "name": "sourceJson",
              "type": "string",
              "value": "{\"id\":\"r066-attribute-yum\",\"kind\":\"source-attribute-review\",\"source\":{\"macro\":\"Fill\",\"thing\":\"Stone\",\"width\":32,\"x\":1448,\"y\":32,\"yum\":2,\"Yheight\":32},\"sourcePath\":{\"area\":1,\"part\":\"base\",\"record\":\"r066\"},\"x\":2896,\"y\":144}"
            }
          ]
        },
        {
          "id": 96,
          "name": "r066-attribute-yheight",
          "type": "source-attribute-review",
          "x": 2896,
          "y": 144,
          "width": 0,
          "height": 0,
          "rotation": 0,
          "visible": true,
          "point": true,
          "properties": [
            {
              "name": "sourceJson",
              "type": "string",
              "value": "{\"id\":\"r066-attribute-yheight\",\"kind\":\"source-attribute-review\",\"source\":{\"macro\":\"Fill\",\"thing\":\"Stone\",\"width\":32,\"x\":1448,\"y\":32,\"yum\":2,\"Yheight\":32},\"sourcePath\":{\"area\":1,\"part\":\"base\",\"record\":\"r066\"},\"x\":2896,\"y\":144}"
            }
          ]
        },
        {
          "id": 97,
          "name": "r067",
          "type": "enemy-cheepcheep",
          "x": 2944,
          "y": 64,
          "width": 0,
          "height": 0,
          "rotation": 0,
          "visible": true,
          "point": true,
          "properties": [
            {
              "name": "sourceJson",
              "type": "string",
              "value": "{\"id\":\"r067\",\"kind\":\"enemy-cheepcheep\",\"source\":{\"thing\":\"CheepCheep\",\"smart\":true,\"x\":1472,\"y\":72},\"sourcePath\":{\"area\":1,\"part\":\"base\",\"record\":\"r067\"},\"x\":2944,\"y\":64}"
            }
          ]
        },
        {
          "id": 98,
          "name": "r068",
          "type": "enemy-cheepcheep",
          "x": 2992,
          "y": 112,
          "width": 0,
          "height": 0,
          "rotation": 0,
          "visible": true,
          "point": true,
          "properties": [
            {
              "name": "sourceJson",
              "type": "string",
              "value": "{\"id\":\"r068\",\"kind\":\"enemy-cheepcheep\",\"source\":{\"thing\":\"CheepCheep\",\"smart\":true,\"x\":1496,\"y\":48},\"sourcePath\":{\"area\":1,\"part\":\"base\",\"record\":\"r068\"},\"x\":2992,\"y\":112}"
            }
          ]
        },
        {
          "id": 99,
          "name": "r074-target",
          "type": "missing-source-transport",
          "x": 3040,
          "y": 112,
          "width": 0,
          "height": 0,
          "rotation": 0,
          "visible": true,
          "point": true,
          "properties": [
            {
              "name": "sourceJson",
              "type": "string",
              "value": "{\"id\":\"r074-target\",\"kind\":\"missing-source-transport\",\"source\":{\"thing\":\"PipeHorizontal\",\"x\":1520,\"y\":48,\"width\":16},\"sourcePath\":{\"area\":1,\"part\":\"base\",\"record\":\"r074\"},\"x\":3040,\"y\":112}"
            }
          ]
        },
        {
          "id": 100,
          "name": "r076",
          "type": "enemy-blooper",
          "x": 416,
          "y": 116,
          "width": 0,
          "height": 0,
          "rotation": 0,
          "visible": true,
          "point": true,
          "properties": [
            {
              "name": "sourceJson",
              "type": "string",
              "value": "{\"id\":\"r076\",\"kind\":\"enemy-blooper\",\"source\":{\"thing\":\"Blooper\",\"x\":208,\"y\":46},\"sourcePath\":{\"area\":1,\"part\":\"base\",\"record\":\"r076\"},\"x\":416,\"y\":116}"
            }
          ]
        },
        {
          "id": 101,
          "name": "r077",
          "type": "enemy-blooper",
          "x": 848,
          "y": 116,
          "width": 0,
          "height": 0,
          "rotation": 0,
          "visible": true,
          "point": true,
          "properties": [
            {
              "name": "sourceJson",
              "type": "string",
              "value": "{\"id\":\"r077\",\"kind\":\"enemy-blooper\",\"source\":{\"thing\":\"Blooper\",\"x\":424,\"y\":46},\"sourcePath\":{\"area\":1,\"part\":\"base\",\"record\":\"r077\"},\"x\":848,\"y\":116}"
            }
          ]
        },
        {
          "id": 102,
          "name": "r078",
          "type": "enemy-blooper",
          "x": 1248,
          "y": 100,
          "width": 0,
          "height": 0,
          "rotation": 0,
          "visible": true,
          "point": true,
          "properties": [
            {
              "name": "sourceJson",
              "type": "string",
              "value": "{\"id\":\"r078\",\"kind\":\"enemy-blooper\",\"source\":{\"thing\":\"Blooper\",\"x\":624,\"y\":54},\"sourcePath\":{\"area\":1,\"part\":\"base\",\"record\":\"r078\"},\"x\":1248,\"y\":100}"
            }
          ]
        },
        {
          "id": 103,
          "name": "r079",
          "type": "enemy-blooper",
          "x": 1456,
          "y": 176,
          "width": 0,
          "height": 0,
          "rotation": 0,
          "visible": true,
          "point": true,
          "properties": [
            {
              "name": "sourceJson",
              "type": "string",
              "value": "{\"id\":\"r079\",\"kind\":\"enemy-blooper\",\"source\":{\"thing\":\"Blooper\",\"x\":728,\"y\":16},\"sourcePath\":{\"area\":1,\"part\":\"base\",\"record\":\"r079\"},\"x\":1456,\"y\":176}"
            }
          ]
        },
        {
          "id": 104,
          "name": "r080",
          "type": "enemy-cheepcheep",
          "x": 1632,
          "y": 160,
          "width": 0,
          "height": 0,
          "rotation": 0,
          "visible": true,
          "point": true,
          "properties": [
            {
              "name": "sourceJson",
              "type": "string",
              "value": "{\"id\":\"r080\",\"kind\":\"enemy-cheepcheep\",\"source\":{\"thing\":\"CheepCheep\",\"x\":816,\"y\":24},\"sourcePath\":{\"area\":1,\"part\":\"base\",\"record\":\"r080\"},\"x\":1632,\"y\":160}"
            }
          ]
        },
        {
          "id": 105,
          "name": "r081",
          "type": "enemy-blooper",
          "x": 2416,
          "y": 132,
          "width": 0,
          "height": 0,
          "rotation": 0,
          "visible": true,
          "point": true,
          "properties": [
            {
              "name": "sourceJson",
              "type": "string",
              "value": "{\"id\":\"r081\",\"kind\":\"enemy-blooper\",\"source\":{\"thing\":\"Blooper\",\"x\":1208,\"y\":38},\"sourcePath\":{\"area\":1,\"part\":\"base\",\"record\":\"r081\"},\"x\":2416,\"y\":132}"
            }
          ]
        },
        {
          "id": 106,
          "name": "r082",
          "type": "enemy-blooper",
          "x": 2784,
          "y": 180,
          "width": 0,
          "height": 0,
          "rotation": 0,
          "visible": true,
          "point": true,
          "properties": [
            {
              "name": "sourceJson",
              "type": "string",
              "value": "{\"id\":\"r082\",\"kind\":\"enemy-blooper\",\"source\":{\"thing\":\"Blooper\",\"x\":1392,\"y\":14},\"sourcePath\":{\"area\":1,\"part\":\"base\",\"record\":\"r082\"},\"x\":2784,\"y\":180}"
            }
          ]
        },
        {
          "id": 107,
          "name": "r083",
          "type": "enemy-blooper",
          "x": 2880,
          "y": 180,
          "width": 0,
          "height": 0,
          "rotation": 0,
          "visible": true,
          "point": true,
          "properties": [
            {
              "name": "sourceJson",
              "type": "string",
              "value": "{\"id\":\"r083\",\"kind\":\"enemy-blooper\",\"source\":{\"thing\":\"Blooper\",\"x\":1440,\"y\":14},\"sourcePath\":{\"area\":1,\"part\":\"base\",\"record\":\"r083\"},\"x\":2880,\"y\":180}"
            }
          ]
        },
        {
          "id": 108,
          "name": "environment",
          "type": "underwater-physics",
          "x": 0,
          "y": 32,
          "width": 0,
          "height": 0,
          "rotation": 0,
          "visible": true,
          "point": true,
          "properties": [
            {
              "name": "sourceJson",
              "type": "string",
              "value": "{\"id\":\"environment\",\"kind\":\"underwater-physics\",\"source\":{\"x\":0,\"y\":88},\"sourcePath\":{\"area\":1,\"part\":\"base\",\"record\":\"environment\"},\"x\":0,\"y\":32}"
            }
          ]
        }
      ]
    }
  ],
  "properties": [
    {
      "name": "room",
      "type": "string",
      "value": "area-1"
    },
    {
      "name": "underwater",
      "type": "bool",
      "value": true
    },
    {
      "name": "inspectionOnly",
      "type": "bool",
      "value": true
    },
    {
      "name": "referenceReview",
      "type": "string",
      "value": "pending"
    }
  ]
}
