{
  "type": "map",
  "version": "1.10",
  "orientation": "orthogonal",
  "renderorder": "right-down",
  "width": 160,
  "height": 15,
  "tilewidth": 16,
  "tileheight": 16,
  "infinite": false,
  "nextlayerid": 4,
  "nextobjectid": 92,
  "tilesets": [],
  "layers": [
    {
      "id": 1,
      "name": "collision",
      "type": "objectgroup",
      "visible": true,
      "opacity": 1,
      "x": 0,
      "y": 0,
      "draworder": "index",
      "objects": [
        {
          "id": 1,
          "name": "r000-0",
          "type": "solid",
          "x": 0,
          "y": 112,
          "width": 48,
          "height": 128,
          "rotation": 0,
          "visible": true,
          "properties": [
            {
              "name": "sourceJson",
              "type": "string",
              "value": "{\"id\":\"r000-0\",\"x\":0,\"y\":112,\"w\":48,\"h\":128,\"collision\":\"solid\"}"
            }
          ]
        },
        {
          "id": 2,
          "name": "r000-24",
          "type": "solid",
          "x": 48,
          "y": 128,
          "width": 16,
          "height": 112,
          "rotation": 0,
          "visible": true,
          "properties": [
            {
              "name": "sourceJson",
              "type": "string",
              "value": "{\"id\":\"r000-24\",\"x\":48,\"y\":128,\"w\":16,\"h\":112,\"collision\":\"solid\"}"
            }
          ]
        },
        {
          "id": 3,
          "name": "r000-32",
          "type": "solid",
          "x": 64,
          "y": 144,
          "width": 16,
          "height": 96,
          "rotation": 0,
          "visible": true,
          "properties": [
            {
              "name": "sourceJson",
              "type": "string",
              "value": "{\"id\":\"r000-32\",\"x\":64,\"y\":144,\"w\":16,\"h\":96,\"collision\":\"solid\"}"
            }
          ]
        },
        {
          "id": 4,
          "name": "r000-floor",
          "type": "solid",
          "x": 80,
          "y": 160,
          "width": 176,
          "height": 80,
          "rotation": 0,
          "visible": true,
          "properties": [
            {
              "name": "sourceJson",
              "type": "string",
              "value": "{\"id\":\"r000-floor\",\"x\":80,\"y\":160,\"w\":176,\"h\":80,\"collision\":\"solid\"}"
            }
          ]
        },
        {
          "id": 5,
          "name": "r001",
          "type": "solid",
          "x": 0,
          "y": 32,
          "width": 256,
          "height": 48,
          "rotation": 0,
          "visible": true,
          "properties": [
            {
              "name": "sourceJson",
              "type": "string",
              "value": "{\"id\":\"r001\",\"x\":0,\"y\":32,\"w\":256,\"h\":48,\"collision\":\"solid\"}"
            }
          ]
        },
        {
          "id": 6,
          "name": "r002",
          "type": "solid",
          "x": 256,
          "y": 32,
          "width": 1792,
          "height": 16,
          "rotation": 0,
          "visible": true,
          "properties": [
            {
              "name": "sourceJson",
              "type": "string",
              "value": "{\"id\":\"r002\",\"x\":256,\"y\":32,\"w\":1792,\"h\":16,\"collision\":\"solid\"}"
            }
          ]
        },
        {
          "id": 7,
          "name": "r004",
          "type": "solid",
          "x": 288,
          "y": 160,
          "width": 16,
          "height": 80,
          "rotation": 0,
          "visible": true,
          "properties": [
            {
              "name": "sourceJson",
              "type": "string",
              "value": "{\"id\":\"r004\",\"x\":288,\"y\":160,\"w\":16,\"h\":80,\"collision\":\"solid\"}"
            }
          ]
        },
        {
          "id": 8,
          "name": "r005",
          "type": "solid",
          "x": 304,
          "y": 192,
          "width": 16,
          "height": 48,
          "rotation": 0,
          "visible": true,
          "properties": [
            {
              "name": "sourceJson",
              "type": "string",
              "value": "{\"id\":\"r005\",\"x\":304,\"y\":192,\"w\":16,\"h\":48,\"collision\":\"solid\"}"
            }
          ]
        },
        {
          "id": 9,
          "name": "r006-0-0",
          "type": "solid",
          "x": 304,
          "y": 160,
          "width": 16,
          "height": 16,
          "rotation": 0,
          "visible": true,
          "properties": [
            {
              "name": "sourceJson",
              "type": "string",
              "value": "{\"id\":\"r006-0-0\",\"x\":304,\"y\":160,\"w\":16,\"h\":16,\"collision\":\"solid\"}"
            }
          ]
        },
        {
          "id": 10,
          "name": "r006-1-0",
          "type": "solid",
          "x": 384,
          "y": 160,
          "width": 16,
          "height": 16,
          "rotation": 0,
          "visible": true,
          "properties": [
            {
              "name": "sourceJson",
              "type": "string",
              "value": "{\"id\":\"r006-1-0\",\"x\":384,\"y\":160,\"w\":16,\"h\":16,\"collision\":\"solid\"}"
            }
          ]
        },
        {
          "id": 11,
          "name": "r006-2-0",
          "type": "solid",
          "x": 464,
          "y": 160,
          "width": 16,
          "height": 16,
          "rotation": 0,
          "visible": true,
          "properties": [
            {
              "name": "sourceJson",
              "type": "string",
              "value": "{\"id\":\"r006-2-0\",\"x\":464,\"y\":160,\"w\":16,\"h\":16,\"collision\":\"solid\"}"
            }
          ]
        },
        {
          "id": 12,
          "name": "r007-0-0",
          "type": "solid",
          "x": 304,
          "y": 176,
          "width": 16,
          "height": 16,
          "rotation": 0,
          "visible": true,
          "properties": [
            {
              "name": "sourceJson",
              "type": "string",
              "value": "{\"id\":\"r007-0-0\",\"x\":304,\"y\":176,\"w\":16,\"h\":16,\"collision\":\"solid\"}"
            }
          ]
        },
        {
          "id": 13,
          "name": "r007-1-0",
          "type": "solid",
          "x": 384,
          "y": 176,
          "width": 16,
          "height": 16,
          "rotation": 0,
          "visible": true,
          "properties": [
            {
              "name": "sourceJson",
              "type": "string",
              "value": "{\"id\":\"r007-1-0\",\"x\":384,\"y\":176,\"w\":16,\"h\":16,\"collision\":\"solid\"}"
            }
          ]
        },
        {
          "id": 14,
          "name": "r007-2-0",
          "type": "solid",
          "x": 464,
          "y": 176,
          "width": 16,
          "height": 16,
          "rotation": 0,
          "visible": true,
          "properties": [
            {
              "name": "sourceJson",
              "type": "string",
              "value": "{\"id\":\"r007-2-0\",\"x\":464,\"y\":176,\"w\":16,\"h\":16,\"collision\":\"solid\"}"
            }
          ]
        },
        {
          "id": 15,
          "name": "r008",
          "type": "solid",
          "x": 320,
          "y": 160,
          "width": 16,
          "height": 80,
          "rotation": 0,
          "visible": true,
          "properties": [
            {
              "name": "sourceJson",
              "type": "string",
              "value": "{\"id\":\"r008\",\"x\":320,\"y\":160,\"w\":16,\"h\":80,\"collision\":\"solid\"}"
            }
          ]
        },
        {
          "id": 16,
          "name": "r009",
          "type": "solid",
          "x": 368,
          "y": 160,
          "width": 16,
          "height": 80,
          "rotation": 0,
          "visible": true,
          "properties": [
            {
              "name": "sourceJson",
              "type": "string",
              "value": "{\"id\":\"r009\",\"x\":368,\"y\":160,\"w\":16,\"h\":80,\"collision\":\"solid\"}"
            }
          ]
        },
        {
          "id": 17,
          "name": "r010",
          "type": "solid",
          "x": 384,
          "y": 192,
          "width": 16,
          "height": 48,
          "rotation": 0,
          "visible": true,
          "properties": [
            {
              "name": "sourceJson",
              "type": "string",
              "value": "{\"id\":\"r010\",\"x\":384,\"y\":192,\"w\":16,\"h\":48,\"collision\":\"solid\"}"
            }
          ]
        },
        {
          "id": 18,
          "name": "r011",
          "type": "solid",
          "x": 400,
          "y": 160,
          "width": 16,
          "height": 80,
          "rotation": 0,
          "visible": true,
          "properties": [
            {
              "name": "sourceJson",
              "type": "string",
              "value": "{\"id\":\"r011\",\"x\":400,\"y\":160,\"w\":16,\"h\":80,\"collision\":\"solid\"}"
            }
          ]
        },
        {
          "id": 19,
          "name": "r013",
          "type": "solid",
          "x": 448,
          "y": 160,
          "width": 16,
          "height": 80,
          "rotation": 0,
          "visible": true,
          "properties": [
            {
              "name": "sourceJson",
              "type": "string",
              "value": "{\"id\":\"r013\",\"x\":448,\"y\":160,\"w\":16,\"h\":80,\"collision\":\"solid\"}"
            }
          ]
        },
        {
          "id": 20,
          "name": "r014",
          "type": "solid",
          "x": 464,
          "y": 192,
          "width": 16,
          "height": 48,
          "rotation": 0,
          "visible": true,
          "properties": [
            {
              "name": "sourceJson",
              "type": "string",
              "value": "{\"id\":\"r014\",\"x\":464,\"y\":192,\"w\":16,\"h\":48,\"collision\":\"solid\"}"
            }
          ]
        },
        {
          "id": 21,
          "name": "r015",
          "type": "solid",
          "x": 480,
          "y": 160,
          "width": 16,
          "height": 80,
          "rotation": 0,
          "visible": true,
          "properties": [
            {
              "name": "sourceJson",
              "type": "string",
              "value": "{\"id\":\"r015\",\"x\":480,\"y\":160,\"w\":16,\"h\":80,\"collision\":\"solid\"}"
            }
          ]
        },
        {
          "id": 22,
          "name": "r016",
          "type": "solid",
          "x": 528,
          "y": 208,
          "width": 208,
          "height": 32,
          "rotation": 0,
          "visible": true,
          "properties": [
            {
              "name": "sourceJson",
              "type": "string",
              "value": "{\"id\":\"r016\",\"x\":528,\"y\":208,\"w\":208,\"h\":32,\"collision\":\"solid\"}"
            }
          ]
        },
        {
          "id": 23,
          "name": "r017",
          "type": "solid",
          "x": 528,
          "y": 160,
          "width": 32,
          "height": 48,
          "rotation": 0,
          "visible": true,
          "properties": [
            {
              "name": "sourceJson",
              "type": "string",
              "value": "{\"id\":\"r017\",\"x\":528,\"y\":160,\"w\":32,\"h\":48,\"collision\":\"solid\"}"
            }
          ]
        },
        {
          "id": 24,
          "name": "r018",
          "type": "solid",
          "x": 560,
          "y": 48,
          "width": 176,
          "height": 32,
          "rotation": 0,
          "visible": true,
          "properties": [
            {
              "name": "sourceJson",
              "type": "string",
              "value": "{\"id\":\"r018\",\"x\":560,\"y\":48,\"w\":176,\"h\":32,\"collision\":\"solid\"}"
            }
          ]
        },
        {
          "id": 25,
          "name": "r019",
          "type": "solid",
          "x": 672,
          "y": 144,
          "width": 16,
          "height": 16,
          "rotation": 0,
          "visible": true,
          "properties": [
            {
              "name": "sourceJson",
              "type": "string",
              "value": "{\"id\":\"r019\",\"x\":672,\"y\":144,\"w\":16,\"h\":16,\"collision\":\"solid\"}"
            }
          ]
        },
        {
          "id": 26,
          "name": "r020",
          "type": "solid",
          "x": 688,
          "y": 144,
          "width": 16,
          "height": 16,
          "rotation": 0,
          "visible": true,
          "properties": [
            {
              "name": "sourceJson",
              "type": "string",
              "value": "{\"id\":\"r020\",\"x\":688,\"y\":144,\"w\":16,\"h\":16,\"collision\":\"solid\"}"
            }
          ]
        },
        {
          "id": 27,
          "name": "r021",
          "type": "solid",
          "x": 704,
          "y": 144,
          "width": 16,
          "height": 16,
          "rotation": 0,
          "visible": true,
          "properties": [
            {
              "name": "sourceJson",
              "type": "string",
              "value": "{\"id\":\"r021\",\"x\":704,\"y\":144,\"w\":16,\"h\":16,\"collision\":\"solid\"}"
            }
          ]
        },
        {
          "id": 28,
          "name": "r023",
          "type": "solid",
          "x": 768,
          "y": 208,
          "width": 640,
          "height": 32,
          "rotation": 0,
          "visible": true,
          "properties": [
            {
              "name": "sourceJson",
              "type": "string",
              "value": "{\"id\":\"r023\",\"x\":768,\"y\":208,\"w\":640,\"h\":32,\"collision\":\"solid\"}"
            }
          ]
        },
        {
          "id": 29,
          "name": "r024-0-0",
          "type": "solid",
          "x": 848,
          "y": 192,
          "width": 48,
          "height": 16,
          "rotation": 0,
          "visible": true,
          "properties": [
            {
              "name": "sourceJson",
              "type": "string",
              "value": "{\"id\":\"r024-0-0\",\"x\":848,\"y\":192,\"w\":48,\"h\":16,\"collision\":\"solid\"}"
            }
          ]
        },
        {
          "id": 30,
          "name": "r024-1-0",
          "type": "solid",
          "x": 1008,
          "y": 192,
          "width": 48,
          "height": 16,
          "rotation": 0,
          "visible": true,
          "properties": [
            {
              "name": "sourceJson",
              "type": "string",
              "value": "{\"id\":\"r024-1-0\",\"x\":1008,\"y\":192,\"w\":48,\"h\":16,\"collision\":\"solid\"}"
            }
          ]
        },
        {
          "id": 31,
          "name": "r025-0-0",
          "type": "solid",
          "x": 848,
          "y": 48,
          "width": 48,
          "height": 32,
          "rotation": 0,
          "visible": true,
          "properties": [
            {
              "name": "sourceJson",
              "type": "string",
              "value": "{\"id\":\"r025-0-0\",\"x\":848,\"y\":48,\"w\":48,\"h\":32,\"collision\":\"solid\"}"
            }
          ]
        },
        {
          "id": 32,
          "name": "r025-1-0",
          "type": "solid",
          "x": 1008,
          "y": 48,
          "width": 48,
          "height": 32,
          "rotation": 0,
          "visible": true,
          "properties": [
            {
              "name": "sourceJson",
              "type": "string",
              "value": "{\"id\":\"r025-1-0\",\"x\":1008,\"y\":48,\"w\":48,\"h\":32,\"collision\":\"solid\"}"
            }
          ]
        },
        {
          "id": 33,
          "name": "r026-0-0",
          "type": "solid",
          "x": 864,
          "y": 176,
          "width": 16,
          "height": 16,
          "rotation": 0,
          "visible": true,
          "properties": [
            {
              "name": "sourceJson",
              "type": "string",
              "value": "{\"id\":\"r026-0-0\",\"x\":864,\"y\":176,\"w\":16,\"h\":16,\"collision\":\"solid\"}"
            }
          ]
        },
        {
          "id": 34,
          "name": "r026-1-0",
          "type": "solid",
          "x": 1024,
          "y": 176,
          "width": 16,
          "height": 16,
          "rotation": 0,
          "visible": true,
          "properties": [
            {
              "name": "sourceJson",
              "type": "string",
              "value": "{\"id\":\"r026-1-0\",\"x\":1024,\"y\":176,\"w\":16,\"h\":16,\"collision\":\"solid\"}"
            }
          ]
        },
        {
          "id": 35,
          "name": "r027-0-0",
          "type": "solid",
          "x": 864,
          "y": 80,
          "width": 16,
          "height": 16,
          "rotation": 0,
          "visible": true,
          "properties": [
            {
              "name": "sourceJson",
              "type": "string",
              "value": "{\"id\":\"r027-0-0\",\"x\":864,\"y\":80,\"w\":16,\"h\":16,\"collision\":\"solid\"}"
            }
          ]
        },
        {
          "id": 36,
          "name": "r027-1-0",
          "type": "solid",
          "x": 1024,
          "y": 80,
          "width": 16,
          "height": 16,
          "rotation": 0,
          "visible": true,
          "properties": [
            {
              "name": "sourceJson",
              "type": "string",
              "value": "{\"id\":\"r027-1-0\",\"x\":1024,\"y\":80,\"w\":16,\"h\":16,\"collision\":\"solid\"}"
            }
          ]
        },
        {
          "id": 37,
          "name": "r028",
          "type": "solid",
          "x": 1264,
          "y": 192,
          "width": 48,
          "height": 16,
          "rotation": 0,
          "visible": true,
          "properties": [
            {
              "name": "sourceJson",
              "type": "string",
              "value": "{\"id\":\"r028\",\"x\":1264,\"y\":192,\"w\":48,\"h\":16,\"collision\":\"solid\"}"
            }
          ]
        },
        {
          "id": 38,
          "name": "r029",
          "type": "solid",
          "x": 1264,
          "y": 48,
          "width": 48,
          "height": 32,
          "rotation": 0,
          "visible": true,
          "properties": [
            {
              "name": "sourceJson",
              "type": "string",
              "value": "{\"id\":\"r029\",\"x\":1264,\"y\":48,\"w\":48,\"h\":32,\"collision\":\"solid\"}"
            }
          ]
        },
        {
          "id": 39,
          "name": "r030",
          "type": "solid",
          "x": 1280,
          "y": 176,
          "width": 16,
          "height": 16,
          "rotation": 0,
          "visible": true,
          "properties": [
            {
              "name": "sourceJson",
              "type": "string",
              "value": "{\"id\":\"r030\",\"x\":1280,\"y\":176,\"w\":16,\"h\":16,\"collision\":\"solid\"}"
            }
          ]
        },
        {
          "id": 40,
          "name": "r031",
          "type": "solid",
          "x": 1280,
          "y": 80,
          "width": 16,
          "height": 16,
          "rotation": 0,
          "visible": true,
          "properties": [
            {
              "name": "sourceJson",
              "type": "string",
              "value": "{\"id\":\"r031\",\"x\":1280,\"y\":80,\"w\":16,\"h\":16,\"collision\":\"solid\"}"
            }
          ]
        },
        {
          "id": 41,
          "name": "r035",
          "type": "solid",
          "x": 1440,
          "y": 160,
          "width": 96,
          "height": 80,
          "rotation": 0,
          "visible": true,
          "properties": [
            {
              "name": "sourceJson",
              "type": "string",
              "value": "{\"id\":\"r035\",\"x\":1440,\"y\":160,\"w\":96,\"h\":80,\"collision\":\"solid\"}"
            }
          ]
        },
        {
          "id": 42,
          "name": "r036",
          "type": "solid",
          "x": 1440,
          "y": 48,
          "width": 96,
          "height": 32,
          "rotation": 0,
          "visible": true,
          "properties": [
            {
              "name": "sourceJson",
              "type": "string",
              "value": "{\"id\":\"r036\",\"x\":1440,\"y\":48,\"w\":96,\"h\":32,\"collision\":\"solid\"}"
            }
          ]
        },
        {
          "id": 43,
          "name": "r039",
          "type": "solid",
          "x": 1584,
          "y": 160,
          "width": 48,
          "height": 80,
          "rotation": 0,
          "visible": true,
          "properties": [
            {
              "name": "sourceJson",
              "type": "string",
              "value": "{\"id\":\"r039\",\"x\":1584,\"y\":160,\"w\":48,\"h\":80,\"collision\":\"solid\"}"
            }
          ]
        },
        {
          "id": 44,
          "name": "r042",
          "type": "solid",
          "x": 1680,
          "y": 160,
          "width": 48,
          "height": 80,
          "rotation": 0,
          "visible": true,
          "properties": [
            {
              "name": "sourceJson",
              "type": "string",
              "value": "{\"id\":\"r042\",\"x\":1680,\"y\":160,\"w\":48,\"h\":80,\"collision\":\"solid\"}"
            }
          ]
        },
        {
          "id": 45,
          "name": "r045",
          "type": "solid",
          "x": 1776,
          "y": 208,
          "width": 272,
          "height": 32,
          "rotation": 0,
          "visible": true,
          "properties": [
            {
              "name": "sourceJson",
              "type": "string",
              "value": "{\"id\":\"r045\",\"x\":1776,\"y\":208,\"w\":272,\"h\":32,\"collision\":\"solid\"}"
            }
          ]
        },
        {
          "id": 46,
          "name": "r046",
          "type": "solid",
          "x": 1776,
          "y": 160,
          "width": 80,
          "height": 48,
          "rotation": 0,
          "visible": true,
          "properties": [
            {
              "name": "sourceJson",
              "type": "string",
              "value": "{\"id\":\"r046\",\"x\":1776,\"y\":160,\"w\":80,\"h\":48,\"collision\":\"solid\"}"
            }
          ]
        },
        {
          "id": 47,
          "name": "r047",
          "type": "solid",
          "x": 1776,
          "y": 48,
          "width": 272,
          "height": 32,
          "rotation": 0,
          "visible": true,
          "properties": [
            {
              "name": "sourceJson",
              "type": "string",
              "value": "{\"id\":\"r047\",\"x\":1776,\"y\":48,\"w\":272,\"h\":32,\"collision\":\"solid\"}"
            }
          ]
        },
        {
          "id": 48,
          "name": "r048",
          "type": "solid",
          "x": 1888,
          "y": 160,
          "width": 160,
          "height": 48,
          "rotation": 0,
          "visible": true,
          "properties": [
            {
              "name": "sourceJson",
              "type": "string",
              "value": "{\"id\":\"r048\",\"x\":1888,\"y\":160,\"w\":160,\"h\":48,\"collision\":\"solid\"}"
            }
          ]
        },
        {
          "id": 49,
          "name": "r049-roof",
          "type": "solid",
          "x": 2048,
          "y": 32,
          "width": 512,
          "height": 16,
          "rotation": 0,
          "visible": true,
          "properties": [
            {
              "name": "sourceJson",
              "type": "string",
              "value": "{\"id\":\"r049-roof\",\"x\":2048,\"y\":32,\"w\":512,\"h\":16,\"collision\":\"solid\"}"
            }
          ]
        },
        {
          "id": 50,
          "name": "r049-bridge",
          "type": "solid",
          "x": 2048,
          "y": 160,
          "width": 208,
          "height": 16,
          "rotation": 0,
          "visible": true,
          "properties": [
            {
              "name": "sourceJson",
              "type": "string",
              "value": "{\"id\":\"r049-bridge\",\"x\":2048,\"y\":160,\"w\":208,\"h\":16,\"collision\":\"solid\"}"
            }
          ]
        },
        {
          "id": 51,
          "name": "r049-floor",
          "type": "solid",
          "x": 2256,
          "y": 208,
          "width": 304,
          "height": 32,
          "rotation": 0,
          "visible": true,
          "properties": [
            {
              "name": "sourceJson",
              "type": "string",
              "value": "{\"id\":\"r049-floor\",\"x\":2256,\"y\":208,\"w\":304,\"h\":32,\"collision\":\"solid\"}"
            }
          ]
        },
        {
          "id": 52,
          "name": "r049-step",
          "type": "solid",
          "x": 2256,
          "y": 144,
          "width": 48,
          "height": 64,
          "rotation": 0,
          "visible": true,
          "properties": [
            {
              "name": "sourceJson",
              "type": "string",
              "value": "{\"id\":\"r049-step\",\"x\":2256,\"y\":144,\"w\":48,\"h\":64,\"collision\":\"solid\"}"
            }
          ]
        },
        {
          "id": 53,
          "name": "r049-ceiling",
          "type": "solid",
          "x": 2272,
          "y": 48,
          "width": 32,
          "height": 48,
          "rotation": 0,
          "visible": true,
          "properties": [
            {
              "name": "sourceJson",
              "type": "string",
              "value": "{\"id\":\"r049-ceiling\",\"x\":2272,\"y\":48,\"w\":32,\"h\":48,\"collision\":\"solid\"}"
            }
          ]
        },
        {
          "id": 54,
          "name": "r050-0-0",
          "type": "solid",
          "x": 2112,
          "y": 80,
          "width": 16,
          "height": 16,
          "rotation": 0,
          "visible": true,
          "properties": [
            {
              "name": "sourceJson",
              "type": "string",
              "value": "{\"id\":\"r050-0-0\",\"x\":2112,\"y\":80,\"w\":16,\"h\":16,\"collision\":\"solid\"}"
            }
          ]
        },
        {
          "id": 55,
          "name": "r050-0-1",
          "type": "solid",
          "x": 2112,
          "y": 64,
          "width": 16,
          "height": 16,
          "rotation": 0,
          "visible": true,
          "properties": [
            {
              "name": "sourceJson",
              "type": "string",
              "value": "{\"id\":\"r050-0-1\",\"x\":2112,\"y\":64,\"w\":16,\"h\":16,\"collision\":\"solid\"}"
            }
          ]
        },
        {
          "id": 56,
          "name": "r050-0-2",
          "type": "solid",
          "x": 2112,
          "y": 48,
          "width": 16,
          "height": 16,
          "rotation": 0,
          "visible": true,
          "properties": [
            {
              "name": "sourceJson",
              "type": "string",
              "value": "{\"id\":\"r050-0-2\",\"x\":2112,\"y\":48,\"w\":16,\"h\":16,\"collision\":\"solid\"}"
            }
          ]
        },
        {
          "id": 57,
          "name": "r050-1-0",
          "type": "solid",
          "x": 2128,
          "y": 80,
          "width": 16,
          "height": 16,
          "rotation": 0,
          "visible": true,
          "properties": [
            {
              "name": "sourceJson",
              "type": "string",
              "value": "{\"id\":\"r050-1-0\",\"x\":2128,\"y\":80,\"w\":16,\"h\":16,\"collision\":\"solid\"}"
            }
          ]
        },
        {
          "id": 58,
          "name": "r050-1-1",
          "type": "solid",
          "x": 2128,
          "y": 64,
          "width": 16,
          "height": 16,
          "rotation": 0,
          "visible": true,
          "properties": [
            {
              "name": "sourceJson",
              "type": "string",
              "value": "{\"id\":\"r050-1-1\",\"x\":2128,\"y\":64,\"w\":16,\"h\":16,\"collision\":\"solid\"}"
            }
          ]
        },
        {
          "id": 59,
          "name": "r050-1-2",
          "type": "solid",
          "x": 2128,
          "y": 48,
          "width": 16,
          "height": 16,
          "rotation": 0,
          "visible": true,
          "properties": [
            {
              "name": "sourceJson",
              "type": "string",
              "value": "{\"id\":\"r050-1-2\",\"x\":2128,\"y\":48,\"w\":16,\"h\":16,\"collision\":\"solid\"}"
            }
          ]
        },
        {
          "id": 60,
          "name": "r051",
          "type": "oneway",
          "x": 2168,
          "y": 96,
          "width": 32,
          "height": 8,
          "rotation": 0,
          "visible": true,
          "properties": [
            {
              "name": "sourceJson",
              "type": "string",
              "value": "{\"id\":\"r051\",\"x\":2168,\"y\":96,\"w\":32,\"h\":8,\"collision\":\"oneway\"}"
            }
          ]
        }
      ]
    },
    {
      "id": 2,
      "name": "objects",
      "type": "objectgroup",
      "visible": true,
      "opacity": 1,
      "x": 0,
      "y": 0,
      "draworder": "index",
      "objects": [
        {
          "id": 61,
          "name": "r032-0-0",
          "type": "coin",
          "x": 1298,
          "y": 98,
          "width": 10,
          "height": 14,
          "rotation": 0,
          "visible": true,
          "properties": [
            {
              "name": "sourceJson",
              "type": "string",
              "value": "{\"id\":\"r032-0-0\",\"kind\":\"coin\",\"x\":1298,\"y\":98,\"w\":10,\"h\":14}"
            }
          ]
        },
        {
          "id": 62,
          "name": "r032-1-0",
          "type": "coin",
          "x": 1314,
          "y": 98,
          "width": 10,
          "height": 14,
          "rotation": 0,
          "visible": true,
          "properties": [
            {
              "name": "sourceJson",
              "type": "string",
              "value": "{\"id\":\"r032-1-0\",\"kind\":\"coin\",\"x\":1314,\"y\":98,\"w\":10,\"h\":14}"
            }
          ]
        },
        {
          "id": 63,
          "name": "r032-2-0",
          "type": "coin",
          "x": 1330,
          "y": 98,
          "width": 10,
          "height": 14,
          "rotation": 0,
          "visible": true,
          "properties": [
            {
              "name": "sourceJson",
              "type": "string",
              "value": "{\"id\":\"r032-2-0\",\"kind\":\"coin\",\"x\":1330,\"y\":98,\"w\":10,\"h\":14}"
            }
          ]
        },
        {
          "id": 64,
          "name": "inspection-start",
          "type": "spawn",
          "x": 24,
          "y": 88,
          "width": 12,
          "height": 24,
          "rotation": 0,
          "visible": true,
          "properties": [
            {
              "name": "sourceJson",
              "type": "string",
              "value": "{\"id\":\"inspection-start\",\"kind\":\"spawn\",\"x\":24,\"y\":88,\"w\":12,\"h\":24}"
            }
          ]
        }
      ]
    },
    {
      "id": 3,
      "name": "pending-mechanics",
      "type": "objectgroup",
      "visible": true,
      "opacity": 1,
      "x": 0,
      "y": 0,
      "draworder": "index",
      "objects": [
        {
          "id": 65,
          "name": "r003",
          "type": "enemy-podoboo",
          "x": 256,
          "y": 272,
          "width": 0,
          "height": 0,
          "rotation": 0,
          "visible": true,
          "point": true,
          "properties": [
            {
              "name": "sourceJson",
              "type": "string",
              "value": "{\"id\":\"r003\",\"kind\":\"enemy-podoboo\",\"source\":{\"thing\":\"Podoboo\",\"x\":128,\"y\":-32},\"sourcePath\":{\"area\":0,\"part\":\"base\",\"record\":\"r003\"},\"x\":256,\"y\":272}"
            }
          ]
        },
        {
          "id": 66,
          "name": "r007-0-0-fire",
          "type": "rotating-firebar",
          "x": 304,
          "y": 176,
          "width": 0,
          "height": 0,
          "rotation": 0,
          "visible": true,
          "point": true,
          "properties": [
            {
              "name": "sourceJson",
              "type": "string",
              "value": "{\"id\":\"r007-0-0-fire\",\"kind\":\"rotating-firebar\",\"source\":{\"thing\":\"CastleBlock\",\"fireballs\":6,\"x\":152,\"y\":16},\"sourcePath\":{\"area\":0,\"part\":\"base\",\"record\":\"r007\"},\"x\":304,\"y\":176}"
            }
          ]
        },
        {
          "id": 67,
          "name": "r007-1-0-fire",
          "type": "rotating-firebar",
          "x": 384,
          "y": 176,
          "width": 0,
          "height": 0,
          "rotation": 0,
          "visible": true,
          "point": true,
          "properties": [
            {
              "name": "sourceJson",
              "type": "string",
              "value": "{\"id\":\"r007-1-0-fire\",\"kind\":\"rotating-firebar\",\"source\":{\"thing\":\"CastleBlock\",\"fireballs\":6,\"x\":192,\"y\":16},\"sourcePath\":{\"area\":0,\"part\":\"base\",\"record\":\"r007\"},\"x\":384,\"y\":176}"
            }
          ]
        },
        {
          "id": 68,
          "name": "r007-2-0-fire",
          "type": "rotating-firebar",
          "x": 464,
          "y": 176,
          "width": 0,
          "height": 0,
          "rotation": 0,
          "visible": true,
          "point": true,
          "properties": [
            {
              "name": "sourceJson",
              "type": "string",
              "value": "{\"id\":\"r007-2-0-fire\",\"kind\":\"rotating-firebar\",\"source\":{\"thing\":\"CastleBlock\",\"fireballs\":6,\"x\":232,\"y\":16},\"sourcePath\":{\"area\":0,\"part\":\"base\",\"record\":\"r007\"},\"x\":464,\"y\":176}"
            }
          ]
        },
        {
          "id": 69,
          "name": "r012",
          "type": "enemy-podoboo",
          "x": 416,
          "y": 272,
          "width": 0,
          "height": 0,
          "rotation": 0,
          "visible": true,
          "point": true,
          "properties": [
            {
              "name": "sourceJson",
              "type": "string",
              "value": "{\"id\":\"r012\",\"kind\":\"enemy-podoboo\",\"source\":{\"thing\":\"Podoboo\",\"x\":208,\"y\":-32},\"sourcePath\":{\"area\":0,\"part\":\"base\",\"record\":\"r012\"},\"x\":416,\"y\":272}"
            }
          ]
        },
        {
          "id": 70,
          "name": "r020-contents",
          "type": "block-contents",
          "x": 688,
          "y": 144,
          "width": 0,
          "height": 0,
          "rotation": 0,
          "visible": true,
          "point": true,
          "properties": [
            {
              "name": "sourceJson",
              "type": "string",
              "value": "{\"id\":\"r020-contents\",\"kind\":\"block-contents\",\"source\":{\"thing\":\"Block\",\"contents\":\"Mushroom\",\"x\":344,\"y\":32},\"sourcePath\":{\"area\":0,\"part\":\"base\",\"record\":\"r020\"},\"x\":688,\"y\":144}"
            }
          ]
        },
        {
          "id": 71,
          "name": "r022",
          "type": "lava-volume",
          "x": 736,
          "y": 208,
          "width": 0,
          "height": 0,
          "rotation": 0,
          "visible": true,
          "point": true,
          "properties": [
            {
              "name": "sourceJson",
              "type": "string",
              "value": "{\"id\":\"r022\",\"kind\":\"lava-volume\",\"source\":{\"macro\":\"Water\",\"width\":16,\"x\":368,\"y\":0},\"sourcePath\":{\"area\":0,\"part\":\"base\",\"record\":\"r022\"},\"x\":736,\"y\":208}"
            }
          ]
        },
        {
          "id": 72,
          "name": "r026-0-0-fire",
          "type": "rotating-firebar",
          "x": 864,
          "y": 176,
          "width": 0,
          "height": 0,
          "rotation": 0,
          "visible": true,
          "point": true,
          "properties": [
            {
              "name": "sourceJson",
              "type": "string",
              "value": "{\"id\":\"r026-0-0-fire\",\"kind\":\"rotating-firebar\",\"source\":{\"thing\":\"CastleBlock\",\"fireballs\":6,\"direction\":1,\"x\":432,\"y\":16},\"sourcePath\":{\"area\":0,\"part\":\"base\",\"record\":\"r026\"},\"x\":864,\"y\":176}"
            }
          ]
        },
        {
          "id": 73,
          "name": "r026-1-0-fire",
          "type": "rotating-firebar",
          "x": 1024,
          "y": 176,
          "width": 0,
          "height": 0,
          "rotation": 0,
          "visible": true,
          "point": true,
          "properties": [
            {
              "name": "sourceJson",
              "type": "string",
              "value": "{\"id\":\"r026-1-0-fire\",\"kind\":\"rotating-firebar\",\"source\":{\"thing\":\"CastleBlock\",\"fireballs\":6,\"direction\":1,\"x\":512,\"y\":16},\"sourcePath\":{\"area\":0,\"part\":\"base\",\"record\":\"r026\"},\"x\":1024,\"y\":176}"
            }
          ]
        },
        {
          "id": 74,
          "name": "r027-0-0-fire",
          "type": "rotating-firebar",
          "x": 864,
          "y": 80,
          "width": 0,
          "height": 0,
          "rotation": 0,
          "visible": true,
          "point": true,
          "properties": [
            {
              "name": "sourceJson",
              "type": "string",
              "value": "{\"id\":\"r027-0-0-fire\",\"kind\":\"rotating-firebar\",\"source\":{\"thing\":\"CastleBlock\",\"fireballs\":6,\"x\":432,\"y\":64},\"sourcePath\":{\"area\":0,\"part\":\"base\",\"record\":\"r027\"},\"x\":864,\"y\":80}"
            }
          ]
        },
        {
          "id": 75,
          "name": "r027-1-0-fire",
          "type": "rotating-firebar",
          "x": 1024,
          "y": 80,
          "width": 0,
          "height": 0,
          "rotation": 0,
          "visible": true,
          "point": true,
          "properties": [
            {
              "name": "sourceJson",
              "type": "string",
              "value": "{\"id\":\"r027-1-0-fire\",\"kind\":\"rotating-firebar\",\"source\":{\"thing\":\"CastleBlock\",\"fireballs\":6,\"x\":512,\"y\":64},\"sourcePath\":{\"area\":0,\"part\":\"base\",\"record\":\"r027\"},\"x\":1024,\"y\":80}"
            }
          ]
        },
        {
          "id": 76,
          "name": "r030-fire",
          "type": "rotating-firebar",
          "x": 1280,
          "y": 176,
          "width": 0,
          "height": 0,
          "rotation": 0,
          "visible": true,
          "point": true,
          "properties": [
            {
              "name": "sourceJson",
              "type": "string",
              "value": "{\"id\":\"r030-fire\",\"kind\":\"rotating-firebar\",\"source\":{\"thing\":\"CastleBlock\",\"fireballs\":6,\"x\":640,\"y\":16},\"sourcePath\":{\"area\":0,\"part\":\"base\",\"record\":\"r030\"},\"x\":1280,\"y\":176}"
            }
          ]
        },
        {
          "id": 77,
          "name": "r031-fire",
          "type": "rotating-firebar",
          "x": 1280,
          "y": 80,
          "width": 0,
          "height": 0,
          "rotation": 0,
          "visible": true,
          "point": true,
          "properties": [
            {
              "name": "sourceJson",
              "type": "string",
              "value": "{\"id\":\"r031-fire\",\"kind\":\"rotating-firebar\",\"source\":{\"thing\":\"CastleBlock\",\"fireballs\":6,\"direction\":1,\"x\":640,\"y\":64},\"sourcePath\":{\"area\":0,\"part\":\"base\",\"record\":\"r031\"},\"x\":1280,\"y\":80}"
            }
          ]
        },
        {
          "id": 78,
          "name": "r033",
          "type": "enemy-podoboo",
          "x": 1408,
          "y": 272,
          "width": 0,
          "height": 0,
          "rotation": 0,
          "visible": true,
          "point": true,
          "properties": [
            {
              "name": "sourceJson",
              "type": "string",
              "value": "{\"id\":\"r033\",\"kind\":\"enemy-podoboo\",\"source\":{\"thing\":\"Podoboo\",\"x\":704,\"y\":-32},\"sourcePath\":{\"area\":0,\"part\":\"base\",\"record\":\"r033\"},\"x\":1408,\"y\":272}"
            }
          ]
        },
        {
          "id": 79,
          "name": "r034",
          "type": "lava-volume",
          "x": 1408,
          "y": 208,
          "width": 0,
          "height": 0,
          "rotation": 0,
          "visible": true,
          "point": true,
          "properties": [
            {
              "name": "sourceJson",
              "type": "string",
              "value": "{\"id\":\"r034\",\"kind\":\"lava-volume\",\"source\":{\"macro\":\"Water\",\"width\":16,\"x\":704,\"y\":0},\"sourcePath\":{\"area\":0,\"part\":\"base\",\"record\":\"r034\"},\"x\":1408,\"y\":208}"
            }
          ]
        },
        {
          "id": 80,
          "name": "r037",
          "type": "lava-volume",
          "x": 1536,
          "y": 208,
          "width": 0,
          "height": 0,
          "rotation": 0,
          "visible": true,
          "point": true,
          "properties": [
            {
              "name": "sourceJson",
              "type": "string",
              "value": "{\"id\":\"r037\",\"kind\":\"lava-volume\",\"source\":{\"macro\":\"Water\",\"width\":24,\"x\":768,\"y\":0},\"sourcePath\":{\"area\":0,\"part\":\"base\",\"record\":\"r037\"},\"x\":1536,\"y\":208}"
            }
          ]
        },
        {
          "id": 81,
          "name": "r038",
          "type": "enemy-podoboo",
          "x": 1552,
          "y": 272,
          "width": 0,
          "height": 0,
          "rotation": 0,
          "visible": true,
          "point": true,
          "properties": [
            {
              "name": "sourceJson",
              "type": "string",
              "value": "{\"id\":\"r038\",\"kind\":\"enemy-podoboo\",\"source\":{\"thing\":\"Podoboo\",\"x\":776,\"y\":-32},\"sourcePath\":{\"area\":0,\"part\":\"base\",\"record\":\"r038\"},\"x\":1552,\"y\":272}"
            }
          ]
        },
        {
          "id": 82,
          "name": "r040",
          "type": "lava-volume",
          "x": 1632,
          "y": 208,
          "width": 0,
          "height": 0,
          "rotation": 0,
          "visible": true,
          "point": true,
          "properties": [
            {
              "name": "sourceJson",
              "type": "string",
              "value": "{\"id\":\"r040\",\"kind\":\"lava-volume\",\"source\":{\"macro\":\"Water\",\"width\":24,\"x\":816,\"y\":0},\"sourcePath\":{\"area\":0,\"part\":\"base\",\"record\":\"r040\"},\"x\":1632,\"y\":208}"
            }
          ]
        },
        {
          "id": 83,
          "name": "r041",
          "type": "enemy-podoboo",
          "x": 1648,
          "y": 272,
          "width": 0,
          "height": 0,
          "rotation": 0,
          "visible": true,
          "point": true,
          "properties": [
            {
              "name": "sourceJson",
              "type": "string",
              "value": "{\"id\":\"r041\",\"kind\":\"enemy-podoboo\",\"source\":{\"thing\":\"Podoboo\",\"x\":824,\"y\":-32},\"sourcePath\":{\"area\":0,\"part\":\"base\",\"record\":\"r041\"},\"x\":1648,\"y\":272}"
            }
          ]
        },
        {
          "id": 84,
          "name": "r043",
          "type": "lava-volume",
          "x": 1728,
          "y": 208,
          "width": 0,
          "height": 0,
          "rotation": 0,
          "visible": true,
          "point": true,
          "properties": [
            {
              "name": "sourceJson",
              "type": "string",
              "value": "{\"id\":\"r043\",\"kind\":\"lava-volume\",\"source\":{\"macro\":\"Water\",\"width\":24,\"x\":864,\"y\":0},\"sourcePath\":{\"area\":0,\"part\":\"base\",\"record\":\"r043\"},\"x\":1728,\"y\":208}"
            }
          ]
        },
        {
          "id": 85,
          "name": "r044",
          "type": "enemy-podoboo",
          "x": 1744,
          "y": 272,
          "width": 0,
          "height": 0,
          "rotation": 0,
          "visible": true,
          "point": true,
          "properties": [
            {
              "name": "sourceJson",
              "type": "string",
              "value": "{\"id\":\"r044\",\"kind\":\"enemy-podoboo\",\"source\":{\"thing\":\"Podoboo\",\"x\":872,\"y\":-32},\"sourcePath\":{\"area\":0,\"part\":\"base\",\"record\":\"r044\"},\"x\":1744,\"y\":272}"
            }
          ]
        },
        {
          "id": 86,
          "name": "r049-boss",
          "type": "enemy-bowser",
          "x": 2186,
          "y": 124,
          "width": 0,
          "height": 0,
          "rotation": 0,
          "visible": true,
          "point": true,
          "properties": [
            {
              "name": "sourceJson",
              "type": "string",
              "value": "{\"id\":\"r049-boss\",\"kind\":\"enemy-bowser\",\"source\":{\"thing\":\"Bowser\",\"x\":1093,\"y\":42},\"sourcePath\":{\"area\":0,\"part\":\"base\",\"record\":\"r049\"},\"x\":2186,\"y\":124}"
            }
          ]
        },
        {
          "id": 87,
          "name": "r049-lava",
          "type": "lava-volume",
          "x": 2048,
          "y": 208,
          "width": 0,
          "height": 0,
          "rotation": 0,
          "visible": true,
          "point": true,
          "properties": [
            {
              "name": "sourceJson",
              "type": "string",
              "value": "{\"id\":\"r049-lava\",\"kind\":\"lava-volume\",\"source\":{\"macro\":\"Water\",\"x\":1024,\"y\":0,\"width\":104},\"sourcePath\":{\"area\":0,\"part\":\"base\",\"record\":\"r049\"},\"x\":2048,\"y\":208}"
            }
          ]
        },
        {
          "id": 88,
          "name": "r049-chain",
          "type": "marker-CastleChain",
          "x": 2240,
          "y": 144,
          "width": 0,
          "height": 0,
          "rotation": 0,
          "visible": true,
          "point": true,
          "properties": [
            {
              "name": "sourceJson",
              "type": "string",
              "value": "{\"id\":\"r049-chain\",\"kind\":\"marker-CastleChain\",\"source\":{\"thing\":\"CastleChain\",\"x\":1120,\"y\":32},\"sourcePath\":{\"area\":0,\"part\":\"base\",\"record\":\"r049\"},\"x\":2240,\"y\":144}"
            }
          ]
        },
        {
          "id": 89,
          "name": "r049-axe",
          "type": "bridge-axe-finish",
          "x": 2256,
          "y": 128,
          "width": 0,
          "height": 0,
          "rotation": 0,
          "visible": true,
          "point": true,
          "properties": [
            {
              "name": "sourceJson",
              "type": "string",
              "value": "{\"id\":\"r049-axe\",\"kind\":\"bridge-axe-finish\",\"source\":{\"thing\":\"CastleAxe\",\"x\":1128,\"y\":40},\"sourcePath\":{\"area\":0,\"part\":\"base\",\"record\":\"r049\"},\"x\":2256,\"y\":128}"
            }
          ]
        },
        {
          "id": 90,
          "name": "r049",
          "type": "castle-finish",
          "x": 2048,
          "y": 208,
          "width": 0,
          "height": 0,
          "rotation": 0,
          "visible": true,
          "point": true,
          "properties": [
            {
              "name": "sourceJson",
              "type": "string",
              "value": "{\"id\":\"r049\",\"kind\":\"castle-finish\",\"source\":{\"macro\":\"EndInsideCastle\",\"spawnType\":\"Beetle\",\"transport\":{\"map\":\"4-1\"},\"x\":1024,\"y\":0},\"sourcePath\":{\"area\":0,\"part\":\"base\",\"record\":\"r049\"},\"x\":2048,\"y\":208}"
            }
          ]
        },
        {
          "id": 91,
          "name": "r049-transport",
          "type": "source-transport-not-simulated",
          "x": 2048,
          "y": 208,
          "width": 0,
          "height": 0,
          "rotation": 0,
          "visible": true,
          "point": true,
          "properties": [
            {
              "name": "sourceJson",
              "type": "string",
              "value": "{\"id\":\"r049-transport\",\"kind\":\"source-transport-not-simulated\",\"source\":{\"macro\":\"EndInsideCastle\",\"spawnType\":\"Beetle\",\"transport\":{\"map\":\"4-1\"},\"x\":1024,\"y\":0},\"sourcePath\":{\"area\":0,\"part\":\"base\",\"record\":\"r049\"},\"x\":2048,\"y\":208}"
            }
          ]
        }
      ]
    }
  ],
  "properties": [
    {
      "name": "room",
      "type": "string",
      "value": "area-0"
    },
    {
      "name": "underwater",
      "type": "bool",
      "value": false
    },
    {
      "name": "inspectionOnly",
      "type": "bool",
      "value": true
    },
    {
      "name": "referenceReview",
      "type": "string",
      "value": "pending"
    }
  ]
}
