{
  "type": "map",
  "version": "1.10",
  "orientation": "orthogonal",
  "renderorder": "right-down",
  "width": 72,
  "height": 15,
  "tilewidth": 16,
  "tileheight": 16,
  "infinite": false,
  "nextlayerid": 4,
  "nextobjectid": 48,
  "tilesets": [],
  "layers": [
    {
      "id": 1,
      "name": "collision",
      "type": "objectgroup",
      "visible": true,
      "opacity": 1,
      "x": 0,
      "y": 0,
      "draworder": "index",
      "objects": [
        {
          "id": 1,
          "name": "r000",
          "type": "solid",
          "x": 0,
          "y": 208,
          "width": 64,
          "height": 16,
          "rotation": 0,
          "visible": true,
          "properties": [
            {
              "name": "sourceJson",
              "type": "string",
              "value": "{\"id\":\"r000\",\"x\":0,\"y\":208,\"w\":64,\"h\":16,\"collision\":\"solid\"}"
            }
          ]
        },
        {
          "id": 2,
          "name": "r001",
          "type": "solid",
          "x": 80,
          "y": 208,
          "width": 912,
          "height": 16,
          "rotation": 0,
          "visible": true,
          "properties": [
            {
              "name": "sourceJson",
              "type": "string",
              "value": "{\"id\":\"r001\",\"x\":80,\"y\":208,\"w\":912,\"h\":16,\"collision\":\"solid\"}"
            }
          ]
        },
        {
          "id": 3,
          "name": "r003",
          "type": "oneway",
          "x": 256,
          "y": 160,
          "width": 48,
          "height": 8,
          "rotation": 0,
          "visible": true,
          "properties": [
            {
              "name": "sourceJson",
              "type": "string",
              "value": "{\"id\":\"r003\",\"x\":256,\"y\":160,\"w\":48,\"h\":8,\"collision\":\"oneway\"}"
            }
          ]
        }
      ]
    },
    {
      "id": 2,
      "name": "objects",
      "type": "objectgroup",
      "visible": true,
      "opacity": 1,
      "x": 0,
      "y": 0,
      "draworder": "index",
      "objects": [
        {
          "id": 4,
          "name": "r002-0-0",
          "type": "coin",
          "x": 242,
          "y": 98,
          "width": 10,
          "height": 14,
          "rotation": 0,
          "visible": true,
          "properties": [
            {
              "name": "sourceJson",
              "type": "string",
              "value": "{\"id\":\"r002-0-0\",\"kind\":\"coin\",\"x\":242,\"y\":98,\"w\":10,\"h\":14}"
            }
          ]
        },
        {
          "id": 5,
          "name": "r002-1-0",
          "type": "coin",
          "x": 258,
          "y": 98,
          "width": 10,
          "height": 14,
          "rotation": 0,
          "visible": true,
          "properties": [
            {
              "name": "sourceJson",
              "type": "string",
              "value": "{\"id\":\"r002-1-0\",\"kind\":\"coin\",\"x\":258,\"y\":98,\"w\":10,\"h\":14}"
            }
          ]
        },
        {
          "id": 6,
          "name": "r002-2-0",
          "type": "coin",
          "x": 274,
          "y": 98,
          "width": 10,
          "height": 14,
          "rotation": 0,
          "visible": true,
          "properties": [
            {
              "name": "sourceJson",
              "type": "string",
              "value": "{\"id\":\"r002-2-0\",\"kind\":\"coin\",\"x\":274,\"y\":98,\"w\":10,\"h\":14}"
            }
          ]
        },
        {
          "id": 7,
          "name": "r002-3-0",
          "type": "coin",
          "x": 290,
          "y": 98,
          "width": 10,
          "height": 14,
          "rotation": 0,
          "visible": true,
          "properties": [
            {
              "name": "sourceJson",
              "type": "string",
              "value": "{\"id\":\"r002-3-0\",\"kind\":\"coin\",\"x\":290,\"y\":98,\"w\":10,\"h\":14}"
            }
          ]
        },
        {
          "id": 8,
          "name": "r002-4-0",
          "type": "coin",
          "x": 306,
          "y": 98,
          "width": 10,
          "height": 14,
          "rotation": 0,
          "visible": true,
          "properties": [
            {
              "name": "sourceJson",
              "type": "string",
              "value": "{\"id\":\"r002-4-0\",\"kind\":\"coin\",\"x\":306,\"y\":98,\"w\":10,\"h\":14}"
            }
          ]
        },
        {
          "id": 9,
          "name": "r002-5-0",
          "type": "coin",
          "x": 322,
          "y": 98,
          "width": 10,
          "height": 14,
          "rotation": 0,
          "visible": true,
          "properties": [
            {
              "name": "sourceJson",
              "type": "string",
              "value": "{\"id\":\"r002-5-0\",\"kind\":\"coin\",\"x\":322,\"y\":98,\"w\":10,\"h\":14}"
            }
          ]
        },
        {
          "id": 10,
          "name": "r002-6-0",
          "type": "coin",
          "x": 338,
          "y": 98,
          "width": 10,
          "height": 14,
          "rotation": 0,
          "visible": true,
          "properties": [
            {
              "name": "sourceJson",
              "type": "string",
              "value": "{\"id\":\"r002-6-0\",\"kind\":\"coin\",\"x\":338,\"y\":98,\"w\":10,\"h\":14}"
            }
          ]
        },
        {
          "id": 11,
          "name": "r002-7-0",
          "type": "coin",
          "x": 354,
          "y": 98,
          "width": 10,
          "height": 14,
          "rotation": 0,
          "visible": true,
          "properties": [
            {
              "name": "sourceJson",
              "type": "string",
              "value": "{\"id\":\"r002-7-0\",\"kind\":\"coin\",\"x\":354,\"y\":98,\"w\":10,\"h\":14}"
            }
          ]
        },
        {
          "id": 12,
          "name": "r002-8-0",
          "type": "coin",
          "x": 370,
          "y": 98,
          "width": 10,
          "height": 14,
          "rotation": 0,
          "visible": true,
          "properties": [
            {
              "name": "sourceJson",
              "type": "string",
              "value": "{\"id\":\"r002-8-0\",\"kind\":\"coin\",\"x\":370,\"y\":98,\"w\":10,\"h\":14}"
            }
          ]
        },
        {
          "id": 13,
          "name": "r002-9-0",
          "type": "coin",
          "x": 386,
          "y": 98,
          "width": 10,
          "height": 14,
          "rotation": 0,
          "visible": true,
          "properties": [
            {
              "name": "sourceJson",
              "type": "string",
              "value": "{\"id\":\"r002-9-0\",\"kind\":\"coin\",\"x\":386,\"y\":98,\"w\":10,\"h\":14}"
            }
          ]
        },
        {
          "id": 14,
          "name": "r002-10-0",
          "type": "coin",
          "x": 402,
          "y": 98,
          "width": 10,
          "height": 14,
          "rotation": 0,
          "visible": true,
          "properties": [
            {
              "name": "sourceJson",
              "type": "string",
              "value": "{\"id\":\"r002-10-0\",\"kind\":\"coin\",\"x\":402,\"y\":98,\"w\":10,\"h\":14}"
            }
          ]
        },
        {
          "id": 15,
          "name": "r002-11-0",
          "type": "coin",
          "x": 418,
          "y": 98,
          "width": 10,
          "height": 14,
          "rotation": 0,
          "visible": true,
          "properties": [
            {
              "name": "sourceJson",
              "type": "string",
              "value": "{\"id\":\"r002-11-0\",\"kind\":\"coin\",\"x\":418,\"y\":98,\"w\":10,\"h\":14}"
            }
          ]
        },
        {
          "id": 16,
          "name": "r002-12-0",
          "type": "coin",
          "x": 434,
          "y": 98,
          "width": 10,
          "height": 14,
          "rotation": 0,
          "visible": true,
          "properties": [
            {
              "name": "sourceJson",
              "type": "string",
              "value": "{\"id\":\"r002-12-0\",\"kind\":\"coin\",\"x\":434,\"y\":98,\"w\":10,\"h\":14}"
            }
          ]
        },
        {
          "id": 17,
          "name": "r002-13-0",
          "type": "coin",
          "x": 450,
          "y": 98,
          "width": 10,
          "height": 14,
          "rotation": 0,
          "visible": true,
          "properties": [
            {
              "name": "sourceJson",
              "type": "string",
              "value": "{\"id\":\"r002-13-0\",\"kind\":\"coin\",\"x\":450,\"y\":98,\"w\":10,\"h\":14}"
            }
          ]
        },
        {
          "id": 18,
          "name": "r002-14-0",
          "type": "coin",
          "x": 466,
          "y": 98,
          "width": 10,
          "height": 14,
          "rotation": 0,
          "visible": true,
          "properties": [
            {
              "name": "sourceJson",
              "type": "string",
              "value": "{\"id\":\"r002-14-0\",\"kind\":\"coin\",\"x\":466,\"y\":98,\"w\":10,\"h\":14}"
            }
          ]
        },
        {
          "id": 19,
          "name": "r002-15-0",
          "type": "coin",
          "x": 482,
          "y": 98,
          "width": 10,
          "height": 14,
          "rotation": 0,
          "visible": true,
          "properties": [
            {
              "name": "sourceJson",
              "type": "string",
              "value": "{\"id\":\"r002-15-0\",\"kind\":\"coin\",\"x\":482,\"y\":98,\"w\":10,\"h\":14}"
            }
          ]
        },
        {
          "id": 20,
          "name": "r004-0-0",
          "type": "coin",
          "x": 514,
          "y": 66,
          "width": 10,
          "height": 14,
          "rotation": 0,
          "visible": true,
          "properties": [
            {
              "name": "sourceJson",
              "type": "string",
              "value": "{\"id\":\"r004-0-0\",\"kind\":\"coin\",\"x\":514,\"y\":66,\"w\":10,\"h\":14}"
            }
          ]
        },
        {
          "id": 21,
          "name": "r004-1-0",
          "type": "coin",
          "x": 530,
          "y": 66,
          "width": 10,
          "height": 14,
          "rotation": 0,
          "visible": true,
          "properties": [
            {
              "name": "sourceJson",
              "type": "string",
              "value": "{\"id\":\"r004-1-0\",\"kind\":\"coin\",\"x\":530,\"y\":66,\"w\":10,\"h\":14}"
            }
          ]
        },
        {
          "id": 22,
          "name": "r004-2-0",
          "type": "coin",
          "x": 546,
          "y": 66,
          "width": 10,
          "height": 14,
          "rotation": 0,
          "visible": true,
          "properties": [
            {
              "name": "sourceJson",
              "type": "string",
              "value": "{\"id\":\"r004-2-0\",\"kind\":\"coin\",\"x\":546,\"y\":66,\"w\":10,\"h\":14}"
            }
          ]
        },
        {
          "id": 23,
          "name": "r005-0-0",
          "type": "coin",
          "x": 578,
          "y": 82,
          "width": 10,
          "height": 14,
          "rotation": 0,
          "visible": true,
          "properties": [
            {
              "name": "sourceJson",
              "type": "string",
              "value": "{\"id\":\"r005-0-0\",\"kind\":\"coin\",\"x\":578,\"y\":82,\"w\":10,\"h\":14}"
            }
          ]
        },
        {
          "id": 24,
          "name": "r005-1-0",
          "type": "coin",
          "x": 594,
          "y": 82,
          "width": 10,
          "height": 14,
          "rotation": 0,
          "visible": true,
          "properties": [
            {
              "name": "sourceJson",
              "type": "string",
              "value": "{\"id\":\"r005-1-0\",\"kind\":\"coin\",\"x\":594,\"y\":82,\"w\":10,\"h\":14}"
            }
          ]
        },
        {
          "id": 25,
          "name": "r005-2-0",
          "type": "coin",
          "x": 610,
          "y": 82,
          "width": 10,
          "height": 14,
          "rotation": 0,
          "visible": true,
          "properties": [
            {
              "name": "sourceJson",
              "type": "string",
              "value": "{\"id\":\"r005-2-0\",\"kind\":\"coin\",\"x\":610,\"y\":82,\"w\":10,\"h\":14}"
            }
          ]
        },
        {
          "id": 26,
          "name": "r005-3-0",
          "type": "coin",
          "x": 626,
          "y": 82,
          "width": 10,
          "height": 14,
          "rotation": 0,
          "visible": true,
          "properties": [
            {
              "name": "sourceJson",
              "type": "string",
              "value": "{\"id\":\"r005-3-0\",\"kind\":\"coin\",\"x\":626,\"y\":82,\"w\":10,\"h\":14}"
            }
          ]
        },
        {
          "id": 27,
          "name": "r005-4-0",
          "type": "coin",
          "x": 642,
          "y": 82,
          "width": 10,
          "height": 14,
          "rotation": 0,
          "visible": true,
          "properties": [
            {
              "name": "sourceJson",
              "type": "string",
              "value": "{\"id\":\"r005-4-0\",\"kind\":\"coin\",\"x\":642,\"y\":82,\"w\":10,\"h\":14}"
            }
          ]
        },
        {
          "id": 28,
          "name": "r005-5-0",
          "type": "coin",
          "x": 658,
          "y": 82,
          "width": 10,
          "height": 14,
          "rotation": 0,
          "visible": true,
          "properties": [
            {
              "name": "sourceJson",
              "type": "string",
              "value": "{\"id\":\"r005-5-0\",\"kind\":\"coin\",\"x\":658,\"y\":82,\"w\":10,\"h\":14}"
            }
          ]
        },
        {
          "id": 29,
          "name": "r005-6-0",
          "type": "coin",
          "x": 674,
          "y": 82,
          "width": 10,
          "height": 14,
          "rotation": 0,
          "visible": true,
          "properties": [
            {
              "name": "sourceJson",
              "type": "string",
              "value": "{\"id\":\"r005-6-0\",\"kind\":\"coin\",\"x\":674,\"y\":82,\"w\":10,\"h\":14}"
            }
          ]
        },
        {
          "id": 30,
          "name": "r005-7-0",
          "type": "coin",
          "x": 690,
          "y": 82,
          "width": 10,
          "height": 14,
          "rotation": 0,
          "visible": true,
          "properties": [
            {
              "name": "sourceJson",
              "type": "string",
              "value": "{\"id\":\"r005-7-0\",\"kind\":\"coin\",\"x\":690,\"y\":82,\"w\":10,\"h\":14}"
            }
          ]
        },
        {
          "id": 31,
          "name": "r005-8-0",
          "type": "coin",
          "x": 706,
          "y": 82,
          "width": 10,
          "height": 14,
          "rotation": 0,
          "visible": true,
          "properties": [
            {
              "name": "sourceJson",
              "type": "string",
              "value": "{\"id\":\"r005-8-0\",\"kind\":\"coin\",\"x\":706,\"y\":82,\"w\":10,\"h\":14}"
            }
          ]
        },
        {
          "id": 32,
          "name": "r005-9-0",
          "type": "coin",
          "x": 722,
          "y": 82,
          "width": 10,
          "height": 14,
          "rotation": 0,
          "visible": true,
          "properties": [
            {
              "name": "sourceJson",
              "type": "string",
              "value": "{\"id\":\"r005-9-0\",\"kind\":\"coin\",\"x\":722,\"y\":82,\"w\":10,\"h\":14}"
            }
          ]
        },
        {
          "id": 33,
          "name": "r005-10-0",
          "type": "coin",
          "x": 738,
          "y": 82,
          "width": 10,
          "height": 14,
          "rotation": 0,
          "visible": true,
          "properties": [
            {
              "name": "sourceJson",
              "type": "string",
              "value": "{\"id\":\"r005-10-0\",\"kind\":\"coin\",\"x\":738,\"y\":82,\"w\":10,\"h\":14}"
            }
          ]
        },
        {
          "id": 34,
          "name": "r005-11-0",
          "type": "coin",
          "x": 754,
          "y": 82,
          "width": 10,
          "height": 14,
          "rotation": 0,
          "visible": true,
          "properties": [
            {
              "name": "sourceJson",
              "type": "string",
              "value": "{\"id\":\"r005-11-0\",\"kind\":\"coin\",\"x\":754,\"y\":82,\"w\":10,\"h\":14}"
            }
          ]
        },
        {
          "id": 35,
          "name": "r005-12-0",
          "type": "coin",
          "x": 770,
          "y": 82,
          "width": 10,
          "height": 14,
          "rotation": 0,
          "visible": true,
          "properties": [
            {
              "name": "sourceJson",
              "type": "string",
              "value": "{\"id\":\"r005-12-0\",\"kind\":\"coin\",\"x\":770,\"y\":82,\"w\":10,\"h\":14}"
            }
          ]
        },
        {
          "id": 36,
          "name": "r005-13-0",
          "type": "coin",
          "x": 786,
          "y": 82,
          "width": 10,
          "height": 14,
          "rotation": 0,
          "visible": true,
          "properties": [
            {
              "name": "sourceJson",
              "type": "string",
              "value": "{\"id\":\"r005-13-0\",\"kind\":\"coin\",\"x\":786,\"y\":82,\"w\":10,\"h\":14}"
            }
          ]
        },
        {
          "id": 37,
          "name": "r005-14-0",
          "type": "coin",
          "x": 802,
          "y": 82,
          "width": 10,
          "height": 14,
          "rotation": 0,
          "visible": true,
          "properties": [
            {
              "name": "sourceJson",
              "type": "string",
              "value": "{\"id\":\"r005-14-0\",\"kind\":\"coin\",\"x\":802,\"y\":82,\"w\":10,\"h\":14}"
            }
          ]
        },
        {
          "id": 38,
          "name": "r005-15-0",
          "type": "coin",
          "x": 818,
          "y": 82,
          "width": 10,
          "height": 14,
          "rotation": 0,
          "visible": true,
          "properties": [
            {
              "name": "sourceJson",
              "type": "string",
              "value": "{\"id\":\"r005-15-0\",\"kind\":\"coin\",\"x\":818,\"y\":82,\"w\":10,\"h\":14}"
            }
          ]
        },
        {
          "id": 39,
          "name": "r006-0-0",
          "type": "coin",
          "x": 850,
          "y": 66,
          "width": 10,
          "height": 14,
          "rotation": 0,
          "visible": true,
          "properties": [
            {
              "name": "sourceJson",
              "type": "string",
              "value": "{\"id\":\"r006-0-0\",\"kind\":\"coin\",\"x\":850,\"y\":66,\"w\":10,\"h\":14}"
            }
          ]
        },
        {
          "id": 40,
          "name": "r006-1-0",
          "type": "coin",
          "x": 866,
          "y": 66,
          "width": 10,
          "height": 14,
          "rotation": 0,
          "visible": true,
          "properties": [
            {
              "name": "sourceJson",
              "type": "string",
              "value": "{\"id\":\"r006-1-0\",\"kind\":\"coin\",\"x\":866,\"y\":66,\"w\":10,\"h\":14}"
            }
          ]
        },
        {
          "id": 41,
          "name": "r006-2-0",
          "type": "coin",
          "x": 882,
          "y": 66,
          "width": 10,
          "height": 14,
          "rotation": 0,
          "visible": true,
          "properties": [
            {
              "name": "sourceJson",
              "type": "string",
              "value": "{\"id\":\"r006-2-0\",\"kind\":\"coin\",\"x\":882,\"y\":66,\"w\":10,\"h\":14}"
            }
          ]
        },
        {
          "id": 42,
          "name": "r007-0-0",
          "type": "coin",
          "x": 1106,
          "y": 194,
          "width": 10,
          "height": 14,
          "rotation": 0,
          "visible": true,
          "properties": [
            {
              "name": "sourceJson",
              "type": "string",
              "value": "{\"id\":\"r007-0-0\",\"kind\":\"coin\",\"x\":1106,\"y\":194,\"w\":10,\"h\":14}"
            }
          ]
        },
        {
          "id": 43,
          "name": "r007-1-0",
          "type": "coin",
          "x": 1122,
          "y": 194,
          "width": 10,
          "height": 14,
          "rotation": 0,
          "visible": true,
          "properties": [
            {
              "name": "sourceJson",
              "type": "string",
              "value": "{\"id\":\"r007-1-0\",\"kind\":\"coin\",\"x\":1122,\"y\":194,\"w\":10,\"h\":14}"
            }
          ]
        },
        {
          "id": 44,
          "name": "r007-2-0",
          "type": "coin",
          "x": 1138,
          "y": 194,
          "width": 10,
          "height": 14,
          "rotation": 0,
          "visible": true,
          "properties": [
            {
              "name": "sourceJson",
              "type": "string",
              "value": "{\"id\":\"r007-2-0\",\"kind\":\"coin\",\"x\":1138,\"y\":194,\"w\":10,\"h\":14}"
            }
          ]
        },
        {
          "id": 45,
          "name": "inspection-start",
          "type": "spawn",
          "x": 24,
          "y": 184,
          "width": 12,
          "height": 24,
          "rotation": 0,
          "visible": true,
          "properties": [
            {
              "name": "sourceJson",
              "type": "string",
              "value": "{\"id\":\"inspection-start\",\"kind\":\"spawn\",\"x\":24,\"y\":184,\"w\":12,\"h\":24}"
            }
          ]
        }
      ]
    },
    {
      "id": 3,
      "name": "pending-mechanics",
      "type": "objectgroup",
      "visible": true,
      "opacity": 1,
      "x": 0,
      "y": 0,
      "draworder": "index",
      "objects": [
        {
          "id": 46,
          "name": "r003-transport",
          "type": "source-transport-not-simulated",
          "x": 256,
          "y": 160,
          "width": 0,
          "height": 0,
          "rotation": 0,
          "visible": true,
          "point": true,
          "properties": [
            {
              "name": "sourceJson",
              "type": "string",
              "value": "{\"id\":\"r003-transport\",\"kind\":\"source-transport-not-simulated\",\"source\":{\"thing\":\"Platform\",\"width\":24,\"transport\":true,\"x\":128,\"y\":24},\"sourcePath\":{\"area\":1,\"part\":\"base\",\"record\":\"r003\"},\"x\":256,\"y\":160}"
            }
          ]
        },
        {
          "id": 47,
          "name": "r003-motion",
          "type": "ride-platform",
          "x": 256,
          "y": 160,
          "width": 0,
          "height": 0,
          "rotation": 0,
          "visible": true,
          "point": true,
          "properties": [
            {
              "name": "sourceJson",
              "type": "string",
              "value": "{\"id\":\"r003-motion\",\"kind\":\"ride-platform\",\"source\":{\"thing\":\"Platform\",\"width\":24,\"transport\":true,\"x\":128,\"y\":24},\"sourcePath\":{\"area\":1,\"part\":\"base\",\"record\":\"r003\"},\"x\":256,\"y\":160}"
            }
          ]
        }
      ]
    }
  ],
  "properties": [
    {
      "name": "room",
      "type": "string",
      "value": "area-1"
    },
    {
      "name": "underwater",
      "type": "bool",
      "value": false
    },
    {
      "name": "inspectionOnly",
      "type": "bool",
      "value": true
    },
    {
      "name": "referenceReview",
      "type": "string",
      "value": "pending"
    }
  ]
}
