{
  "type": "map",
  "version": "1.10",
  "orientation": "orthogonal",
  "renderorder": "right-down",
  "width": 206,
  "height": 15,
  "tilewidth": 16,
  "tileheight": 16,
  "infinite": false,
  "nextlayerid": 4,
  "nextobjectid": 93,
  "tilesets": [],
  "layers": [
    {
      "id": 1,
      "name": "collision",
      "type": "objectgroup",
      "visible": true,
      "opacity": 1,
      "x": 0,
      "y": 0,
      "draworder": "index",
      "objects": [
        {
          "id": 1,
          "name": "r000",
          "type": "solid",
          "x": 0,
          "y": 208,
          "width": 320,
          "height": 32,
          "rotation": 0,
          "visible": true,
          "properties": [
            {
              "name": "sourceJson",
              "type": "string",
              "value": "{\"id\":\"r000\",\"x\":0,\"y\":208,\"w\":320,\"h\":32,\"collision\":\"solid\"}"
            }
          ]
        },
        {
          "id": 2,
          "name": "r002-0-0",
          "type": "solid",
          "x": 256,
          "y": 144,
          "width": 16,
          "height": 16,
          "rotation": 0,
          "visible": true,
          "properties": [
            {
              "name": "sourceJson",
              "type": "string",
              "value": "{\"id\":\"r002-0-0\",\"x\":256,\"y\":144,\"w\":16,\"h\":16,\"collision\":\"solid\"}"
            }
          ]
        },
        {
          "id": 3,
          "name": "r002-1-0",
          "type": "solid",
          "x": 272,
          "y": 144,
          "width": 16,
          "height": 16,
          "rotation": 0,
          "visible": true,
          "properties": [
            {
              "name": "sourceJson",
              "type": "string",
              "value": "{\"id\":\"r002-1-0\",\"x\":272,\"y\":144,\"w\":16,\"h\":16,\"collision\":\"solid\"}"
            }
          ]
        },
        {
          "id": 4,
          "name": "r003",
          "type": "solid",
          "x": 352,
          "y": 208,
          "width": 144,
          "height": 32,
          "rotation": 0,
          "visible": true,
          "properties": [
            {
              "name": "sourceJson",
              "type": "string",
              "value": "{\"id\":\"r003\",\"x\":352,\"y\":208,\"w\":144,\"h\":32,\"collision\":\"solid\"}"
            }
          ]
        },
        {
          "id": 5,
          "name": "r004",
          "type": "solid",
          "x": 416,
          "y": 192,
          "width": 96,
          "height": 16,
          "rotation": 0,
          "visible": true,
          "properties": [
            {
              "name": "sourceJson",
              "type": "string",
              "value": "{\"id\":\"r004\",\"x\":416,\"y\":192,\"w\":96,\"h\":16,\"collision\":\"solid\"}"
            }
          ]
        },
        {
          "id": 6,
          "name": "r005",
          "type": "solid",
          "x": 464,
          "y": 176,
          "width": 80,
          "height": 16,
          "rotation": 0,
          "visible": true,
          "properties": [
            {
              "name": "sourceJson",
              "type": "string",
              "value": "{\"id\":\"r005\",\"x\":464,\"y\":176,\"w\":80,\"h\":16,\"collision\":\"solid\"}"
            }
          ]
        },
        {
          "id": 7,
          "name": "r006",
          "type": "solid",
          "x": 512,
          "y": 160,
          "width": 64,
          "height": 16,
          "rotation": 0,
          "visible": true,
          "properties": [
            {
              "name": "sourceJson",
              "type": "string",
              "value": "{\"id\":\"r006\",\"x\":512,\"y\":160,\"w\":64,\"h\":16,\"collision\":\"solid\"}"
            }
          ]
        },
        {
          "id": 8,
          "name": "r007",
          "type": "solid",
          "x": 560,
          "y": 144,
          "width": 48,
          "height": 16,
          "rotation": 0,
          "visible": true,
          "properties": [
            {
              "name": "sourceJson",
              "type": "string",
              "value": "{\"id\":\"r007\",\"x\":560,\"y\":144,\"w\":48,\"h\":16,\"collision\":\"solid\"}"
            }
          ]
        },
        {
          "id": 9,
          "name": "r008",
          "type": "solid",
          "x": 576,
          "y": 80,
          "width": 16,
          "height": 16,
          "rotation": 0,
          "visible": true,
          "properties": [
            {
              "name": "sourceJson",
              "type": "string",
              "value": "{\"id\":\"r008\",\"x\":576,\"y\":80,\"w\":16,\"h\":16,\"collision\":\"solid\"}"
            }
          ]
        },
        {
          "id": 10,
          "name": "r009",
          "type": "solid",
          "x": 592,
          "y": 208,
          "width": 32,
          "height": 32,
          "rotation": 0,
          "visible": true,
          "properties": [
            {
              "name": "sourceJson",
              "type": "string",
              "value": "{\"id\":\"r009\",\"x\":592,\"y\":208,\"w\":32,\"h\":32,\"collision\":\"solid\"}"
            }
          ]
        },
        {
          "id": 11,
          "name": "r010",
          "type": "solid",
          "x": 592,
          "y": 80,
          "width": 16,
          "height": 16,
          "rotation": 0,
          "visible": true,
          "properties": [
            {
              "name": "sourceJson",
              "type": "string",
              "value": "{\"id\":\"r010\",\"x\":592,\"y\":80,\"w\":16,\"h\":16,\"collision\":\"solid\"}"
            }
          ]
        },
        {
          "id": 12,
          "name": "r011",
          "type": "solid",
          "x": 656,
          "y": 208,
          "width": 256,
          "height": 32,
          "rotation": 0,
          "visible": true,
          "properties": [
            {
              "name": "sourceJson",
              "type": "string",
              "value": "{\"id\":\"r011\",\"x\":656,\"y\":208,\"w\":256,\"h\":32,\"collision\":\"solid\"}"
            }
          ]
        },
        {
          "id": 13,
          "name": "r012-0-0",
          "type": "solid",
          "x": 656,
          "y": 144,
          "width": 16,
          "height": 16,
          "rotation": 0,
          "visible": true,
          "properties": [
            {
              "name": "sourceJson",
              "type": "string",
              "value": "{\"id\":\"r012-0-0\",\"x\":656,\"y\":144,\"w\":16,\"h\":16,\"collision\":\"solid\"}"
            }
          ]
        },
        {
          "id": 14,
          "name": "r012-1-0",
          "type": "solid",
          "x": 672,
          "y": 144,
          "width": 16,
          "height": 16,
          "rotation": 0,
          "visible": true,
          "properties": [
            {
              "name": "sourceJson",
              "type": "string",
              "value": "{\"id\":\"r012-1-0\",\"x\":672,\"y\":144,\"w\":16,\"h\":16,\"collision\":\"solid\"}"
            }
          ]
        },
        {
          "id": 15,
          "name": "r013",
          "type": "solid",
          "x": 688,
          "y": 144,
          "width": 16,
          "height": 16,
          "rotation": 0,
          "visible": true,
          "properties": [
            {
              "name": "sourceJson",
              "type": "string",
              "value": "{\"id\":\"r013\",\"x\":688,\"y\":144,\"w\":16,\"h\":16,\"collision\":\"solid\"}"
            }
          ]
        },
        {
          "id": 16,
          "name": "r014",
          "type": "solid",
          "x": 944,
          "y": 208,
          "width": 240,
          "height": 32,
          "rotation": 0,
          "visible": true,
          "properties": [
            {
              "name": "sourceJson",
              "type": "string",
              "value": "{\"id\":\"r014\",\"x\":944,\"y\":208,\"w\":240,\"h\":32,\"collision\":\"solid\"}"
            }
          ]
        },
        {
          "id": 17,
          "name": "r016",
          "type": "solid",
          "x": 1104,
          "y": 192,
          "width": 16,
          "height": 16,
          "rotation": 0,
          "visible": true,
          "properties": [
            {
              "name": "sourceJson",
              "type": "string",
              "value": "{\"id\":\"r016\",\"x\":1104,\"y\":192,\"w\":16,\"h\":16,\"collision\":\"solid\"}"
            }
          ]
        },
        {
          "id": 18,
          "name": "r017",
          "type": "solid",
          "x": 1120,
          "y": 176,
          "width": 16,
          "height": 32,
          "rotation": 0,
          "visible": true,
          "properties": [
            {
              "name": "sourceJson",
              "type": "string",
              "value": "{\"id\":\"r017\",\"x\":1120,\"y\":176,\"w\":16,\"h\":32,\"collision\":\"solid\"}"
            }
          ]
        },
        {
          "id": 19,
          "name": "r018",
          "type": "solid",
          "x": 1136,
          "y": 160,
          "width": 16,
          "height": 48,
          "rotation": 0,
          "visible": true,
          "properties": [
            {
              "name": "sourceJson",
              "type": "string",
              "value": "{\"id\":\"r018\",\"x\":1136,\"y\":160,\"w\":16,\"h\":48,\"collision\":\"solid\"}"
            }
          ]
        },
        {
          "id": 20,
          "name": "r019",
          "type": "solid",
          "x": 1152,
          "y": 144,
          "width": 32,
          "height": 64,
          "rotation": 0,
          "visible": true,
          "properties": [
            {
              "name": "sourceJson",
              "type": "string",
              "value": "{\"id\":\"r019\",\"x\":1152,\"y\":144,\"w\":32,\"h\":64,\"collision\":\"solid\"}"
            }
          ]
        },
        {
          "id": 21,
          "name": "r021",
          "type": "solid",
          "x": 1232,
          "y": 208,
          "width": 256,
          "height": 32,
          "rotation": 0,
          "visible": true,
          "properties": [
            {
              "name": "sourceJson",
              "type": "string",
              "value": "{\"id\":\"r021\",\"x\":1232,\"y\":208,\"w\":256,\"h\":32,\"collision\":\"solid\"}"
            }
          ]
        },
        {
          "id": 22,
          "name": "r022",
          "type": "solid",
          "x": 1344,
          "y": 176,
          "width": 16,
          "height": 16,
          "rotation": 0,
          "visible": true,
          "properties": [
            {
              "name": "sourceJson",
              "type": "string",
              "value": "{\"id\":\"r022\",\"x\":1344,\"y\":176,\"w\":16,\"h\":16,\"collision\":\"solid\"}"
            }
          ]
        },
        {
          "id": 23,
          "name": "r023",
          "type": "solid",
          "x": 1360,
          "y": 160,
          "width": 16,
          "height": 32,
          "rotation": 0,
          "visible": true,
          "properties": [
            {
              "name": "sourceJson",
              "type": "string",
              "value": "{\"id\":\"r023\",\"x\":1360,\"y\":160,\"w\":16,\"h\":32,\"collision\":\"solid\"}"
            }
          ]
        },
        {
          "id": 24,
          "name": "r024",
          "type": "solid",
          "x": 1392,
          "y": 128,
          "width": 16,
          "height": 80,
          "rotation": 0,
          "visible": true,
          "properties": [
            {
              "name": "sourceJson",
              "type": "string",
              "value": "{\"id\":\"r024\",\"x\":1392,\"y\":128,\"w\":16,\"h\":80,\"collision\":\"solid\"}"
            }
          ]
        },
        {
          "id": 25,
          "name": "r025",
          "type": "solid",
          "x": 1408,
          "y": 112,
          "width": 16,
          "height": 96,
          "rotation": 0,
          "visible": true,
          "properties": [
            {
              "name": "sourceJson",
              "type": "string",
              "value": "{\"id\":\"r025\",\"x\":1408,\"y\":112,\"w\":16,\"h\":96,\"collision\":\"solid\"}"
            }
          ]
        },
        {
          "id": 26,
          "name": "r026",
          "type": "solid",
          "x": 1424,
          "y": 96,
          "width": 16,
          "height": 112,
          "rotation": 0,
          "visible": true,
          "properties": [
            {
              "name": "sourceJson",
              "type": "string",
              "value": "{\"id\":\"r026\",\"x\":1424,\"y\":96,\"w\":16,\"h\":112,\"collision\":\"solid\"}"
            }
          ]
        },
        {
          "id": 27,
          "name": "r028-0-0",
          "type": "solid",
          "x": 1440,
          "y": 96,
          "width": 16,
          "height": 16,
          "rotation": 0,
          "visible": true,
          "properties": [
            {
              "name": "sourceJson",
              "type": "string",
              "value": "{\"id\":\"r028-0-0\",\"x\":1440,\"y\":96,\"w\":16,\"h\":16,\"collision\":\"solid\"}"
            }
          ]
        },
        {
          "id": 28,
          "name": "r028-1-0",
          "type": "solid",
          "x": 1456,
          "y": 96,
          "width": 16,
          "height": 16,
          "rotation": 0,
          "visible": true,
          "properties": [
            {
              "name": "sourceJson",
              "type": "string",
              "value": "{\"id\":\"r028-1-0\",\"x\":1456,\"y\":96,\"w\":16,\"h\":16,\"collision\":\"solid\"}"
            }
          ]
        },
        {
          "id": 29,
          "name": "r028-2-0",
          "type": "solid",
          "x": 1472,
          "y": 96,
          "width": 16,
          "height": 16,
          "rotation": 0,
          "visible": true,
          "properties": [
            {
              "name": "sourceJson",
              "type": "string",
              "value": "{\"id\":\"r028-2-0\",\"x\":1472,\"y\":96,\"w\":16,\"h\":16,\"collision\":\"solid\"}"
            }
          ]
        },
        {
          "id": 30,
          "name": "r029-0-0",
          "type": "solid",
          "x": 1472,
          "y": 160,
          "width": 16,
          "height": 16,
          "rotation": 0,
          "visible": true,
          "properties": [
            {
              "name": "sourceJson",
              "type": "string",
              "value": "{\"id\":\"r029-0-0\",\"x\":1472,\"y\":160,\"w\":16,\"h\":16,\"collision\":\"solid\"}"
            }
          ]
        },
        {
          "id": 31,
          "name": "r029-1-0",
          "type": "solid",
          "x": 1488,
          "y": 160,
          "width": 16,
          "height": 16,
          "rotation": 0,
          "visible": true,
          "properties": [
            {
              "name": "sourceJson",
              "type": "string",
              "value": "{\"id\":\"r029-1-0\",\"x\":1488,\"y\":160,\"w\":16,\"h\":16,\"collision\":\"solid\"}"
            }
          ]
        },
        {
          "id": 32,
          "name": "r029-2-0",
          "type": "solid",
          "x": 1504,
          "y": 160,
          "width": 16,
          "height": 16,
          "rotation": 0,
          "visible": true,
          "properties": [
            {
              "name": "sourceJson",
              "type": "string",
              "value": "{\"id\":\"r029-2-0\",\"x\":1504,\"y\":160,\"w\":16,\"h\":16,\"collision\":\"solid\"}"
            }
          ]
        },
        {
          "id": 33,
          "name": "r030",
          "type": "solid",
          "x": 1536,
          "y": 208,
          "width": 496,
          "height": 32,
          "rotation": 0,
          "visible": true,
          "properties": [
            {
              "name": "sourceJson",
              "type": "string",
              "value": "{\"id\":\"r030\",\"x\":1536,\"y\":208,\"w\":496,\"h\":32,\"collision\":\"solid\"}"
            }
          ]
        },
        {
          "id": 34,
          "name": "r031",
          "type": "solid",
          "x": 1632,
          "y": 160,
          "width": 32,
          "height": 48,
          "rotation": 0,
          "visible": true,
          "properties": [
            {
              "name": "sourceJson",
              "type": "string",
              "value": "{\"id\":\"r031\",\"x\":1632,\"y\":160,\"w\":32,\"h\":48,\"collision\":\"solid\"}"
            }
          ]
        },
        {
          "id": 35,
          "name": "r034",
          "type": "solid",
          "x": 1952,
          "y": 192,
          "width": 16,
          "height": 16,
          "rotation": 0,
          "visible": true,
          "properties": [
            {
              "name": "sourceJson",
              "type": "string",
              "value": "{\"id\":\"r034\",\"x\":1952,\"y\":192,\"w\":16,\"h\":16,\"collision\":\"solid\"}"
            }
          ]
        },
        {
          "id": 36,
          "name": "r035",
          "type": "solid",
          "x": 1968,
          "y": 176,
          "width": 16,
          "height": 32,
          "rotation": 0,
          "visible": true,
          "properties": [
            {
              "name": "sourceJson",
              "type": "string",
              "value": "{\"id\":\"r035\",\"x\":1968,\"y\":176,\"w\":16,\"h\":32,\"collision\":\"solid\"}"
            }
          ]
        },
        {
          "id": 37,
          "name": "r036",
          "type": "solid",
          "x": 1984,
          "y": 160,
          "width": 16,
          "height": 48,
          "rotation": 0,
          "visible": true,
          "properties": [
            {
              "name": "sourceJson",
              "type": "string",
              "value": "{\"id\":\"r036\",\"x\":1984,\"y\":160,\"w\":16,\"h\":48,\"collision\":\"solid\"}"
            }
          ]
        },
        {
          "id": 38,
          "name": "r037",
          "type": "solid",
          "x": 2000,
          "y": 144,
          "width": 16,
          "height": 64,
          "rotation": 0,
          "visible": true,
          "properties": [
            {
              "name": "sourceJson",
              "type": "string",
              "value": "{\"id\":\"r037\",\"x\":2000,\"y\":144,\"w\":16,\"h\":64,\"collision\":\"solid\"}"
            }
          ]
        },
        {
          "id": 39,
          "name": "r038",
          "type": "solid",
          "x": 2016,
          "y": 128,
          "width": 16,
          "height": 80,
          "rotation": 0,
          "visible": true,
          "properties": [
            {
              "name": "sourceJson",
              "type": "string",
              "value": "{\"id\":\"r038\",\"x\":2016,\"y\":128,\"w\":16,\"h\":80,\"collision\":\"solid\"}"
            }
          ]
        },
        {
          "id": 40,
          "name": "r039-0-0",
          "type": "solid",
          "x": 2032,
          "y": 128,
          "width": 16,
          "height": 16,
          "rotation": 0,
          "visible": true,
          "properties": [
            {
              "name": "sourceJson",
              "type": "string",
              "value": "{\"id\":\"r039-0-0\",\"x\":2032,\"y\":128,\"w\":16,\"h\":16,\"collision\":\"solid\"}"
            }
          ]
        },
        {
          "id": 41,
          "name": "r039-1-0",
          "type": "solid",
          "x": 2048,
          "y": 128,
          "width": 16,
          "height": 16,
          "rotation": 0,
          "visible": true,
          "properties": [
            {
              "name": "sourceJson",
              "type": "string",
              "value": "{\"id\":\"r039-1-0\",\"x\":2048,\"y\":128,\"w\":16,\"h\":16,\"collision\":\"solid\"}"
            }
          ]
        },
        {
          "id": 42,
          "name": "r040-0-0",
          "type": "solid",
          "x": 2080,
          "y": 192,
          "width": 16,
          "height": 16,
          "rotation": 0,
          "visible": true,
          "properties": [
            {
              "name": "sourceJson",
              "type": "string",
              "value": "{\"id\":\"r040-0-0\",\"x\":2080,\"y\":192,\"w\":16,\"h\":16,\"collision\":\"solid\"}"
            }
          ]
        },
        {
          "id": 43,
          "name": "r040-1-0",
          "type": "solid",
          "x": 2096,
          "y": 192,
          "width": 16,
          "height": 16,
          "rotation": 0,
          "visible": true,
          "properties": [
            {
              "name": "sourceJson",
              "type": "string",
              "value": "{\"id\":\"r040-1-0\",\"x\":2096,\"y\":192,\"w\":16,\"h\":16,\"collision\":\"solid\"}"
            }
          ]
        },
        {
          "id": 44,
          "name": "r040-2-0",
          "type": "solid",
          "x": 2112,
          "y": 192,
          "width": 16,
          "height": 16,
          "rotation": 0,
          "visible": true,
          "properties": [
            {
              "name": "sourceJson",
              "type": "string",
              "value": "{\"id\":\"r040-2-0\",\"x\":2112,\"y\":192,\"w\":16,\"h\":16,\"collision\":\"solid\"}"
            }
          ]
        },
        {
          "id": 45,
          "name": "r040-3-0",
          "type": "solid",
          "x": 2128,
          "y": 192,
          "width": 16,
          "height": 16,
          "rotation": 0,
          "visible": true,
          "properties": [
            {
              "name": "sourceJson",
              "type": "string",
              "value": "{\"id\":\"r040-3-0\",\"x\":2128,\"y\":192,\"w\":16,\"h\":16,\"collision\":\"solid\"}"
            }
          ]
        },
        {
          "id": 46,
          "name": "r040-4-0",
          "type": "solid",
          "x": 2144,
          "y": 192,
          "width": 16,
          "height": 16,
          "rotation": 0,
          "visible": true,
          "properties": [
            {
              "name": "sourceJson",
              "type": "string",
              "value": "{\"id\":\"r040-4-0\",\"x\":2144,\"y\":192,\"w\":16,\"h\":16,\"collision\":\"solid\"}"
            }
          ]
        },
        {
          "id": 47,
          "name": "r041",
          "type": "solid",
          "x": 2096,
          "y": 128,
          "width": 16,
          "height": 16,
          "rotation": 0,
          "visible": true,
          "properties": [
            {
              "name": "sourceJson",
              "type": "string",
              "value": "{\"id\":\"r041\",\"x\":2096,\"y\":128,\"w\":16,\"h\":16,\"collision\":\"solid\"}"
            }
          ]
        },
        {
          "id": 48,
          "name": "r042",
          "type": "solid",
          "x": 2144,
          "y": 208,
          "width": 32,
          "height": 32,
          "rotation": 0,
          "visible": true,
          "properties": [
            {
              "name": "sourceJson",
              "type": "string",
              "value": "{\"id\":\"r042\",\"x\":2144,\"y\":208,\"w\":32,\"h\":32,\"collision\":\"solid\"}"
            }
          ]
        },
        {
          "id": 49,
          "name": "r043",
          "type": "solid",
          "x": 2192,
          "y": 208,
          "width": 192,
          "height": 32,
          "rotation": 0,
          "visible": true,
          "properties": [
            {
              "name": "sourceJson",
              "type": "string",
              "value": "{\"id\":\"r043\",\"x\":2192,\"y\":208,\"w\":192,\"h\":32,\"collision\":\"solid\"}"
            }
          ]
        },
        {
          "id": 50,
          "name": "r044",
          "type": "solid",
          "x": 2288,
          "y": 192,
          "width": 16,
          "height": 16,
          "rotation": 0,
          "visible": true,
          "properties": [
            {
              "name": "sourceJson",
              "type": "string",
              "value": "{\"id\":\"r044\",\"x\":2288,\"y\":192,\"w\":16,\"h\":16,\"collision\":\"solid\"}"
            }
          ]
        },
        {
          "id": 51,
          "name": "r045",
          "type": "solid",
          "x": 2304,
          "y": 176,
          "width": 16,
          "height": 32,
          "rotation": 0,
          "visible": true,
          "properties": [
            {
              "name": "sourceJson",
              "type": "string",
              "value": "{\"id\":\"r045\",\"x\":2304,\"y\":176,\"w\":16,\"h\":32,\"collision\":\"solid\"}"
            }
          ]
        },
        {
          "id": 52,
          "name": "r046",
          "type": "solid",
          "x": 2320,
          "y": 160,
          "width": 16,
          "height": 48,
          "rotation": 0,
          "visible": true,
          "properties": [
            {
              "name": "sourceJson",
              "type": "string",
              "value": "{\"id\":\"r046\",\"x\":2320,\"y\":160,\"w\":16,\"h\":48,\"collision\":\"solid\"}"
            }
          ]
        },
        {
          "id": 53,
          "name": "r047",
          "type": "solid",
          "x": 2336,
          "y": 144,
          "width": 16,
          "height": 64,
          "rotation": 0,
          "visible": true,
          "properties": [
            {
              "name": "sourceJson",
              "type": "string",
              "value": "{\"id\":\"r047\",\"x\":2336,\"y\":144,\"w\":16,\"h\":64,\"collision\":\"solid\"}"
            }
          ]
        },
        {
          "id": 54,
          "name": "r048",
          "type": "solid",
          "x": 2352,
          "y": 128,
          "width": 16,
          "height": 80,
          "rotation": 0,
          "visible": true,
          "properties": [
            {
              "name": "sourceJson",
              "type": "string",
              "value": "{\"id\":\"r048\",\"x\":2352,\"y\":128,\"w\":16,\"h\":80,\"collision\":\"solid\"}"
            }
          ]
        },
        {
          "id": 55,
          "name": "r049",
          "type": "solid",
          "x": 2368,
          "y": 112,
          "width": 16,
          "height": 96,
          "rotation": 0,
          "visible": true,
          "properties": [
            {
              "name": "sourceJson",
              "type": "string",
              "value": "{\"id\":\"r049\",\"x\":2368,\"y\":112,\"w\":16,\"h\":96,\"collision\":\"solid\"}"
            }
          ]
        },
        {
          "id": 56,
          "name": "r050-0-0",
          "type": "solid",
          "x": 2384,
          "y": 112,
          "width": 16,
          "height": 16,
          "rotation": 0,
          "visible": true,
          "properties": [
            {
              "name": "sourceJson",
              "type": "string",
              "value": "{\"id\":\"r050-0-0\",\"x\":2384,\"y\":112,\"w\":16,\"h\":16,\"collision\":\"solid\"}"
            }
          ]
        },
        {
          "id": 57,
          "name": "r050-1-0",
          "type": "solid",
          "x": 2400,
          "y": 112,
          "width": 16,
          "height": 16,
          "rotation": 0,
          "visible": true,
          "properties": [
            {
              "name": "sourceJson",
              "type": "string",
              "value": "{\"id\":\"r050-1-0\",\"x\":2400,\"y\":112,\"w\":16,\"h\":16,\"collision\":\"solid\"}"
            }
          ]
        },
        {
          "id": 58,
          "name": "r051",
          "type": "solid",
          "x": 2416,
          "y": 144,
          "width": 16,
          "height": 16,
          "rotation": 0,
          "visible": true,
          "properties": [
            {
              "name": "sourceJson",
              "type": "string",
              "value": "{\"id\":\"r051\",\"x\":2416,\"y\":144,\"w\":16,\"h\":16,\"collision\":\"solid\"}"
            }
          ]
        },
        {
          "id": 59,
          "name": "r052-0-0",
          "type": "solid",
          "x": 2432,
          "y": 176,
          "width": 16,
          "height": 16,
          "rotation": 0,
          "visible": true,
          "properties": [
            {
              "name": "sourceJson",
              "type": "string",
              "value": "{\"id\":\"r052-0-0\",\"x\":2432,\"y\":176,\"w\":16,\"h\":16,\"collision\":\"solid\"}"
            }
          ]
        },
        {
          "id": 60,
          "name": "r052-1-0",
          "type": "solid",
          "x": 2448,
          "y": 176,
          "width": 16,
          "height": 16,
          "rotation": 0,
          "visible": true,
          "properties": [
            {
              "name": "sourceJson",
              "type": "string",
              "value": "{\"id\":\"r052-1-0\",\"x\":2448,\"y\":176,\"w\":16,\"h\":16,\"collision\":\"solid\"}"
            }
          ]
        },
        {
          "id": 61,
          "name": "r052-2-0",
          "type": "solid",
          "x": 2464,
          "y": 176,
          "width": 16,
          "height": 16,
          "rotation": 0,
          "visible": true,
          "properties": [
            {
              "name": "sourceJson",
              "type": "string",
              "value": "{\"id\":\"r052-2-0\",\"x\":2464,\"y\":176,\"w\":16,\"h\":16,\"collision\":\"solid\"}"
            }
          ]
        },
        {
          "id": 62,
          "name": "r053",
          "type": "solid",
          "x": 2432,
          "y": 144,
          "width": 16,
          "height": 16,
          "rotation": 0,
          "visible": true,
          "properties": [
            {
              "name": "sourceJson",
              "type": "string",
              "value": "{\"id\":\"r053\",\"x\":2432,\"y\":144,\"w\":16,\"h\":16,\"collision\":\"solid\"}"
            }
          ]
        },
        {
          "id": 63,
          "name": "r054",
          "type": "solid",
          "x": 2480,
          "y": 208,
          "width": 144,
          "height": 32,
          "rotation": 0,
          "visible": true,
          "properties": [
            {
              "name": "sourceJson",
              "type": "string",
              "value": "{\"id\":\"r054\",\"x\":2480,\"y\":208,\"w\":144,\"h\":32,\"collision\":\"solid\"}"
            }
          ]
        },
        {
          "id": 64,
          "name": "r055",
          "type": "solid",
          "x": 2672,
          "y": 208,
          "width": 112,
          "height": 32,
          "rotation": 0,
          "visible": true,
          "properties": [
            {
              "name": "sourceJson",
              "type": "string",
              "value": "{\"id\":\"r055\",\"x\":2672,\"y\":208,\"w\":112,\"h\":32,\"collision\":\"solid\"}"
            }
          ]
        },
        {
          "id": 65,
          "name": "r056",
          "type": "solid",
          "x": 2704,
          "y": 192,
          "width": 16,
          "height": 16,
          "rotation": 0,
          "visible": true,
          "properties": [
            {
              "name": "sourceJson",
              "type": "string",
              "value": "{\"id\":\"r056\",\"x\":2704,\"y\":192,\"w\":16,\"h\":16,\"collision\":\"solid\"}"
            }
          ]
        },
        {
          "id": 66,
          "name": "r057",
          "type": "solid",
          "x": 2720,
          "y": 176,
          "width": 16,
          "height": 32,
          "rotation": 0,
          "visible": true,
          "properties": [
            {
              "name": "sourceJson",
              "type": "string",
              "value": "{\"id\":\"r057\",\"x\":2720,\"y\":176,\"w\":16,\"h\":32,\"collision\":\"solid\"}"
            }
          ]
        },
        {
          "id": 67,
          "name": "r058",
          "type": "solid",
          "x": 2736,
          "y": 160,
          "width": 16,
          "height": 48,
          "rotation": 0,
          "visible": true,
          "properties": [
            {
              "name": "sourceJson",
              "type": "string",
              "value": "{\"id\":\"r058\",\"x\":2736,\"y\":160,\"w\":16,\"h\":48,\"collision\":\"solid\"}"
            }
          ]
        },
        {
          "id": 68,
          "name": "r059",
          "type": "solid",
          "x": 2752,
          "y": 144,
          "width": 16,
          "height": 64,
          "rotation": 0,
          "visible": true,
          "properties": [
            {
              "name": "sourceJson",
              "type": "string",
              "value": "{\"id\":\"r059\",\"x\":2752,\"y\":144,\"w\":16,\"h\":64,\"collision\":\"solid\"}"
            }
          ]
        },
        {
          "id": 69,
          "name": "r060",
          "type": "solid",
          "x": 2768,
          "y": 128,
          "width": 16,
          "height": 80,
          "rotation": 0,
          "visible": true,
          "properties": [
            {
              "name": "sourceJson",
              "type": "string",
              "value": "{\"id\":\"r060\",\"x\":2768,\"y\":128,\"w\":16,\"h\":80,\"collision\":\"solid\"}"
            }
          ]
        },
        {
          "id": 70,
          "name": "r061",
          "type": "solid",
          "x": 2816,
          "y": 208,
          "width": 480,
          "height": 32,
          "rotation": 0,
          "visible": true,
          "properties": [
            {
              "name": "sourceJson",
              "type": "string",
              "value": "{\"id\":\"r061\",\"x\":2816,\"y\":208,\"w\":480,\"h\":32,\"collision\":\"solid\"}"
            }
          ]
        },
        {
          "id": 71,
          "name": "r063",
          "type": "solid",
          "x": 2816,
          "y": 80,
          "width": 32,
          "height": 128,
          "rotation": 0,
          "visible": true,
          "properties": [
            {
              "name": "sourceJson",
              "type": "string",
              "value": "{\"id\":\"r063\",\"x\":2816,\"y\":80,\"w\":32,\"h\":128,\"collision\":\"solid\"}"
            }
          ]
        },
        {
          "id": 72,
          "name": "r064-base",
          "type": "solid",
          "x": 2976,
          "y": 192,
          "width": 16,
          "height": 16,
          "rotation": 0,
          "visible": true,
          "properties": [
            {
              "name": "sourceJson",
              "type": "string",
              "value": "{\"id\":\"r064-base\",\"x\":2976,\"y\":192,\"w\":16,\"h\":16,\"collision\":\"solid\"}"
            }
          ]
        }
      ]
    },
    {
      "id": 2,
      "name": "objects",
      "type": "objectgroup",
      "visible": true,
      "opacity": 1,
      "x": 0,
      "y": 0,
      "draworder": "index",
      "objects": [
        {
          "id": 73,
          "name": "r015-0-0",
          "type": "coin",
          "x": 994,
          "y": 146,
          "width": 10,
          "height": 14,
          "rotation": 0,
          "visible": true,
          "properties": [
            {
              "name": "sourceJson",
              "type": "string",
              "value": "{\"id\":\"r015-0-0\",\"kind\":\"coin\",\"x\":994,\"y\":146,\"w\":10,\"h\":14}"
            }
          ]
        },
        {
          "id": 74,
          "name": "r015-1-0",
          "type": "coin",
          "x": 1010,
          "y": 146,
          "width": 10,
          "height": 14,
          "rotation": 0,
          "visible": true,
          "properties": [
            {
              "name": "sourceJson",
              "type": "string",
              "value": "{\"id\":\"r015-1-0\",\"kind\":\"coin\",\"x\":1010,\"y\":146,\"w\":10,\"h\":14}"
            }
          ]
        },
        {
          "id": 75,
          "name": "r015-2-0",
          "type": "coin",
          "x": 1026,
          "y": 146,
          "width": 10,
          "height": 14,
          "rotation": 0,
          "visible": true,
          "properties": [
            {
              "name": "sourceJson",
              "type": "string",
              "value": "{\"id\":\"r015-2-0\",\"kind\":\"coin\",\"x\":1026,\"y\":146,\"w\":10,\"h\":14}"
            }
          ]
        },
        {
          "id": 76,
          "name": "r020-0-0",
          "type": "coin",
          "x": 1218,
          "y": 114,
          "width": 10,
          "height": 14,
          "rotation": 0,
          "visible": true,
          "properties": [
            {
              "name": "sourceJson",
              "type": "string",
              "value": "{\"id\":\"r020-0-0\",\"kind\":\"coin\",\"x\":1218,\"y\":114,\"w\":10,\"h\":14}"
            }
          ]
        },
        {
          "id": 77,
          "name": "r020-1-0",
          "type": "coin",
          "x": 1234,
          "y": 114,
          "width": 10,
          "height": 14,
          "rotation": 0,
          "visible": true,
          "properties": [
            {
              "name": "sourceJson",
              "type": "string",
              "value": "{\"id\":\"r020-1-0\",\"kind\":\"coin\",\"x\":1234,\"y\":114,\"w\":10,\"h\":14}"
            }
          ]
        },
        {
          "id": 78,
          "name": "r032-0-0",
          "type": "coin",
          "x": 1682,
          "y": 130,
          "width": 10,
          "height": 14,
          "rotation": 0,
          "visible": true,
          "properties": [
            {
              "name": "sourceJson",
              "type": "string",
              "value": "{\"id\":\"r032-0-0\",\"kind\":\"coin\",\"x\":1682,\"y\":130,\"w\":10,\"h\":14}"
            }
          ]
        },
        {
          "id": 79,
          "name": "r032-1-0",
          "type": "coin",
          "x": 1698,
          "y": 130,
          "width": 10,
          "height": 14,
          "rotation": 0,
          "visible": true,
          "properties": [
            {
              "name": "sourceJson",
              "type": "string",
              "value": "{\"id\":\"r032-1-0\",\"kind\":\"coin\",\"x\":1698,\"y\":130,\"w\":10,\"h\":14}"
            }
          ]
        },
        {
          "id": 80,
          "name": "r032-2-0",
          "type": "coin",
          "x": 1714,
          "y": 130,
          "width": 10,
          "height": 14,
          "rotation": 0,
          "visible": true,
          "properties": [
            {
              "name": "sourceJson",
              "type": "string",
              "value": "{\"id\":\"r032-2-0\",\"kind\":\"coin\",\"x\":1714,\"y\":130,\"w\":10,\"h\":14}"
            }
          ]
        },
        {
          "id": 81,
          "name": "inspection-start",
          "type": "spawn",
          "x": 24,
          "y": 184,
          "width": 12,
          "height": 24,
          "rotation": 0,
          "visible": true,
          "properties": [
            {
              "name": "sourceJson",
              "type": "string",
              "value": "{\"id\":\"inspection-start\",\"kind\":\"spawn\",\"x\":24,\"y\":184,\"w\":12,\"h\":24}"
            }
          ]
        }
      ]
    },
    {
      "id": 3,
      "name": "pending-mechanics",
      "type": "objectgroup",
      "visible": true,
      "opacity": 1,
      "x": 0,
      "y": 0,
      "draworder": "index",
      "objects": [
        {
          "id": 82,
          "name": "r001",
          "type": "enemy-lakitu",
          "x": 368,
          "y": 40,
          "width": 0,
          "height": 0,
          "rotation": 0,
          "visible": true,
          "point": true,
          "properties": [
            {
              "name": "sourceJson",
              "type": "string",
              "value": "{\"id\":\"r001\",\"kind\":\"enemy-lakitu\",\"source\":{\"thing\":\"Lakitu\",\"x\":184,\"y\":84},\"sourcePath\":{\"area\":0,\"part\":\"base\",\"record\":\"r001\"},\"x\":368,\"y\":40}"
            }
          ]
        },
        {
          "id": 83,
          "name": "r008-contents",
          "type": "block-contents",
          "x": 576,
          "y": 80,
          "width": 0,
          "height": 0,
          "rotation": 0,
          "visible": true,
          "point": true,
          "properties": [
            {
              "name": "sourceJson",
              "type": "string",
              "value": "{\"id\":\"r008-contents\",\"kind\":\"block-contents\",\"source\":{\"thing\":\"Brick\",\"contents\":\"Mushroom\",\"x\":288,\"y\":64},\"sourcePath\":{\"area\":0,\"part\":\"base\",\"record\":\"r008\"},\"x\":576,\"y\":80}"
            }
          ]
        },
        {
          "id": 84,
          "name": "r013-contents",
          "type": "block-contents",
          "x": 688,
          "y": 144,
          "width": 0,
          "height": 0,
          "rotation": 0,
          "visible": true,
          "point": true,
          "properties": [
            {
              "name": "sourceJson",
              "type": "string",
              "value": "{\"id\":\"r013-contents\",\"kind\":\"block-contents\",\"source\":{\"thing\":\"Brick\",\"contents\":\"Coin\",\"x\":344,\"y\":32},\"sourcePath\":{\"area\":0,\"part\":\"base\",\"record\":\"r013\"},\"x\":688,\"y\":144}"
            }
          ]
        },
        {
          "id": 85,
          "name": "r027",
          "type": "hidden-block",
          "x": 1440,
          "y": 128,
          "width": 0,
          "height": 0,
          "rotation": 0,
          "visible": true,
          "point": true,
          "properties": [
            {
              "name": "sourceJson",
              "type": "string",
              "value": "{\"id\":\"r027\",\"kind\":\"hidden-block\",\"source\":{\"thing\":\"Block\",\"contents\":\"Mushroom1Up\",\"hidden\":true,\"x\":720,\"y\":40},\"sourcePath\":{\"area\":0,\"part\":\"base\",\"record\":\"r027\"},\"x\":1440,\"y\":128}"
            }
          ]
        },
        {
          "id": 86,
          "name": "r031-plant",
          "type": "enemy-piranha",
          "x": 1632,
          "y": 160,
          "width": 0,
          "height": 0,
          "rotation": 0,
          "visible": true,
          "point": true,
          "properties": [
            {
              "name": "sourceJson",
              "type": "string",
              "value": "{\"id\":\"r031-plant\",\"kind\":\"enemy-piranha\",\"source\":{\"macro\":\"Pipe\",\"height\":24,\"piranha\":true,\"x\":816,\"y\":24},\"sourcePath\":{\"area\":0,\"part\":\"base\",\"record\":\"r031\"},\"x\":1632,\"y\":160}"
            }
          ]
        },
        {
          "id": 87,
          "name": "r033-0-0",
          "type": "hidden-block",
          "x": 1808,
          "y": 144,
          "width": 0,
          "height": 0,
          "rotation": 0,
          "visible": true,
          "point": true,
          "properties": [
            {
              "name": "sourceJson",
              "type": "string",
              "value": "{\"id\":\"r033-0-0\",\"kind\":\"hidden-block\",\"source\":{\"thing\":\"Block\",\"hidden\":true,\"x\":904,\"y\":32},\"sourcePath\":{\"area\":0,\"part\":\"base\",\"record\":\"r033\"},\"x\":1808,\"y\":144}"
            }
          ]
        },
        {
          "id": 88,
          "name": "r033-0-1",
          "type": "hidden-block",
          "x": 1808,
          "y": 80,
          "width": 0,
          "height": 0,
          "rotation": 0,
          "visible": true,
          "point": true,
          "properties": [
            {
              "name": "sourceJson",
              "type": "string",
              "value": "{\"id\":\"r033-0-1\",\"kind\":\"hidden-block\",\"source\":{\"thing\":\"Block\",\"hidden\":true,\"x\":904,\"y\":64},\"sourcePath\":{\"area\":0,\"part\":\"base\",\"record\":\"r033\"},\"x\":1808,\"y\":80}"
            }
          ]
        },
        {
          "id": 89,
          "name": "r053-contents",
          "type": "block-contents",
          "x": 2432,
          "y": 144,
          "width": 0,
          "height": 0,
          "rotation": 0,
          "visible": true,
          "point": true,
          "properties": [
            {
              "name": "sourceJson",
              "type": "string",
              "value": "{\"id\":\"r053-contents\",\"kind\":\"block-contents\",\"source\":{\"thing\":\"Brick\",\"contents\":\"Coin\",\"x\":1216,\"y\":32},\"sourcePath\":{\"area\":0,\"part\":\"base\",\"record\":\"r053\"},\"x\":2432,\"y\":144}"
            }
          ]
        },
        {
          "id": 90,
          "name": "r062",
          "type": "spawn-zone-LakituStop",
          "x": 2816,
          "y": 208,
          "width": 0,
          "height": 0,
          "rotation": 0,
          "visible": true,
          "point": true,
          "properties": [
            {
              "name": "sourceJson",
              "type": "string",
              "value": "{\"id\":\"r062\",\"kind\":\"spawn-zone-LakituStop\",\"source\":{\"macro\":\"LakituStop\",\"x\":1408,\"y\":0},\"sourcePath\":{\"area\":0,\"part\":\"base\",\"record\":\"r062\"},\"x\":2816,\"y\":208}"
            }
          ]
        },
        {
          "id": 91,
          "name": "r064",
          "type": "flagpole-finish",
          "x": 2976,
          "y": 208,
          "width": 0,
          "height": 0,
          "rotation": 0,
          "visible": true,
          "point": true,
          "properties": [
            {
              "name": "sourceJson",
              "type": "string",
              "value": "{\"id\":\"r064\",\"kind\":\"flagpole-finish\",\"source\":{\"macro\":\"EndOutsideCastle\",\"transport\":{\"map\":\"6-2\"},\"x\":1488,\"y\":0},\"sourcePath\":{\"area\":0,\"part\":\"base\",\"record\":\"r064\"},\"x\":2976,\"y\":208}"
            }
          ]
        },
        {
          "id": 92,
          "name": "r064-transport",
          "type": "source-transport-not-simulated",
          "x": 2976,
          "y": 208,
          "width": 0,
          "height": 0,
          "rotation": 0,
          "visible": true,
          "point": true,
          "properties": [
            {
              "name": "sourceJson",
              "type": "string",
              "value": "{\"id\":\"r064-transport\",\"kind\":\"source-transport-not-simulated\",\"source\":{\"macro\":\"EndOutsideCastle\",\"transport\":{\"map\":\"6-2\"},\"x\":1488,\"y\":0},\"sourcePath\":{\"area\":0,\"part\":\"base\",\"record\":\"r064\"},\"x\":2976,\"y\":208}"
            }
          ]
        }
      ]
    }
  ],
  "properties": [
    {
      "name": "room",
      "type": "string",
      "value": "area-0"
    },
    {
      "name": "underwater",
      "type": "bool",
      "value": false
    },
    {
      "name": "inspectionOnly",
      "type": "bool",
      "value": true
    },
    {
      "name": "referenceReview",
      "type": "string",
      "value": "pending"
    }
  ]
}
