{
  "type": "map",
  "version": "1.10",
  "orientation": "orthogonal",
  "renderorder": "right-down",
  "width": 240,
  "height": 15,
  "tilewidth": 16,
  "tileheight": 16,
  "infinite": false,
  "nextlayerid": 4,
  "nextobjectid": 136,
  "tilesets": [],
  "layers": [
    {
      "id": 1,
      "name": "collision",
      "type": "objectgroup",
      "visible": true,
      "opacity": 1,
      "x": 0,
      "y": 0,
      "draworder": "index",
      "objects": [
        {
          "id": 1,
          "name": "r000",
          "type": "solid",
          "x": 0,
          "y": 208,
          "width": 1968,
          "height": 32,
          "rotation": 0,
          "visible": true,
          "properties": [
            {
              "name": "sourceJson",
              "type": "string",
              "value": "{\"id\":\"r000\",\"x\":0,\"y\":208,\"w\":1968,\"h\":32,\"collision\":\"solid\"}"
            }
          ]
        },
        {
          "id": 2,
          "name": "r001-0-0",
          "type": "solid",
          "x": 160,
          "y": 144,
          "width": 16,
          "height": 16,
          "rotation": 0,
          "visible": true,
          "properties": [
            {
              "name": "sourceJson",
              "type": "string",
              "value": "{\"id\":\"r001-0-0\",\"x\":160,\"y\":144,\"w\":16,\"h\":16,\"collision\":\"solid\"}"
            }
          ]
        },
        {
          "id": 3,
          "name": "r001-1-0",
          "type": "solid",
          "x": 176,
          "y": 144,
          "width": 16,
          "height": 16,
          "rotation": 0,
          "visible": true,
          "properties": [
            {
              "name": "sourceJson",
              "type": "string",
              "value": "{\"id\":\"r001-1-0\",\"x\":176,\"y\":144,\"w\":16,\"h\":16,\"collision\":\"solid\"}"
            }
          ]
        },
        {
          "id": 4,
          "name": "r001-2-0",
          "type": "solid",
          "x": 192,
          "y": 144,
          "width": 16,
          "height": 16,
          "rotation": 0,
          "visible": true,
          "properties": [
            {
              "name": "sourceJson",
              "type": "string",
              "value": "{\"id\":\"r001-2-0\",\"x\":192,\"y\":144,\"w\":16,\"h\":16,\"collision\":\"solid\"}"
            }
          ]
        },
        {
          "id": 5,
          "name": "r002",
          "type": "solid",
          "x": 304,
          "y": 144,
          "width": 32,
          "height": 64,
          "rotation": 0,
          "visible": true,
          "properties": [
            {
              "name": "sourceJson",
              "type": "string",
              "value": "{\"id\":\"r002\",\"x\":304,\"y\":144,\"w\":32,\"h\":64,\"collision\":\"solid\"}"
            }
          ]
        },
        {
          "id": 6,
          "name": "r003",
          "type": "solid",
          "x": 368,
          "y": 80,
          "width": 16,
          "height": 16,
          "rotation": 0,
          "visible": true,
          "properties": [
            {
              "name": "sourceJson",
              "type": "string",
              "value": "{\"id\":\"r003\",\"x\":368,\"y\":80,\"w\":16,\"h\":16,\"collision\":\"solid\"}"
            }
          ]
        },
        {
          "id": 7,
          "name": "r005",
          "type": "solid",
          "x": 384,
          "y": 80,
          "width": 16,
          "height": 16,
          "rotation": 0,
          "visible": true,
          "properties": [
            {
              "name": "sourceJson",
              "type": "string",
              "value": "{\"id\":\"r005\",\"x\":384,\"y\":80,\"w\":16,\"h\":16,\"collision\":\"solid\"}"
            }
          ]
        },
        {
          "id": 8,
          "name": "r006",
          "type": "solid",
          "x": 400,
          "y": 80,
          "width": 16,
          "height": 16,
          "rotation": 0,
          "visible": true,
          "properties": [
            {
              "name": "sourceJson",
              "type": "string",
              "value": "{\"id\":\"r006\",\"x\":400,\"y\":80,\"w\":16,\"h\":16,\"collision\":\"solid\"}"
            }
          ]
        },
        {
          "id": 9,
          "name": "r008",
          "type": "solid",
          "x": 448,
          "y": 144,
          "width": 32,
          "height": 64,
          "rotation": 0,
          "visible": true,
          "properties": [
            {
              "name": "sourceJson",
              "type": "string",
              "value": "{\"id\":\"r008\",\"x\":448,\"y\":144,\"w\":32,\"h\":64,\"collision\":\"solid\"}"
            }
          ]
        },
        {
          "id": 10,
          "name": "r009",
          "type": "solid",
          "x": 512,
          "y": 128,
          "width": 32,
          "height": 16,
          "rotation": 0,
          "visible": true,
          "properties": [
            {
              "name": "sourceJson",
              "type": "string",
              "value": "{\"id\":\"r009\",\"x\":512,\"y\":128,\"w\":32,\"h\":16,\"collision\":\"solid\"}"
            }
          ]
        },
        {
          "id": 11,
          "name": "r010",
          "type": "solid",
          "x": 512,
          "y": 96,
          "width": 32,
          "height": 32,
          "rotation": 0,
          "visible": true,
          "properties": [
            {
              "name": "sourceJson",
              "type": "string",
              "value": "{\"id\":\"r010\",\"x\":512,\"y\":96,\"w\":32,\"h\":32,\"collision\":\"solid\"}"
            }
          ]
        },
        {
          "id": 12,
          "name": "r011",
          "type": "solid",
          "x": 560,
          "y": 176,
          "width": 32,
          "height": 32,
          "rotation": 0,
          "visible": true,
          "properties": [
            {
              "name": "sourceJson",
              "type": "string",
              "value": "{\"id\":\"r011\",\"x\":560,\"y\":176,\"w\":32,\"h\":32,\"collision\":\"solid\"}"
            }
          ]
        },
        {
          "id": 13,
          "name": "r012",
          "type": "solid",
          "x": 592,
          "y": 176,
          "width": 32,
          "height": 32,
          "rotation": 0,
          "visible": true,
          "properties": [
            {
              "name": "sourceJson",
              "type": "string",
              "value": "{\"id\":\"r012\",\"x\":592,\"y\":176,\"w\":32,\"h\":32,\"collision\":\"solid\"}"
            }
          ]
        },
        {
          "id": 14,
          "name": "r014",
          "type": "solid",
          "x": 736,
          "y": 144,
          "width": 32,
          "height": 64,
          "rotation": 0,
          "visible": true,
          "properties": [
            {
              "name": "sourceJson",
              "type": "string",
              "value": "{\"id\":\"r014\",\"x\":736,\"y\":144,\"w\":32,\"h\":64,\"collision\":\"solid\"}"
            }
          ]
        },
        {
          "id": 15,
          "name": "r015",
          "type": "solid",
          "x": 816,
          "y": 144,
          "width": 16,
          "height": 16,
          "rotation": 0,
          "visible": true,
          "properties": [
            {
              "name": "sourceJson",
              "type": "string",
              "value": "{\"id\":\"r015\",\"x\":816,\"y\":144,\"w\":16,\"h\":16,\"collision\":\"solid\"}"
            }
          ]
        },
        {
          "id": 16,
          "name": "r016",
          "type": "solid",
          "x": 832,
          "y": 144,
          "width": 16,
          "height": 16,
          "rotation": 0,
          "visible": true,
          "properties": [
            {
              "name": "sourceJson",
              "type": "string",
              "value": "{\"id\":\"r016\",\"x\":832,\"y\":144,\"w\":16,\"h\":16,\"collision\":\"solid\"}"
            }
          ]
        },
        {
          "id": 17,
          "name": "r018",
          "type": "solid",
          "x": 896,
          "y": 128,
          "width": 32,
          "height": 80,
          "rotation": 0,
          "visible": true,
          "properties": [
            {
              "name": "sourceJson",
              "type": "string",
              "value": "{\"id\":\"r018\",\"x\":896,\"y\":128,\"w\":32,\"h\":80,\"collision\":\"solid\"}"
            }
          ]
        },
        {
          "id": 18,
          "name": "r019",
          "type": "solid",
          "x": 992,
          "y": 144,
          "width": 32,
          "height": 16,
          "rotation": 0,
          "visible": true,
          "properties": [
            {
              "name": "sourceJson",
              "type": "string",
              "value": "{\"id\":\"r019\",\"x\":992,\"y\":144,\"w\":32,\"h\":16,\"collision\":\"solid\"}"
            }
          ]
        },
        {
          "id": 19,
          "name": "r020",
          "type": "solid",
          "x": 992,
          "y": 112,
          "width": 32,
          "height": 32,
          "rotation": 0,
          "visible": true,
          "properties": [
            {
              "name": "sourceJson",
              "type": "string",
              "value": "{\"id\":\"r020\",\"x\":992,\"y\":112,\"w\":32,\"h\":32,\"collision\":\"solid\"}"
            }
          ]
        },
        {
          "id": 20,
          "name": "r021",
          "type": "solid",
          "x": 1072,
          "y": 176,
          "width": 32,
          "height": 32,
          "rotation": 0,
          "visible": true,
          "properties": [
            {
              "name": "sourceJson",
              "type": "string",
              "value": "{\"id\":\"r021\",\"x\":1072,\"y\":176,\"w\":32,\"h\":32,\"collision\":\"solid\"}"
            }
          ]
        },
        {
          "id": 21,
          "name": "r022-0-0",
          "type": "solid",
          "x": 1232,
          "y": 80,
          "width": 16,
          "height": 16,
          "rotation": 0,
          "visible": true,
          "properties": [
            {
              "name": "sourceJson",
              "type": "string",
              "value": "{\"id\":\"r022-0-0\",\"x\":1232,\"y\":80,\"w\":16,\"h\":16,\"collision\":\"solid\"}"
            }
          ]
        },
        {
          "id": 22,
          "name": "r022-1-0",
          "type": "solid",
          "x": 1248,
          "y": 80,
          "width": 16,
          "height": 16,
          "rotation": 0,
          "visible": true,
          "properties": [
            {
              "name": "sourceJson",
              "type": "string",
              "value": "{\"id\":\"r022-1-0\",\"x\":1248,\"y\":80,\"w\":16,\"h\":16,\"collision\":\"solid\"}"
            }
          ]
        },
        {
          "id": 23,
          "name": "r022-2-0",
          "type": "solid",
          "x": 1264,
          "y": 80,
          "width": 16,
          "height": 16,
          "rotation": 0,
          "visible": true,
          "properties": [
            {
              "name": "sourceJson",
              "type": "string",
              "value": "{\"id\":\"r022-2-0\",\"x\":1264,\"y\":80,\"w\":16,\"h\":16,\"collision\":\"solid\"}"
            }
          ]
        },
        {
          "id": 24,
          "name": "r022-3-0",
          "type": "solid",
          "x": 1280,
          "y": 80,
          "width": 16,
          "height": 16,
          "rotation": 0,
          "visible": true,
          "properties": [
            {
              "name": "sourceJson",
              "type": "string",
              "value": "{\"id\":\"r022-3-0\",\"x\":1280,\"y\":80,\"w\":16,\"h\":16,\"collision\":\"solid\"}"
            }
          ]
        },
        {
          "id": 25,
          "name": "r023",
          "type": "solid",
          "x": 1280,
          "y": 160,
          "width": 32,
          "height": 48,
          "rotation": 0,
          "visible": true,
          "properties": [
            {
              "name": "sourceJson",
              "type": "string",
              "value": "{\"id\":\"r023\",\"x\":1280,\"y\":160,\"w\":32,\"h\":48,\"collision\":\"solid\"}"
            }
          ]
        },
        {
          "id": 26,
          "name": "r025",
          "type": "solid",
          "x": 1296,
          "y": 80,
          "width": 16,
          "height": 16,
          "rotation": 0,
          "visible": true,
          "properties": [
            {
              "name": "sourceJson",
              "type": "string",
              "value": "{\"id\":\"r025\",\"x\":1296,\"y\":80,\"w\":16,\"h\":16,\"collision\":\"solid\"}"
            }
          ]
        },
        {
          "id": 27,
          "name": "r026",
          "type": "solid",
          "x": 1344,
          "y": 176,
          "width": 32,
          "height": 32,
          "rotation": 0,
          "visible": true,
          "properties": [
            {
              "name": "sourceJson",
              "type": "string",
              "value": "{\"id\":\"r026\",\"x\":1344,\"y\":176,\"w\":32,\"h\":32,\"collision\":\"solid\"}"
            }
          ]
        },
        {
          "id": 28,
          "name": "r027",
          "type": "solid",
          "x": 1392,
          "y": 112,
          "width": 32,
          "height": 96,
          "rotation": 0,
          "visible": true,
          "properties": [
            {
              "name": "sourceJson",
              "type": "string",
              "value": "{\"id\":\"r027\",\"x\":1392,\"y\":112,\"w\":32,\"h\":96,\"collision\":\"solid\"}"
            }
          ]
        },
        {
          "id": 29,
          "name": "r029",
          "type": "solid",
          "x": 1504,
          "y": 160,
          "width": 32,
          "height": 48,
          "rotation": 0,
          "visible": true,
          "properties": [
            {
              "name": "sourceJson",
              "type": "string",
              "value": "{\"id\":\"r029\",\"x\":1504,\"y\":160,\"w\":32,\"h\":48,\"collision\":\"solid\"}"
            }
          ]
        },
        {
          "id": 30,
          "name": "r030",
          "type": "solid",
          "x": 1632,
          "y": 144,
          "width": 32,
          "height": 64,
          "rotation": 0,
          "visible": true,
          "properties": [
            {
              "name": "sourceJson",
              "type": "string",
              "value": "{\"id\":\"r030\",\"x\":1632,\"y\":144,\"w\":32,\"h\":64,\"collision\":\"solid\"}"
            }
          ]
        },
        {
          "id": 31,
          "name": "r031",
          "type": "solid",
          "x": 1680,
          "y": 176,
          "width": 32,
          "height": 32,
          "rotation": 0,
          "visible": true,
          "properties": [
            {
              "name": "sourceJson",
              "type": "string",
              "value": "{\"id\":\"r031\",\"x\":1680,\"y\":176,\"w\":32,\"h\":32,\"collision\":\"solid\"}"
            }
          ]
        },
        {
          "id": 32,
          "name": "r032-0-0",
          "type": "solid",
          "x": 1760,
          "y": 144,
          "width": 16,
          "height": 16,
          "rotation": 0,
          "visible": true,
          "properties": [
            {
              "name": "sourceJson",
              "type": "string",
              "value": "{\"id\":\"r032-0-0\",\"x\":1760,\"y\":144,\"w\":16,\"h\":16,\"collision\":\"solid\"}"
            }
          ]
        },
        {
          "id": 33,
          "name": "r032-1-0",
          "type": "solid",
          "x": 1808,
          "y": 144,
          "width": 16,
          "height": 16,
          "rotation": 0,
          "visible": true,
          "properties": [
            {
              "name": "sourceJson",
              "type": "string",
              "value": "{\"id\":\"r032-1-0\",\"x\":1808,\"y\":144,\"w\":16,\"h\":16,\"collision\":\"solid\"}"
            }
          ]
        },
        {
          "id": 34,
          "name": "r033",
          "type": "solid",
          "x": 1776,
          "y": 144,
          "width": 32,
          "height": 16,
          "rotation": 0,
          "visible": true,
          "properties": [
            {
              "name": "sourceJson",
              "type": "string",
              "value": "{\"id\":\"r033\",\"x\":1776,\"y\":144,\"w\":32,\"h\":16,\"collision\":\"solid\"}"
            }
          ]
        },
        {
          "id": 35,
          "name": "r034",
          "type": "solid",
          "x": 1776,
          "y": 96,
          "width": 32,
          "height": 48,
          "rotation": 0,
          "visible": true,
          "properties": [
            {
              "name": "sourceJson",
              "type": "string",
              "value": "{\"id\":\"r034\",\"x\":1776,\"y\":96,\"w\":32,\"h\":48,\"collision\":\"solid\"}"
            }
          ]
        },
        {
          "id": 36,
          "name": "r035",
          "type": "solid",
          "x": 1840,
          "y": 176,
          "width": 32,
          "height": 32,
          "rotation": 0,
          "visible": true,
          "properties": [
            {
              "name": "sourceJson",
              "type": "string",
              "value": "{\"id\":\"r035\",\"x\":1840,\"y\":176,\"w\":32,\"h\":32,\"collision\":\"solid\"}"
            }
          ]
        },
        {
          "id": 37,
          "name": "r036",
          "type": "solid",
          "x": 1840,
          "y": 80,
          "width": 16,
          "height": 16,
          "rotation": 0,
          "visible": true,
          "properties": [
            {
              "name": "sourceJson",
              "type": "string",
              "value": "{\"id\":\"r036\",\"x\":1840,\"y\":80,\"w\":16,\"h\":16,\"collision\":\"solid\"}"
            }
          ]
        },
        {
          "id": 38,
          "name": "r037-0-0",
          "type": "solid",
          "x": 1904,
          "y": 80,
          "width": 16,
          "height": 16,
          "rotation": 0,
          "visible": true,
          "properties": [
            {
              "name": "sourceJson",
              "type": "string",
              "value": "{\"id\":\"r037-0-0\",\"x\":1904,\"y\":80,\"w\":16,\"h\":16,\"collision\":\"solid\"}"
            }
          ]
        },
        {
          "id": 39,
          "name": "r037-1-0",
          "type": "solid",
          "x": 1920,
          "y": 80,
          "width": 16,
          "height": 16,
          "rotation": 0,
          "visible": true,
          "properties": [
            {
              "name": "sourceJson",
              "type": "string",
              "value": "{\"id\":\"r037-1-0\",\"x\":1920,\"y\":80,\"w\":16,\"h\":16,\"collision\":\"solid\"}"
            }
          ]
        },
        {
          "id": 40,
          "name": "r037-2-0",
          "type": "solid",
          "x": 1936,
          "y": 80,
          "width": 16,
          "height": 16,
          "rotation": 0,
          "visible": true,
          "properties": [
            {
              "name": "sourceJson",
              "type": "string",
              "value": "{\"id\":\"r037-2-0\",\"x\":1936,\"y\":80,\"w\":16,\"h\":16,\"collision\":\"solid\"}"
            }
          ]
        },
        {
          "id": 41,
          "name": "r037-3-0",
          "type": "solid",
          "x": 1952,
          "y": 80,
          "width": 16,
          "height": 16,
          "rotation": 0,
          "visible": true,
          "properties": [
            {
              "name": "sourceJson",
              "type": "string",
              "value": "{\"id\":\"r037-3-0\",\"x\":1952,\"y\":80,\"w\":16,\"h\":16,\"collision\":\"solid\"}"
            }
          ]
        },
        {
          "id": 42,
          "name": "r037-4-0",
          "type": "solid",
          "x": 1968,
          "y": 80,
          "width": 16,
          "height": 16,
          "rotation": 0,
          "visible": true,
          "properties": [
            {
              "name": "sourceJson",
              "type": "string",
              "value": "{\"id\":\"r037-4-0\",\"x\":1968,\"y\":80,\"w\":16,\"h\":16,\"collision\":\"solid\"}"
            }
          ]
        },
        {
          "id": 43,
          "name": "r037-5-0",
          "type": "solid",
          "x": 1984,
          "y": 80,
          "width": 16,
          "height": 16,
          "rotation": 0,
          "visible": true,
          "properties": [
            {
              "name": "sourceJson",
              "type": "string",
              "value": "{\"id\":\"r037-5-0\",\"x\":1984,\"y\":80,\"w\":16,\"h\":16,\"collision\":\"solid\"}"
            }
          ]
        },
        {
          "id": 44,
          "name": "r037-6-0",
          "type": "solid",
          "x": 2000,
          "y": 80,
          "width": 16,
          "height": 16,
          "rotation": 0,
          "visible": true,
          "properties": [
            {
              "name": "sourceJson",
              "type": "string",
              "value": "{\"id\":\"r037-6-0\",\"x\":2000,\"y\":80,\"w\":16,\"h\":16,\"collision\":\"solid\"}"
            }
          ]
        },
        {
          "id": 45,
          "name": "r037-7-0",
          "type": "solid",
          "x": 2016,
          "y": 80,
          "width": 16,
          "height": 16,
          "rotation": 0,
          "visible": true,
          "properties": [
            {
              "name": "sourceJson",
              "type": "string",
              "value": "{\"id\":\"r037-7-0\",\"x\":2016,\"y\":80,\"w\":16,\"h\":16,\"collision\":\"solid\"}"
            }
          ]
        },
        {
          "id": 46,
          "name": "r037-8-0",
          "type": "solid",
          "x": 2032,
          "y": 80,
          "width": 16,
          "height": 16,
          "rotation": 0,
          "visible": true,
          "properties": [
            {
              "name": "sourceJson",
              "type": "string",
              "value": "{\"id\":\"r037-8-0\",\"x\":2032,\"y\":80,\"w\":16,\"h\":16,\"collision\":\"solid\"}"
            }
          ]
        },
        {
          "id": 47,
          "name": "r039",
          "type": "solid",
          "x": 2064,
          "y": 208,
          "width": 192,
          "height": 32,
          "rotation": 0,
          "visible": true,
          "properties": [
            {
              "name": "sourceJson",
              "type": "string",
              "value": "{\"id\":\"r039\",\"x\":2064,\"y\":208,\"w\":192,\"h\":32,\"collision\":\"solid\"}"
            }
          ]
        },
        {
          "id": 48,
          "name": "r040",
          "type": "solid",
          "x": 2096,
          "y": 176,
          "width": 32,
          "height": 32,
          "rotation": 0,
          "visible": true,
          "properties": [
            {
              "name": "sourceJson",
              "type": "string",
              "value": "{\"id\":\"r040\",\"x\":2096,\"y\":176,\"w\":32,\"h\":32,\"collision\":\"solid\"}"
            }
          ]
        },
        {
          "id": 49,
          "name": "r041",
          "type": "solid",
          "x": 2160,
          "y": 176,
          "width": 32,
          "height": 32,
          "rotation": 0,
          "visible": true,
          "properties": [
            {
              "name": "sourceJson",
              "type": "string",
              "value": "{\"id\":\"r041\",\"x\":2160,\"y\":176,\"w\":32,\"h\":32,\"collision\":\"solid\"}"
            }
          ]
        },
        {
          "id": 50,
          "name": "r042-0-0",
          "type": "solid",
          "x": 2208,
          "y": 128,
          "width": 16,
          "height": 16,
          "rotation": 0,
          "visible": true,
          "properties": [
            {
              "name": "sourceJson",
              "type": "string",
              "value": "{\"id\":\"r042-0-0\",\"x\":2208,\"y\":128,\"w\":16,\"h\":16,\"collision\":\"solid\"}"
            }
          ]
        },
        {
          "id": 51,
          "name": "r042-1-0",
          "type": "solid",
          "x": 2224,
          "y": 128,
          "width": 16,
          "height": 16,
          "rotation": 0,
          "visible": true,
          "properties": [
            {
              "name": "sourceJson",
              "type": "string",
              "value": "{\"id\":\"r042-1-0\",\"x\":2224,\"y\":128,\"w\":16,\"h\":16,\"collision\":\"solid\"}"
            }
          ]
        },
        {
          "id": 52,
          "name": "r043",
          "type": "solid",
          "x": 2240,
          "y": 80,
          "width": 16,
          "height": 16,
          "rotation": 0,
          "visible": true,
          "properties": [
            {
              "name": "sourceJson",
              "type": "string",
              "value": "{\"id\":\"r043\",\"x\":2240,\"y\":80,\"w\":16,\"h\":16,\"collision\":\"solid\"}"
            }
          ]
        },
        {
          "id": 53,
          "name": "r044",
          "type": "solid",
          "x": 2256,
          "y": 80,
          "width": 16,
          "height": 16,
          "rotation": 0,
          "visible": true,
          "properties": [
            {
              "name": "sourceJson",
              "type": "string",
              "value": "{\"id\":\"r044\",\"x\":2256,\"y\":80,\"w\":16,\"h\":16,\"collision\":\"solid\"}"
            }
          ]
        },
        {
          "id": 54,
          "name": "r045",
          "type": "solid",
          "x": 2272,
          "y": 208,
          "width": 16,
          "height": 32,
          "rotation": 0,
          "visible": true,
          "properties": [
            {
              "name": "sourceJson",
              "type": "string",
              "value": "{\"id\":\"r045\",\"x\":2272,\"y\":208,\"w\":16,\"h\":32,\"collision\":\"solid\"}"
            }
          ]
        },
        {
          "id": 55,
          "name": "r046",
          "type": "solid",
          "x": 2304,
          "y": 208,
          "width": 128,
          "height": 32,
          "rotation": 0,
          "visible": true,
          "properties": [
            {
              "name": "sourceJson",
              "type": "string",
              "value": "{\"id\":\"r046\",\"x\":2304,\"y\":208,\"w\":128,\"h\":32,\"collision\":\"solid\"}"
            }
          ]
        },
        {
          "id": 56,
          "name": "r047-0-0",
          "type": "solid",
          "x": 2304,
          "y": 144,
          "width": 16,
          "height": 16,
          "rotation": 0,
          "visible": true,
          "properties": [
            {
              "name": "sourceJson",
              "type": "string",
              "value": "{\"id\":\"r047-0-0\",\"x\":2304,\"y\":144,\"w\":16,\"h\":16,\"collision\":\"solid\"}"
            }
          ]
        },
        {
          "id": 57,
          "name": "r047-1-0",
          "type": "solid",
          "x": 2320,
          "y": 144,
          "width": 16,
          "height": 16,
          "rotation": 0,
          "visible": true,
          "properties": [
            {
              "name": "sourceJson",
              "type": "string",
              "value": "{\"id\":\"r047-1-0\",\"x\":2320,\"y\":144,\"w\":16,\"h\":16,\"collision\":\"solid\"}"
            }
          ]
        },
        {
          "id": 58,
          "name": "r047-2-0",
          "type": "solid",
          "x": 2336,
          "y": 144,
          "width": 16,
          "height": 16,
          "rotation": 0,
          "visible": true,
          "properties": [
            {
              "name": "sourceJson",
              "type": "string",
              "value": "{\"id\":\"r047-2-0\",\"x\":2336,\"y\":144,\"w\":16,\"h\":16,\"collision\":\"solid\"}"
            }
          ]
        },
        {
          "id": 59,
          "name": "r048-0-0",
          "type": "solid",
          "x": 2320,
          "y": 80,
          "width": 16,
          "height": 16,
          "rotation": 0,
          "visible": true,
          "properties": [
            {
              "name": "sourceJson",
              "type": "string",
              "value": "{\"id\":\"r048-0-0\",\"x\":2320,\"y\":80,\"w\":16,\"h\":16,\"collision\":\"solid\"}"
            }
          ]
        },
        {
          "id": 60,
          "name": "r048-1-0",
          "type": "solid",
          "x": 2336,
          "y": 80,
          "width": 16,
          "height": 16,
          "rotation": 0,
          "visible": true,
          "properties": [
            {
              "name": "sourceJson",
              "type": "string",
              "value": "{\"id\":\"r048-1-0\",\"x\":2336,\"y\":80,\"w\":16,\"h\":16,\"collision\":\"solid\"}"
            }
          ]
        },
        {
          "id": 61,
          "name": "r049",
          "type": "solid",
          "x": 2384,
          "y": 192,
          "width": 16,
          "height": 16,
          "rotation": 0,
          "visible": true,
          "properties": [
            {
              "name": "sourceJson",
              "type": "string",
              "value": "{\"id\":\"r049\",\"x\":2384,\"y\":192,\"w\":16,\"h\":16,\"collision\":\"solid\"}"
            }
          ]
        },
        {
          "id": 62,
          "name": "r050",
          "type": "solid",
          "x": 2400,
          "y": 176,
          "width": 16,
          "height": 32,
          "rotation": 0,
          "visible": true,
          "properties": [
            {
              "name": "sourceJson",
              "type": "string",
              "value": "{\"id\":\"r050\",\"x\":2400,\"y\":176,\"w\":16,\"h\":32,\"collision\":\"solid\"}"
            }
          ]
        },
        {
          "id": 63,
          "name": "r051",
          "type": "solid",
          "x": 2416,
          "y": 160,
          "width": 16,
          "height": 48,
          "rotation": 0,
          "visible": true,
          "properties": [
            {
              "name": "sourceJson",
              "type": "string",
              "value": "{\"id\":\"r051\",\"x\":2416,\"y\":160,\"w\":16,\"h\":48,\"collision\":\"solid\"}"
            }
          ]
        },
        {
          "id": 64,
          "name": "r052",
          "type": "solid",
          "x": 2448,
          "y": 208,
          "width": 1392,
          "height": 32,
          "rotation": 0,
          "visible": true,
          "properties": [
            {
              "name": "sourceJson",
              "type": "string",
              "value": "{\"id\":\"r052\",\"x\":2448,\"y\":208,\"w\":1392,\"h\":32,\"collision\":\"solid\"}"
            }
          ]
        },
        {
          "id": 65,
          "name": "r053",
          "type": "solid",
          "x": 2448,
          "y": 160,
          "width": 32,
          "height": 48,
          "rotation": 0,
          "visible": true,
          "properties": [
            {
              "name": "sourceJson",
              "type": "string",
              "value": "{\"id\":\"r053\",\"x\":2448,\"y\":160,\"w\":32,\"h\":48,\"collision\":\"solid\"}"
            }
          ]
        },
        {
          "id": 66,
          "name": "r054",
          "type": "solid",
          "x": 2496,
          "y": 144,
          "width": 16,
          "height": 64,
          "rotation": 0,
          "visible": true,
          "properties": [
            {
              "name": "sourceJson",
              "type": "string",
              "value": "{\"id\":\"r054\",\"x\":2496,\"y\":144,\"w\":16,\"h\":64,\"collision\":\"solid\"}"
            }
          ]
        },
        {
          "id": 67,
          "name": "r055",
          "type": "solid",
          "x": 2512,
          "y": 176,
          "width": 16,
          "height": 32,
          "rotation": 0,
          "visible": true,
          "properties": [
            {
              "name": "sourceJson",
              "type": "string",
              "value": "{\"id\":\"r055\",\"x\":2512,\"y\":176,\"w\":16,\"h\":32,\"collision\":\"solid\"}"
            }
          ]
        },
        {
          "id": 68,
          "name": "r056-0-0",
          "type": "solid",
          "x": 2560,
          "y": 144,
          "width": 16,
          "height": 16,
          "rotation": 0,
          "visible": true,
          "properties": [
            {
              "name": "sourceJson",
              "type": "string",
              "value": "{\"id\":\"r056-0-0\",\"x\":2560,\"y\":144,\"w\":16,\"h\":16,\"collision\":\"solid\"}"
            }
          ]
        },
        {
          "id": 69,
          "name": "r056-0-1",
          "type": "solid",
          "x": 2560,
          "y": 80,
          "width": 16,
          "height": 16,
          "rotation": 0,
          "visible": true,
          "properties": [
            {
              "name": "sourceJson",
              "type": "string",
              "value": "{\"id\":\"r056-0-1\",\"x\":2560,\"y\":80,\"w\":16,\"h\":16,\"collision\":\"solid\"}"
            }
          ]
        },
        {
          "id": 70,
          "name": "r056-1-0",
          "type": "solid",
          "x": 2576,
          "y": 144,
          "width": 16,
          "height": 16,
          "rotation": 0,
          "visible": true,
          "properties": [
            {
              "name": "sourceJson",
              "type": "string",
              "value": "{\"id\":\"r056-1-0\",\"x\":2576,\"y\":144,\"w\":16,\"h\":16,\"collision\":\"solid\"}"
            }
          ]
        },
        {
          "id": 71,
          "name": "r056-1-1",
          "type": "solid",
          "x": 2576,
          "y": 80,
          "width": 16,
          "height": 16,
          "rotation": 0,
          "visible": true,
          "properties": [
            {
              "name": "sourceJson",
              "type": "string",
              "value": "{\"id\":\"r056-1-1\",\"x\":2576,\"y\":80,\"w\":16,\"h\":16,\"collision\":\"solid\"}"
            }
          ]
        },
        {
          "id": 72,
          "name": "r056-2-0",
          "type": "solid",
          "x": 2592,
          "y": 144,
          "width": 16,
          "height": 16,
          "rotation": 0,
          "visible": true,
          "properties": [
            {
              "name": "sourceJson",
              "type": "string",
              "value": "{\"id\":\"r056-2-0\",\"x\":2592,\"y\":144,\"w\":16,\"h\":16,\"collision\":\"solid\"}"
            }
          ]
        },
        {
          "id": 73,
          "name": "r056-2-1",
          "type": "solid",
          "x": 2592,
          "y": 80,
          "width": 16,
          "height": 16,
          "rotation": 0,
          "visible": true,
          "properties": [
            {
              "name": "sourceJson",
              "type": "string",
              "value": "{\"id\":\"r056-2-1\",\"x\":2592,\"y\":80,\"w\":16,\"h\":16,\"collision\":\"solid\"}"
            }
          ]
        },
        {
          "id": 74,
          "name": "r058",
          "type": "solid",
          "x": 2672,
          "y": 144,
          "width": 32,
          "height": 16,
          "rotation": 0,
          "visible": true,
          "properties": [
            {
              "name": "sourceJson",
              "type": "string",
              "value": "{\"id\":\"r058\",\"x\":2672,\"y\":144,\"w\":32,\"h\":16,\"collision\":\"solid\"}"
            }
          ]
        },
        {
          "id": 75,
          "name": "r059",
          "type": "solid",
          "x": 2672,
          "y": 96,
          "width": 32,
          "height": 48,
          "rotation": 0,
          "visible": true,
          "properties": [
            {
              "name": "sourceJson",
              "type": "string",
              "value": "{\"id\":\"r059\",\"x\":2672,\"y\":96,\"w\":32,\"h\":48,\"collision\":\"solid\"}"
            }
          ]
        },
        {
          "id": 76,
          "name": "r061",
          "type": "solid",
          "x": 2784,
          "y": 144,
          "width": 32,
          "height": 64,
          "rotation": 0,
          "visible": true,
          "properties": [
            {
              "name": "sourceJson",
              "type": "string",
              "value": "{\"id\":\"r061\",\"x\":2784,\"y\":144,\"w\":32,\"h\":64,\"collision\":\"solid\"}"
            }
          ]
        },
        {
          "id": 77,
          "name": "r062",
          "type": "solid",
          "x": 2864,
          "y": 176,
          "width": 32,
          "height": 32,
          "rotation": 0,
          "visible": true,
          "properties": [
            {
              "name": "sourceJson",
              "type": "string",
              "value": "{\"id\":\"r062\",\"x\":2864,\"y\":176,\"w\":32,\"h\":32,\"collision\":\"solid\"}"
            }
          ]
        },
        {
          "id": 78,
          "name": "r063",
          "type": "solid",
          "x": 2896,
          "y": 160,
          "width": 32,
          "height": 48,
          "rotation": 0,
          "visible": true,
          "properties": [
            {
              "name": "sourceJson",
              "type": "string",
              "value": "{\"id\":\"r063\",\"x\":2896,\"y\":160,\"w\":32,\"h\":48,\"collision\":\"solid\"}"
            }
          ]
        },
        {
          "id": 79,
          "name": "r064",
          "type": "solid",
          "x": 2928,
          "y": 144,
          "width": 32,
          "height": 64,
          "rotation": 0,
          "visible": true,
          "properties": [
            {
              "name": "sourceJson",
              "type": "string",
              "value": "{\"id\":\"r064\",\"x\":2928,\"y\":144,\"w\":32,\"h\":64,\"collision\":\"solid\"}"
            }
          ]
        },
        {
          "id": 80,
          "name": "r065",
          "type": "solid",
          "x": 3024,
          "y": 160,
          "width": 32,
          "height": 48,
          "rotation": 0,
          "visible": true,
          "properties": [
            {
              "name": "sourceJson",
              "type": "string",
              "value": "{\"id\":\"r065\",\"x\":3024,\"y\":160,\"w\":32,\"h\":48,\"collision\":\"solid\"}"
            }
          ]
        },
        {
          "id": 81,
          "name": "r066",
          "type": "solid",
          "x": 3184,
          "y": 192,
          "width": 16,
          "height": 16,
          "rotation": 0,
          "visible": true,
          "properties": [
            {
              "name": "sourceJson",
              "type": "string",
              "value": "{\"id\":\"r066\",\"x\":3184,\"y\":192,\"w\":16,\"h\":16,\"collision\":\"solid\"}"
            }
          ]
        },
        {
          "id": 82,
          "name": "r067",
          "type": "solid",
          "x": 3200,
          "y": 176,
          "width": 16,
          "height": 32,
          "rotation": 0,
          "visible": true,
          "properties": [
            {
              "name": "sourceJson",
              "type": "string",
              "value": "{\"id\":\"r067\",\"x\":3200,\"y\":176,\"w\":16,\"h\":32,\"collision\":\"solid\"}"
            }
          ]
        },
        {
          "id": 83,
          "name": "r068",
          "type": "solid",
          "x": 3216,
          "y": 144,
          "width": 32,
          "height": 64,
          "rotation": 0,
          "visible": true,
          "properties": [
            {
              "name": "sourceJson",
              "type": "string",
              "value": "{\"id\":\"r068\",\"x\":3216,\"y\":144,\"w\":32,\"h\":64,\"collision\":\"solid\"}"
            }
          ]
        },
        {
          "id": 84,
          "name": "r069",
          "type": "solid",
          "x": 3248,
          "y": 128,
          "width": 16,
          "height": 80,
          "rotation": 0,
          "visible": true,
          "properties": [
            {
              "name": "sourceJson",
              "type": "string",
              "value": "{\"id\":\"r069\",\"x\":3248,\"y\":128,\"w\":16,\"h\":80,\"collision\":\"solid\"}"
            }
          ]
        },
        {
          "id": 85,
          "name": "r070",
          "type": "solid",
          "x": 3264,
          "y": 112,
          "width": 16,
          "height": 96,
          "rotation": 0,
          "visible": true,
          "properties": [
            {
              "name": "sourceJson",
              "type": "string",
              "value": "{\"id\":\"r070\",\"x\":3264,\"y\":112,\"w\":16,\"h\":96,\"collision\":\"solid\"}"
            }
          ]
        },
        {
          "id": 86,
          "name": "r071",
          "type": "solid",
          "x": 3280,
          "y": 96,
          "width": 16,
          "height": 112,
          "rotation": 0,
          "visible": true,
          "properties": [
            {
              "name": "sourceJson",
              "type": "string",
              "value": "{\"id\":\"r071\",\"x\":3280,\"y\":96,\"w\":16,\"h\":112,\"collision\":\"solid\"}"
            }
          ]
        },
        {
          "id": 87,
          "name": "r072",
          "type": "solid",
          "x": 3296,
          "y": 80,
          "width": 16,
          "height": 128,
          "rotation": 0,
          "visible": true,
          "properties": [
            {
              "name": "sourceJson",
              "type": "string",
              "value": "{\"id\":\"r072\",\"x\":3296,\"y\":80,\"w\":16,\"h\":128,\"collision\":\"solid\"}"
            }
          ]
        },
        {
          "id": 88,
          "name": "r074-base",
          "type": "solid",
          "x": 3456,
          "y": 192,
          "width": 16,
          "height": 16,
          "rotation": 0,
          "visible": true,
          "properties": [
            {
              "name": "sourceJson",
              "type": "string",
              "value": "{\"id\":\"r074-base\",\"x\":3456,\"y\":192,\"w\":16,\"h\":16,\"collision\":\"solid\"}"
            }
          ]
        }
      ]
    },
    {
      "id": 2,
      "name": "objects",
      "type": "objectgroup",
      "visible": true,
      "opacity": 1,
      "x": 0,
      "y": 0,
      "draworder": "index",
      "objects": [
        {
          "id": 89,
          "name": "inspection-start",
          "type": "spawn",
          "x": 24,
          "y": 184,
          "width": 12,
          "height": 24,
          "rotation": 0,
          "visible": true,
          "properties": [
            {
              "name": "sourceJson",
              "type": "string",
              "value": "{\"id\":\"inspection-start\",\"kind\":\"spawn\",\"x\":24,\"y\":184,\"w\":12,\"h\":24}"
            }
          ]
        }
      ]
    },
    {
      "id": 3,
      "name": "pending-mechanics",
      "type": "objectgroup",
      "visible": true,
      "opacity": 1,
      "x": 0,
      "y": 0,
      "draworder": "index",
      "objects": [
        {
          "id": 90,
          "name": "r002-transport",
          "type": "source-transport-not-simulated",
          "x": 304,
          "y": 144,
          "width": 0,
          "height": 0,
          "rotation": 0,
          "visible": true,
          "point": true,
          "properties": [
            {
              "name": "sourceJson",
              "type": "string",
              "value": "{\"id\":\"r002-transport\",\"kind\":\"source-transport-not-simulated\",\"source\":{\"height\":32,\"piranha\":true,\"transport\":5,\"x\":152,\"y\":32,\"thing\":\"PipeVertical\",\"width\":16},\"sourcePath\":{\"area\":0,\"part\":\"base\",\"record\":\"r002\"},\"x\":304,\"y\":144}"
            }
          ]
        },
        {
          "id": 91,
          "name": "r002-plant",
          "type": "enemy-piranha",
          "x": 304,
          "y": 144,
          "width": 0,
          "height": 0,
          "rotation": 0,
          "visible": true,
          "point": true,
          "properties": [
            {
              "name": "sourceJson",
              "type": "string",
              "value": "{\"id\":\"r002-plant\",\"kind\":\"enemy-piranha\",\"source\":{\"macro\":\"Pipe\",\"height\":32,\"piranha\":true,\"transport\":5,\"x\":152,\"y\":32},\"sourcePath\":{\"area\":0,\"part\":\"base\",\"record\":\"r002\"},\"x\":304,\"y\":144}"
            }
          ]
        },
        {
          "id": 92,
          "name": "r004",
          "type": "hidden-block",
          "x": 384,
          "y": 144,
          "width": 0,
          "height": 0,
          "rotation": 0,
          "visible": true,
          "point": true,
          "properties": [
            {
              "name": "sourceJson",
              "type": "string",
              "value": "{\"id\":\"r004\",\"kind\":\"hidden-block\",\"source\":{\"thing\":\"Block\",\"hidden\":true,\"x\":192,\"y\":32},\"sourcePath\":{\"area\":0,\"part\":\"base\",\"record\":\"r004\"},\"x\":384,\"y\":144}"
            }
          ]
        },
        {
          "id": 93,
          "name": "r005-contents",
          "type": "block-contents",
          "x": 384,
          "y": 80,
          "width": 0,
          "height": 0,
          "rotation": 0,
          "visible": true,
          "point": true,
          "properties": [
            {
              "name": "sourceJson",
              "type": "string",
              "value": "{\"id\":\"r005-contents\",\"kind\":\"block-contents\",\"source\":{\"thing\":\"Brick\",\"contents\":\"Coin\",\"x\":192,\"y\":64},\"sourcePath\":{\"area\":0,\"part\":\"base\",\"record\":\"r005\"},\"x\":384,\"y\":80}"
            }
          ]
        },
        {
          "id": 94,
          "name": "r007",
          "type": "enemy-koopa",
          "x": 416,
          "y": 184,
          "width": 0,
          "height": 0,
          "rotation": 0,
          "visible": true,
          "point": true,
          "properties": [
            {
              "name": "sourceJson",
              "type": "string",
              "value": "{\"id\":\"r007\",\"kind\":\"enemy-koopa\",\"source\":{\"thing\":\"Koopa\",\"x\":208,\"y\":12},\"sourcePath\":{\"area\":0,\"part\":\"base\",\"record\":\"r007\"},\"x\":416,\"y\":184}"
            }
          ]
        },
        {
          "id": 95,
          "name": "r008-plant",
          "type": "enemy-piranha",
          "x": 448,
          "y": 144,
          "width": 0,
          "height": 0,
          "rotation": 0,
          "visible": true,
          "point": true,
          "properties": [
            {
              "name": "sourceJson",
              "type": "string",
              "value": "{\"id\":\"r008-plant\",\"kind\":\"enemy-piranha\",\"source\":{\"macro\":\"Pipe\",\"height\":32,\"piranha\":true,\"x\":224,\"y\":32},\"sourcePath\":{\"area\":0,\"part\":\"base\",\"record\":\"r008\"},\"x\":448,\"y\":144}"
            }
          ]
        },
        {
          "id": 96,
          "name": "r010-plant",
          "type": "enemy-piranha",
          "x": 512,
          "y": 96,
          "width": 0,
          "height": 0,
          "rotation": 0,
          "visible": true,
          "point": true,
          "properties": [
            {
              "name": "sourceJson",
              "type": "string",
              "value": "{\"id\":\"r010-plant\",\"kind\":\"enemy-piranha\",\"source\":{\"macro\":\"Pipe\",\"height\":16,\"piranha\":true,\"x\":256,\"y\":56},\"sourcePath\":{\"area\":0,\"part\":\"base\",\"record\":\"r010\"},\"x\":512,\"y\":96}"
            }
          ]
        },
        {
          "id": 97,
          "name": "r011-plant",
          "type": "enemy-piranha",
          "x": 560,
          "y": 176,
          "width": 0,
          "height": 0,
          "rotation": 0,
          "visible": true,
          "point": true,
          "properties": [
            {
              "name": "sourceJson",
              "type": "string",
              "value": "{\"id\":\"r011-plant\",\"kind\":\"enemy-piranha\",\"source\":{\"macro\":\"Pipe\",\"height\":16,\"piranha\":true,\"entrance\":1,\"x\":280,\"y\":16},\"sourcePath\":{\"area\":0,\"part\":\"base\",\"record\":\"r011\"},\"x\":560,\"y\":176}"
            }
          ]
        },
        {
          "id": 98,
          "name": "r012-plant",
          "type": "enemy-piranha",
          "x": 592,
          "y": 176,
          "width": 0,
          "height": 0,
          "rotation": 0,
          "visible": true,
          "point": true,
          "properties": [
            {
              "name": "sourceJson",
              "type": "string",
              "value": "{\"id\":\"r012-plant\",\"kind\":\"enemy-piranha\",\"source\":{\"macro\":\"Pipe\",\"height\":16,\"piranha\":true,\"x\":296,\"y\":16},\"sourcePath\":{\"area\":0,\"part\":\"base\",\"record\":\"r012\"},\"x\":592,\"y\":176}"
            }
          ]
        },
        {
          "id": 99,
          "name": "r013",
          "type": "enemy-koopa",
          "x": 688,
          "y": 144,
          "width": 0,
          "height": 0,
          "rotation": 0,
          "visible": true,
          "point": true,
          "properties": [
            {
              "name": "sourceJson",
              "type": "string",
              "value": "{\"id\":\"r013\",\"kind\":\"enemy-koopa\",\"source\":{\"thing\":\"Koopa\",\"jumping\":true,\"x\":344,\"y\":32},\"sourcePath\":{\"area\":0,\"part\":\"base\",\"record\":\"r013\"},\"x\":688,\"y\":144}"
            }
          ]
        },
        {
          "id": 100,
          "name": "r014-plant",
          "type": "enemy-piranha",
          "x": 736,
          "y": 144,
          "width": 0,
          "height": 0,
          "rotation": 0,
          "visible": true,
          "point": true,
          "properties": [
            {
              "name": "sourceJson",
              "type": "string",
              "value": "{\"id\":\"r014-plant\",\"kind\":\"enemy-piranha\",\"source\":{\"macro\":\"Pipe\",\"height\":32,\"piranha\":true,\"x\":368,\"y\":32},\"sourcePath\":{\"area\":0,\"part\":\"base\",\"record\":\"r014\"},\"x\":736,\"y\":144}"
            }
          ]
        },
        {
          "id": 101,
          "name": "r016-contents",
          "type": "block-contents",
          "x": 832,
          "y": 144,
          "width": 0,
          "height": 0,
          "rotation": 0,
          "visible": true,
          "point": true,
          "properties": [
            {
              "name": "sourceJson",
              "type": "string",
              "value": "{\"id\":\"r016-contents\",\"kind\":\"block-contents\",\"source\":{\"thing\":\"Brick\",\"contents\":\"Mushroom\",\"x\":416,\"y\":32},\"sourcePath\":{\"area\":0,\"part\":\"base\",\"record\":\"r016\"},\"x\":832,\"y\":144}"
            }
          ]
        },
        {
          "id": 102,
          "name": "r017",
          "type": "enemy-beetle",
          "x": 864,
          "y": 191,
          "width": 0,
          "height": 0,
          "rotation": 0,
          "visible": true,
          "point": true,
          "properties": [
            {
              "name": "sourceJson",
              "type": "string",
              "value": "{\"id\":\"r017\",\"kind\":\"enemy-beetle\",\"source\":{\"thing\":\"Beetle\",\"x\":432,\"y\":8.5},\"sourcePath\":{\"area\":0,\"part\":\"base\",\"record\":\"r017\"},\"x\":864,\"y\":191}"
            }
          ]
        },
        {
          "id": 103,
          "name": "r018-transport",
          "type": "source-transport-not-simulated",
          "x": 896,
          "y": 128,
          "width": 0,
          "height": 0,
          "rotation": 0,
          "visible": true,
          "point": true,
          "properties": [
            {
              "name": "sourceJson",
              "type": "string",
              "value": "{\"id\":\"r018-transport\",\"kind\":\"source-transport-not-simulated\",\"source\":{\"height\":40,\"piranha\":true,\"transport\":6,\"x\":448,\"y\":40,\"thing\":\"PipeVertical\",\"width\":16},\"sourcePath\":{\"area\":0,\"part\":\"base\",\"record\":\"r018\"},\"x\":896,\"y\":128}"
            }
          ]
        },
        {
          "id": 104,
          "name": "r018-plant",
          "type": "enemy-piranha",
          "x": 896,
          "y": 128,
          "width": 0,
          "height": 0,
          "rotation": 0,
          "visible": true,
          "point": true,
          "properties": [
            {
              "name": "sourceJson",
              "type": "string",
              "value": "{\"id\":\"r018-plant\",\"kind\":\"enemy-piranha\",\"source\":{\"macro\":\"Pipe\",\"height\":40,\"piranha\":true,\"transport\":6,\"x\":448,\"y\":40},\"sourcePath\":{\"area\":0,\"part\":\"base\",\"record\":\"r018\"},\"x\":896,\"y\":128}"
            }
          ]
        },
        {
          "id": 105,
          "name": "r020-plant",
          "type": "enemy-piranha",
          "x": 992,
          "y": 112,
          "width": 0,
          "height": 0,
          "rotation": 0,
          "visible": true,
          "point": true,
          "properties": [
            {
              "name": "sourceJson",
              "type": "string",
              "value": "{\"id\":\"r020-plant\",\"kind\":\"enemy-piranha\",\"source\":{\"macro\":\"Pipe\",\"height\":16,\"piranha\":true,\"x\":496,\"y\":48},\"sourcePath\":{\"area\":0,\"part\":\"base\",\"record\":\"r020\"},\"x\":992,\"y\":112}"
            }
          ]
        },
        {
          "id": 106,
          "name": "r021-plant",
          "type": "enemy-piranha",
          "x": 1072,
          "y": 176,
          "width": 0,
          "height": 0,
          "rotation": 0,
          "visible": true,
          "point": true,
          "properties": [
            {
              "name": "sourceJson",
              "type": "string",
              "value": "{\"id\":\"r021-plant\",\"kind\":\"enemy-piranha\",\"source\":{\"macro\":\"Pipe\",\"height\":16,\"piranha\":true,\"x\":536,\"y\":16},\"sourcePath\":{\"area\":0,\"part\":\"base\",\"record\":\"r021\"},\"x\":1072,\"y\":176}"
            }
          ]
        },
        {
          "id": 107,
          "name": "r023-plant",
          "type": "enemy-piranha",
          "x": 1280,
          "y": 160,
          "width": 0,
          "height": 0,
          "rotation": 0,
          "visible": true,
          "point": true,
          "properties": [
            {
              "name": "sourceJson",
              "type": "string",
              "value": "{\"id\":\"r023-plant\",\"kind\":\"enemy-piranha\",\"source\":{\"macro\":\"Pipe\",\"height\":24,\"piranha\":true,\"x\":640,\"y\":24},\"sourcePath\":{\"area\":0,\"part\":\"base\",\"record\":\"r023\"},\"x\":1280,\"y\":160}"
            }
          ]
        },
        {
          "id": 108,
          "name": "r024",
          "type": "hidden-block",
          "x": 1312,
          "y": 144,
          "width": 0,
          "height": 0,
          "rotation": 0,
          "visible": true,
          "point": true,
          "properties": [
            {
              "name": "sourceJson",
              "type": "string",
              "value": "{\"id\":\"r024\",\"kind\":\"hidden-block\",\"source\":{\"thing\":\"Block\",\"hidden\":true,\"x\":656,\"y\":32},\"sourcePath\":{\"area\":0,\"part\":\"base\",\"record\":\"r024\"},\"x\":1312,\"y\":144}"
            }
          ]
        },
        {
          "id": 109,
          "name": "r025-vine",
          "type": "vine-transition",
          "x": 1296,
          "y": 80,
          "width": 0,
          "height": 0,
          "rotation": 0,
          "visible": true,
          "point": true,
          "properties": [
            {
              "name": "sourceJson",
              "type": "string",
              "value": "{\"id\":\"r025-vine\",\"kind\":\"vine-transition\",\"source\":{\"thing\":\"Brick\",\"contents\":[\"Vine\",{\"transport\":7}],\"x\":648,\"y\":64},\"sourcePath\":{\"area\":0,\"part\":\"base\",\"record\":\"r025\"},\"x\":1296,\"y\":80}"
            }
          ]
        },
        {
          "id": 110,
          "name": "r025-contents",
          "type": "block-contents",
          "x": 1296,
          "y": 80,
          "width": 0,
          "height": 0,
          "rotation": 0,
          "visible": true,
          "point": true,
          "properties": [
            {
              "name": "sourceJson",
              "type": "string",
              "value": "{\"id\":\"r025-contents\",\"kind\":\"block-contents\",\"source\":{\"thing\":\"Brick\",\"contents\":[\"Vine\",{\"transport\":7}],\"x\":648,\"y\":64},\"sourcePath\":{\"area\":0,\"part\":\"base\",\"record\":\"r025\"},\"x\":1296,\"y\":80}"
            }
          ]
        },
        {
          "id": 111,
          "name": "r026-plant",
          "type": "enemy-piranha",
          "x": 1344,
          "y": 176,
          "width": 0,
          "height": 0,
          "rotation": 0,
          "visible": true,
          "point": true,
          "properties": [
            {
              "name": "sourceJson",
              "type": "string",
              "value": "{\"id\":\"r026-plant\",\"kind\":\"enemy-piranha\",\"source\":{\"macro\":\"Pipe\",\"height\":16,\"piranha\":true,\"x\":672,\"y\":16},\"sourcePath\":{\"area\":0,\"part\":\"base\",\"record\":\"r026\"},\"x\":1344,\"y\":176}"
            }
          ]
        },
        {
          "id": 112,
          "name": "r027-plant",
          "type": "enemy-piranha",
          "x": 1392,
          "y": 112,
          "width": 0,
          "height": 0,
          "rotation": 0,
          "visible": true,
          "point": true,
          "properties": [
            {
              "name": "sourceJson",
              "type": "string",
              "value": "{\"id\":\"r027-plant\",\"kind\":\"enemy-piranha\",\"source\":{\"macro\":\"Pipe\",\"height\":48,\"piranha\":true,\"x\":696,\"y\":48},\"sourcePath\":{\"area\":0,\"part\":\"base\",\"record\":\"r027\"},\"x\":1392,\"y\":112}"
            }
          ]
        },
        {
          "id": 113,
          "name": "r028",
          "type": "enemy-beetle",
          "x": 1472,
          "y": 191,
          "width": 0,
          "height": 0,
          "rotation": 0,
          "visible": true,
          "point": true,
          "properties": [
            {
              "name": "sourceJson",
              "type": "string",
              "value": "{\"id\":\"r028\",\"kind\":\"enemy-beetle\",\"source\":{\"thing\":\"Beetle\",\"x\":736,\"y\":8.5},\"sourcePath\":{\"area\":0,\"part\":\"base\",\"record\":\"r028\"},\"x\":1472,\"y\":191}"
            }
          ]
        },
        {
          "id": 114,
          "name": "r029-plant",
          "type": "enemy-piranha",
          "x": 1504,
          "y": 160,
          "width": 0,
          "height": 0,
          "rotation": 0,
          "visible": true,
          "point": true,
          "properties": [
            {
              "name": "sourceJson",
              "type": "string",
              "value": "{\"id\":\"r029-plant\",\"kind\":\"enemy-piranha\",\"source\":{\"macro\":\"Pipe\",\"height\":24,\"piranha\":true,\"x\":752,\"y\":24},\"sourcePath\":{\"area\":0,\"part\":\"base\",\"record\":\"r029\"},\"x\":1504,\"y\":160}"
            }
          ]
        },
        {
          "id": 115,
          "name": "r031-plant",
          "type": "enemy-piranha",
          "x": 1680,
          "y": 176,
          "width": 0,
          "height": 0,
          "rotation": 0,
          "visible": true,
          "point": true,
          "properties": [
            {
              "name": "sourceJson",
              "type": "string",
              "value": "{\"id\":\"r031-plant\",\"kind\":\"enemy-piranha\",\"source\":{\"macro\":\"Pipe\",\"height\":16,\"piranha\":true,\"x\":840,\"y\":16},\"sourcePath\":{\"area\":0,\"part\":\"base\",\"record\":\"r031\"},\"x\":1680,\"y\":176}"
            }
          ]
        },
        {
          "id": 116,
          "name": "r034-plant",
          "type": "enemy-piranha",
          "x": 1776,
          "y": 96,
          "width": 0,
          "height": 0,
          "rotation": 0,
          "visible": true,
          "point": true,
          "properties": [
            {
              "name": "sourceJson",
              "type": "string",
              "value": "{\"id\":\"r034-plant\",\"kind\":\"enemy-piranha\",\"source\":{\"macro\":\"Pipe\",\"height\":24,\"piranha\":true,\"x\":888,\"y\":56},\"sourcePath\":{\"area\":0,\"part\":\"base\",\"record\":\"r034\"},\"x\":1776,\"y\":96}"
            }
          ]
        },
        {
          "id": 117,
          "name": "r035-plant",
          "type": "enemy-piranha",
          "x": 1840,
          "y": 176,
          "width": 0,
          "height": 0,
          "rotation": 0,
          "visible": true,
          "point": true,
          "properties": [
            {
              "name": "sourceJson",
              "type": "string",
              "value": "{\"id\":\"r035-plant\",\"kind\":\"enemy-piranha\",\"source\":{\"macro\":\"Pipe\",\"height\":16,\"piranha\":true,\"entrance\":2,\"x\":920,\"y\":16},\"sourcePath\":{\"area\":0,\"part\":\"base\",\"record\":\"r035\"},\"x\":1840,\"y\":176}"
            }
          ]
        },
        {
          "id": 118,
          "name": "r038",
          "type": "enemy-beetle",
          "x": 1900,
          "y": 63,
          "width": 0,
          "height": 0,
          "rotation": 0,
          "visible": true,
          "point": true,
          "properties": [
            {
              "name": "sourceJson",
              "type": "string",
              "value": "{\"id\":\"r038\",\"kind\":\"enemy-beetle\",\"source\":{\"thing\":\"Beetle\",\"x\":950,\"y\":72.5},\"sourcePath\":{\"area\":0,\"part\":\"base\",\"record\":\"r038\"},\"x\":1900,\"y\":63}"
            }
          ]
        },
        {
          "id": 119,
          "name": "r040-plant",
          "type": "enemy-piranha",
          "x": 2096,
          "y": 176,
          "width": 0,
          "height": 0,
          "rotation": 0,
          "visible": true,
          "point": true,
          "properties": [
            {
              "name": "sourceJson",
              "type": "string",
              "value": "{\"id\":\"r040-plant\",\"kind\":\"enemy-piranha\",\"source\":{\"macro\":\"Pipe\",\"height\":16,\"piranha\":true,\"x\":1048,\"y\":16},\"sourcePath\":{\"area\":0,\"part\":\"base\",\"record\":\"r040\"},\"x\":2096,\"y\":176}"
            }
          ]
        },
        {
          "id": 120,
          "name": "r041-plant",
          "type": "enemy-piranha",
          "x": 2160,
          "y": 176,
          "width": 0,
          "height": 0,
          "rotation": 0,
          "visible": true,
          "point": true,
          "properties": [
            {
              "name": "sourceJson",
              "type": "string",
              "value": "{\"id\":\"r041-plant\",\"kind\":\"enemy-piranha\",\"source\":{\"macro\":\"Pipe\",\"height\":16,\"piranha\":true,\"x\":1080,\"y\":16},\"sourcePath\":{\"area\":0,\"part\":\"base\",\"record\":\"r041\"},\"x\":2160,\"y\":176}"
            }
          ]
        },
        {
          "id": 121,
          "name": "r043-contents",
          "type": "block-contents",
          "x": 2240,
          "y": 80,
          "width": 0,
          "height": 0,
          "rotation": 0,
          "visible": true,
          "point": true,
          "properties": [
            {
              "name": "sourceJson",
              "type": "string",
              "value": "{\"id\":\"r043-contents\",\"kind\":\"block-contents\",\"source\":{\"thing\":\"Brick\",\"contents\":\"Star\",\"x\":1120,\"y\":64},\"sourcePath\":{\"area\":0,\"part\":\"base\",\"record\":\"r043\"},\"x\":2240,\"y\":80}"
            }
          ]
        },
        {
          "id": 122,
          "name": "r053-transport",
          "type": "source-transport-not-simulated",
          "x": 2448,
          "y": 160,
          "width": 0,
          "height": 0,
          "rotation": 0,
          "visible": true,
          "point": true,
          "properties": [
            {
              "name": "sourceJson",
              "type": "string",
              "value": "{\"id\":\"r053-transport\",\"kind\":\"source-transport-not-simulated\",\"source\":{\"height\":24,\"piranha\":true,\"transport\":8,\"x\":1224,\"y\":24,\"thing\":\"PipeVertical\",\"width\":16},\"sourcePath\":{\"area\":0,\"part\":\"base\",\"record\":\"r053\"},\"x\":2448,\"y\":160}"
            }
          ]
        },
        {
          "id": 123,
          "name": "r053-plant",
          "type": "enemy-piranha",
          "x": 2448,
          "y": 160,
          "width": 0,
          "height": 0,
          "rotation": 0,
          "visible": true,
          "point": true,
          "properties": [
            {
              "name": "sourceJson",
              "type": "string",
              "value": "{\"id\":\"r053-plant\",\"kind\":\"enemy-piranha\",\"source\":{\"macro\":\"Pipe\",\"height\":24,\"piranha\":true,\"transport\":8,\"x\":1224,\"y\":24},\"sourcePath\":{\"area\":0,\"part\":\"base\",\"record\":\"r053\"},\"x\":2448,\"y\":160}"
            }
          ]
        },
        {
          "id": 124,
          "name": "r057",
          "type": "enemy-beetle",
          "x": 2608,
          "y": 191,
          "width": 0,
          "height": 0,
          "rotation": 0,
          "visible": true,
          "point": true,
          "properties": [
            {
              "name": "sourceJson",
              "type": "string",
              "value": "{\"id\":\"r057\",\"kind\":\"enemy-beetle\",\"source\":{\"thing\":\"Beetle\",\"x\":1304,\"y\":8.5},\"sourcePath\":{\"area\":0,\"part\":\"base\",\"record\":\"r057\"},\"x\":2608,\"y\":191}"
            }
          ]
        },
        {
          "id": 125,
          "name": "r059-plant",
          "type": "enemy-piranha",
          "x": 2672,
          "y": 96,
          "width": 0,
          "height": 0,
          "rotation": 0,
          "visible": true,
          "point": true,
          "properties": [
            {
              "name": "sourceJson",
              "type": "string",
              "value": "{\"id\":\"r059-plant\",\"kind\":\"enemy-piranha\",\"source\":{\"macro\":\"Pipe\",\"height\":24,\"piranha\":true,\"x\":1336,\"y\":56},\"sourcePath\":{\"area\":0,\"part\":\"base\",\"record\":\"r059\"},\"x\":2672,\"y\":96}"
            }
          ]
        },
        {
          "id": 126,
          "name": "r060",
          "type": "enemy-goomba",
          "x": 2704,
          "y": 192,
          "width": 0,
          "height": 0,
          "rotation": 0,
          "visible": true,
          "point": true,
          "properties": [
            {
              "name": "sourceJson",
              "type": "string",
              "value": "{\"id\":\"r060\",\"kind\":\"enemy-goomba\",\"source\":{\"thing\":\"Goomba\",\"x\":1352,\"y\":8},\"sourcePath\":{\"area\":0,\"part\":\"base\",\"record\":\"r060\"},\"x\":2704,\"y\":192}"
            }
          ]
        },
        {
          "id": 127,
          "name": "r061-plant",
          "type": "enemy-piranha",
          "x": 2784,
          "y": 144,
          "width": 0,
          "height": 0,
          "rotation": 0,
          "visible": true,
          "point": true,
          "properties": [
            {
              "name": "sourceJson",
              "type": "string",
              "value": "{\"id\":\"r061-plant\",\"kind\":\"enemy-piranha\",\"source\":{\"macro\":\"Pipe\",\"height\":32,\"piranha\":true,\"x\":1392,\"y\":32},\"sourcePath\":{\"area\":0,\"part\":\"base\",\"record\":\"r061\"},\"x\":2784,\"y\":144}"
            }
          ]
        },
        {
          "id": 128,
          "name": "r062-plant",
          "type": "enemy-piranha",
          "x": 2864,
          "y": 176,
          "width": 0,
          "height": 0,
          "rotation": 0,
          "visible": true,
          "point": true,
          "properties": [
            {
              "name": "sourceJson",
              "type": "string",
              "value": "{\"id\":\"r062-plant\",\"kind\":\"enemy-piranha\",\"source\":{\"macro\":\"Pipe\",\"height\":16,\"piranha\":true,\"entrance\":4,\"x\":1432,\"y\":16},\"sourcePath\":{\"area\":0,\"part\":\"base\",\"record\":\"r062\"},\"x\":2864,\"y\":176}"
            }
          ]
        },
        {
          "id": 129,
          "name": "r063-plant",
          "type": "enemy-piranha",
          "x": 2896,
          "y": 160,
          "width": 0,
          "height": 0,
          "rotation": 0,
          "visible": true,
          "point": true,
          "properties": [
            {
              "name": "sourceJson",
              "type": "string",
              "value": "{\"id\":\"r063-plant\",\"kind\":\"enemy-piranha\",\"source\":{\"macro\":\"Pipe\",\"height\":24,\"piranha\":true,\"x\":1448,\"y\":24},\"sourcePath\":{\"area\":0,\"part\":\"base\",\"record\":\"r063\"},\"x\":2896,\"y\":160}"
            }
          ]
        },
        {
          "id": 130,
          "name": "r064-plant",
          "type": "enemy-piranha",
          "x": 2928,
          "y": 144,
          "width": 0,
          "height": 0,
          "rotation": 0,
          "visible": true,
          "point": true,
          "properties": [
            {
              "name": "sourceJson",
              "type": "string",
              "value": "{\"id\":\"r064-plant\",\"kind\":\"enemy-piranha\",\"source\":{\"macro\":\"Pipe\",\"height\":32,\"piranha\":true,\"x\":1464,\"y\":32},\"sourcePath\":{\"area\":0,\"part\":\"base\",\"record\":\"r064\"},\"x\":2928,\"y\":144}"
            }
          ]
        },
        {
          "id": 131,
          "name": "r065-plant",
          "type": "enemy-piranha",
          "x": 3024,
          "y": 160,
          "width": 0,
          "height": 0,
          "rotation": 0,
          "visible": true,
          "point": true,
          "properties": [
            {
              "name": "sourceJson",
              "type": "string",
              "value": "{\"id\":\"r065-plant\",\"kind\":\"enemy-piranha\",\"source\":{\"macro\":\"Pipe\",\"height\":24,\"piranha\":true,\"x\":1512,\"y\":24},\"sourcePath\":{\"area\":0,\"part\":\"base\",\"record\":\"r065\"},\"x\":3024,\"y\":160}"
            }
          ]
        },
        {
          "id": 132,
          "name": "r068-plant",
          "type": "enemy-piranha",
          "x": 3216,
          "y": 144,
          "width": 0,
          "height": 0,
          "rotation": 0,
          "visible": true,
          "point": true,
          "properties": [
            {
              "name": "sourceJson",
              "type": "string",
              "value": "{\"id\":\"r068-plant\",\"kind\":\"enemy-piranha\",\"source\":{\"macro\":\"Pipe\",\"height\":32,\"piranha\":true,\"x\":1608,\"y\":32},\"sourcePath\":{\"area\":0,\"part\":\"base\",\"record\":\"r068\"},\"x\":3216,\"y\":144}"
            }
          ]
        },
        {
          "id": 133,
          "name": "r073",
          "type": "enemy-koopa",
          "x": 3296,
          "y": 40,
          "width": 0,
          "height": 0,
          "rotation": 0,
          "visible": true,
          "point": true,
          "properties": [
            {
              "name": "sourceJson",
              "type": "string",
              "value": "{\"id\":\"r073\",\"kind\":\"enemy-koopa\",\"source\":{\"thing\":\"Koopa\",\"jumping\":true,\"x\":1648,\"y\":84},\"sourcePath\":{\"area\":0,\"part\":\"base\",\"record\":\"r073\"},\"x\":3296,\"y\":40}"
            }
          ]
        },
        {
          "id": 134,
          "name": "r074",
          "type": "flagpole-finish",
          "x": 3456,
          "y": 208,
          "width": 0,
          "height": 0,
          "rotation": 0,
          "visible": true,
          "point": true,
          "properties": [
            {
              "name": "sourceJson",
              "type": "string",
              "value": "{\"id\":\"r074\",\"kind\":\"flagpole-finish\",\"source\":{\"macro\":\"EndOutsideCastle\",\"transport\":{\"map\":\"6-3\"},\"x\":1728,\"y\":0},\"sourcePath\":{\"area\":0,\"part\":\"base\",\"record\":\"r074\"},\"x\":3456,\"y\":208}"
            }
          ]
        },
        {
          "id": 135,
          "name": "r074-transport",
          "type": "source-transport-not-simulated",
          "x": 3456,
          "y": 208,
          "width": 0,
          "height": 0,
          "rotation": 0,
          "visible": true,
          "point": true,
          "properties": [
            {
              "name": "sourceJson",
              "type": "string",
              "value": "{\"id\":\"r074-transport\",\"kind\":\"source-transport-not-simulated\",\"source\":{\"macro\":\"EndOutsideCastle\",\"transport\":{\"map\":\"6-3\"},\"x\":1728,\"y\":0},\"sourcePath\":{\"area\":0,\"part\":\"base\",\"record\":\"r074\"},\"x\":3456,\"y\":208}"
            }
          ]
        }
      ]
    }
  ],
  "properties": [
    {
      "name": "room",
      "type": "string",
      "value": "area-0"
    },
    {
      "name": "underwater",
      "type": "bool",
      "value": false
    },
    {
      "name": "inspectionOnly",
      "type": "bool",
      "value": true
    },
    {
      "name": "referenceReview",
      "type": "string",
      "value": "pending"
    }
  ]
}
