{
  "type": "map",
  "version": "1.10",
  "orientation": "orthogonal",
  "renderorder": "right-down",
  "width": 192,
  "height": 15,
  "tilewidth": 16,
  "tileheight": 16,
  "infinite": false,
  "nextlayerid": 4,
  "nextobjectid": 110,
  "tilesets": [],
  "layers": [
    {
      "id": 1,
      "name": "collision",
      "type": "objectgroup",
      "visible": true,
      "opacity": 1,
      "x": 0,
      "y": 0,
      "draworder": "index",
      "objects": [
        {
          "id": 1,
          "name": "r000",
          "type": "solid",
          "x": 0,
          "y": 208,
          "width": 256,
          "height": 32,
          "rotation": 0,
          "visible": true,
          "properties": [
            {
              "name": "sourceJson",
              "type": "string",
              "value": "{\"id\":\"r000\",\"x\":0,\"y\":208,\"w\":256,\"h\":32,\"collision\":\"solid\"}"
            }
          ]
        },
        {
          "id": 2,
          "name": "r002",
          "type": "solid",
          "x": 288,
          "y": 208,
          "width": 48,
          "height": 16,
          "rotation": 0,
          "visible": true,
          "properties": [
            {
              "name": "sourceJson",
              "type": "string",
              "value": "{\"id\":\"r002\",\"x\":288,\"y\":208,\"w\":48,\"h\":16,\"collision\":\"solid\"}"
            }
          ]
        },
        {
          "id": 3,
          "name": "r003",
          "type": "solid",
          "x": 336,
          "y": 144,
          "width": 48,
          "height": 16,
          "rotation": 0,
          "visible": true,
          "properties": [
            {
              "name": "sourceJson",
              "type": "string",
              "value": "{\"id\":\"r003\",\"x\":336,\"y\":144,\"w\":48,\"h\":16,\"collision\":\"solid\"}"
            }
          ]
        },
        {
          "id": 4,
          "name": "r004",
          "type": "solid",
          "x": 384,
          "y": 208,
          "width": 48,
          "height": 16,
          "rotation": 0,
          "visible": true,
          "properties": [
            {
              "name": "sourceJson",
              "type": "string",
              "value": "{\"id\":\"r004\",\"x\":384,\"y\":208,\"w\":48,\"h\":16,\"collision\":\"solid\"}"
            }
          ]
        },
        {
          "id": 5,
          "name": "r005",
          "type": "oneway",
          "x": 448,
          "y": 208,
          "width": 32,
          "height": 8,
          "rotation": 0,
          "visible": true,
          "properties": [
            {
              "name": "sourceJson",
              "type": "string",
              "value": "{\"id\":\"r005\",\"x\":448,\"y\":208,\"w\":32,\"h\":8,\"collision\":\"oneway\",\"motion\":{\"axis\":\"y\",\"min\":96,\"max\":208,\"speed\":0.75}}"
            }
          ]
        },
        {
          "id": 6,
          "name": "r007",
          "type": "solid",
          "x": 496,
          "y": 144,
          "width": 64,
          "height": 16,
          "rotation": 0,
          "visible": true,
          "properties": [
            {
              "name": "sourceJson",
              "type": "string",
              "value": "{\"id\":\"r007\",\"x\":496,\"y\":144,\"w\":64,\"h\":16,\"collision\":\"solid\"}"
            }
          ]
        },
        {
          "id": 7,
          "name": "r008",
          "type": "solid",
          "x": 592,
          "y": 208,
          "width": 48,
          "height": 16,
          "rotation": 0,
          "visible": true,
          "properties": [
            {
              "name": "sourceJson",
              "type": "string",
              "value": "{\"id\":\"r008\",\"x\":592,\"y\":208,\"w\":48,\"h\":16,\"collision\":\"solid\"}"
            }
          ]
        },
        {
          "id": 8,
          "name": "r009",
          "type": "solid",
          "x": 608,
          "y": 179,
          "width": 16,
          "height": 29,
          "rotation": 0,
          "visible": true,
          "properties": [
            {
              "name": "sourceJson",
              "type": "string",
              "value": "{\"id\":\"r009\",\"x\":608,\"y\":179,\"w\":16,\"h\":29,\"collision\":\"solid\"}"
            }
          ]
        },
        {
          "id": 9,
          "name": "r010",
          "type": "solid",
          "x": 688,
          "y": 208,
          "width": 48,
          "height": 16,
          "rotation": 0,
          "visible": true,
          "properties": [
            {
              "name": "sourceJson",
              "type": "string",
              "value": "{\"id\":\"r010\",\"x\":688,\"y\":208,\"w\":48,\"h\":16,\"collision\":\"solid\"}"
            }
          ]
        },
        {
          "id": 10,
          "name": "r012",
          "type": "oneway",
          "x": 696,
          "y": 80,
          "width": 32,
          "height": 8,
          "rotation": 0,
          "visible": true,
          "properties": [
            {
              "name": "sourceJson",
              "type": "string",
              "value": "{\"id\":\"r012\",\"x\":696,\"y\":80,\"w\":32,\"h\":8,\"collision\":\"oneway\",\"motion\":{\"axis\":\"x\",\"min\":624,\"max\":728,\"speed\":0.75}}"
            }
          ]
        },
        {
          "id": 11,
          "name": "r013",
          "type": "oneway",
          "x": 776,
          "y": 114,
          "width": 32,
          "height": 8,
          "rotation": 0,
          "visible": true,
          "properties": [
            {
              "name": "sourceJson",
              "type": "string",
              "value": "{\"id\":\"r013\",\"x\":776,\"y\":114,\"w\":32,\"h\":8,\"collision\":\"oneway\",\"motion\":{\"axis\":\"x\",\"min\":712,\"max\":800,\"speed\":0.75}}"
            }
          ]
        },
        {
          "id": 12,
          "name": "r014",
          "type": "solid",
          "x": 784,
          "y": 176,
          "width": 64,
          "height": 16,
          "rotation": 0,
          "visible": true,
          "properties": [
            {
              "name": "sourceJson",
              "type": "string",
              "value": "{\"id\":\"r014\",\"x\":784,\"y\":176,\"w\":64,\"h\":16,\"collision\":\"solid\"}"
            }
          ]
        },
        {
          "id": 13,
          "name": "r015",
          "type": "solid",
          "x": 880,
          "y": 48,
          "width": 16,
          "height": 16,
          "rotation": 0,
          "visible": true,
          "properties": [
            {
              "name": "sourceJson",
              "type": "string",
              "value": "{\"id\":\"r015\",\"x\":880,\"y\":48,\"w\":16,\"h\":16,\"collision\":\"solid\"}"
            }
          ]
        },
        {
          "id": 14,
          "name": "r016",
          "type": "oneway",
          "x": 888,
          "y": 96,
          "width": 32,
          "height": 8,
          "rotation": 0,
          "visible": true,
          "properties": [
            {
              "name": "sourceJson",
              "type": "string",
              "value": "{\"id\":\"r016\",\"x\":888,\"y\":96,\"w\":32,\"h\":8,\"collision\":\"oneway\",\"motion\":{\"axis\":\"x\",\"min\":816,\"max\":928,\"speed\":0.75}}"
            }
          ]
        },
        {
          "id": 15,
          "name": "r017",
          "type": "oneway",
          "x": 960,
          "y": 194,
          "width": 32,
          "height": 8,
          "rotation": 0,
          "visible": true,
          "properties": [
            {
              "name": "sourceJson",
              "type": "string",
              "value": "{\"id\":\"r017\",\"x\":960,\"y\":194,\"w\":32,\"h\":8,\"collision\":\"oneway\",\"motion\":{\"axis\":\"y\",\"min\":104,\"max\":224,\"speed\":0.75}}"
            }
          ]
        },
        {
          "id": 16,
          "name": "r018",
          "type": "solid",
          "x": 1040,
          "y": 144,
          "width": 80,
          "height": 16,
          "rotation": 0,
          "visible": true,
          "properties": [
            {
              "name": "sourceJson",
              "type": "string",
              "value": "{\"id\":\"r018\",\"x\":1040,\"y\":144,\"w\":80,\"h\":16,\"collision\":\"solid\"}"
            }
          ]
        },
        {
          "id": 17,
          "name": "r019-left",
          "type": "oneway",
          "x": 1128,
          "y": 84,
          "width": 32,
          "height": 8,
          "rotation": 0,
          "visible": true,
          "properties": [
            {
              "name": "sourceJson",
              "type": "string",
              "value": "{\"id\":\"r019-left\",\"x\":1128,\"y\":84,\"w\":32,\"h\":8,\"collision\":\"oneway\"}"
            }
          ]
        },
        {
          "id": 18,
          "name": "r019-right",
          "type": "oneway",
          "x": 1192,
          "y": 148,
          "width": 32,
          "height": 8,
          "rotation": 0,
          "visible": true,
          "properties": [
            {
              "name": "sourceJson",
              "type": "string",
              "value": "{\"id\":\"r019-right\",\"x\":1192,\"y\":148,\"w\":32,\"h\":8,\"collision\":\"oneway\"}"
            }
          ]
        },
        {
          "id": 19,
          "name": "r021-left",
          "type": "oneway",
          "x": 1256,
          "y": 84,
          "width": 32,
          "height": 8,
          "rotation": 0,
          "visible": true,
          "properties": [
            {
              "name": "sourceJson",
              "type": "string",
              "value": "{\"id\":\"r021-left\",\"x\":1256,\"y\":84,\"w\":32,\"h\":8,\"collision\":\"oneway\"}"
            }
          ]
        },
        {
          "id": 20,
          "name": "r021-right",
          "type": "oneway",
          "x": 1304,
          "y": 148,
          "width": 32,
          "height": 8,
          "rotation": 0,
          "visible": true,
          "properties": [
            {
              "name": "sourceJson",
              "type": "string",
              "value": "{\"id\":\"r021-right\",\"x\":1304,\"y\":148,\"w\":32,\"h\":8,\"collision\":\"oneway\"}"
            }
          ]
        },
        {
          "id": 21,
          "name": "r022",
          "type": "solid",
          "x": 1360,
          "y": 160,
          "width": 80,
          "height": 16,
          "rotation": 0,
          "visible": true,
          "properties": [
            {
              "name": "sourceJson",
              "type": "string",
              "value": "{\"id\":\"r022\",\"x\":1360,\"y\":160,\"w\":80,\"h\":16,\"collision\":\"solid\"}"
            }
          ]
        },
        {
          "id": 22,
          "name": "r023",
          "type": "solid",
          "x": 1360,
          "y": 48,
          "width": 48,
          "height": 16,
          "rotation": 0,
          "visible": true,
          "properties": [
            {
              "name": "sourceJson",
              "type": "string",
              "value": "{\"id\":\"r023\",\"x\":1360,\"y\":48,\"w\":48,\"h\":16,\"collision\":\"solid\"}"
            }
          ]
        },
        {
          "id": 23,
          "name": "r025",
          "type": "solid",
          "x": 1440,
          "y": 128,
          "width": 48,
          "height": 16,
          "rotation": 0,
          "visible": true,
          "properties": [
            {
              "name": "sourceJson",
              "type": "string",
              "value": "{\"id\":\"r025\",\"x\":1440,\"y\":128,\"w\":48,\"h\":16,\"collision\":\"solid\"}"
            }
          ]
        },
        {
          "id": 24,
          "name": "r026",
          "type": "solid",
          "x": 1488,
          "y": 208,
          "width": 48,
          "height": 16,
          "rotation": 0,
          "visible": true,
          "properties": [
            {
              "name": "sourceJson",
              "type": "string",
              "value": "{\"id\":\"r026\",\"x\":1488,\"y\":208,\"w\":48,\"h\":16,\"collision\":\"solid\"}"
            }
          ]
        },
        {
          "id": 25,
          "name": "r027",
          "type": "solid",
          "x": 1552,
          "y": 208,
          "width": 64,
          "height": 16,
          "rotation": 0,
          "visible": true,
          "properties": [
            {
              "name": "sourceJson",
              "type": "string",
              "value": "{\"id\":\"r027\",\"x\":1552,\"y\":208,\"w\":64,\"h\":16,\"collision\":\"solid\"}"
            }
          ]
        },
        {
          "id": 26,
          "name": "r029",
          "type": "solid",
          "x": 1648,
          "y": 208,
          "width": 48,
          "height": 16,
          "rotation": 0,
          "visible": true,
          "properties": [
            {
              "name": "sourceJson",
              "type": "string",
              "value": "{\"id\":\"r029\",\"x\":1648,\"y\":208,\"w\":48,\"h\":16,\"collision\":\"solid\"}"
            }
          ]
        },
        {
          "id": 27,
          "name": "r030",
          "type": "solid",
          "x": 1712,
          "y": 144,
          "width": 80,
          "height": 16,
          "rotation": 0,
          "visible": true,
          "properties": [
            {
              "name": "sourceJson",
              "type": "string",
              "value": "{\"id\":\"r030\",\"x\":1712,\"y\":144,\"w\":80,\"h\":16,\"collision\":\"solid\"}"
            }
          ]
        },
        {
          "id": 28,
          "name": "r031",
          "type": "solid",
          "x": 1808,
          "y": 208,
          "width": 80,
          "height": 16,
          "rotation": 0,
          "visible": true,
          "properties": [
            {
              "name": "sourceJson",
              "type": "string",
              "value": "{\"id\":\"r031\",\"x\":1808,\"y\":208,\"w\":80,\"h\":16,\"collision\":\"solid\"}"
            }
          ]
        },
        {
          "id": 29,
          "name": "r032",
          "type": "solid",
          "x": 1856,
          "y": 179,
          "width": 16,
          "height": 29,
          "rotation": 0,
          "visible": true,
          "properties": [
            {
              "name": "sourceJson",
              "type": "string",
              "value": "{\"id\":\"r032\",\"x\":1856,\"y\":179,\"w\":16,\"h\":29,\"collision\":\"solid\"}"
            }
          ]
        },
        {
          "id": 30,
          "name": "r033",
          "type": "oneway",
          "x": 1944,
          "y": 82,
          "width": 32,
          "height": 8,
          "rotation": 0,
          "visible": true,
          "properties": [
            {
              "name": "sourceJson",
              "type": "string",
              "value": "{\"id\":\"r033\",\"x\":1944,\"y\":82,\"w\":32,\"h\":8,\"collision\":\"oneway\",\"motion\":{\"axis\":\"x\",\"min\":1880,\"max\":1984,\"speed\":0.75}}"
            }
          ]
        },
        {
          "id": 31,
          "name": "r034",
          "type": "solid",
          "x": 1968,
          "y": 208,
          "width": 48,
          "height": 16,
          "rotation": 0,
          "visible": true,
          "properties": [
            {
              "name": "sourceJson",
              "type": "string",
              "value": "{\"id\":\"r034\",\"x\":1968,\"y\":208,\"w\":48,\"h\":16,\"collision\":\"solid\"}"
            }
          ]
        },
        {
          "id": 32,
          "name": "r035-left",
          "type": "oneway",
          "x": 2024,
          "y": 100,
          "width": 32,
          "height": 8,
          "rotation": 0,
          "visible": true,
          "properties": [
            {
              "name": "sourceJson",
              "type": "string",
              "value": "{\"id\":\"r035-left\",\"x\":2024,\"y\":100,\"w\":32,\"h\":8,\"collision\":\"oneway\"}"
            }
          ]
        },
        {
          "id": 33,
          "name": "r035-right",
          "type": "oneway",
          "x": 2072,
          "y": 148,
          "width": 32,
          "height": 8,
          "rotation": 0,
          "visible": true,
          "properties": [
            {
              "name": "sourceJson",
              "type": "string",
              "value": "{\"id\":\"r035-right\",\"x\":2072,\"y\":148,\"w\":32,\"h\":8,\"collision\":\"oneway\"}"
            }
          ]
        },
        {
          "id": 34,
          "name": "r037",
          "type": "solid",
          "x": 2112,
          "y": 208,
          "width": 64,
          "height": 16,
          "rotation": 0,
          "visible": true,
          "properties": [
            {
              "name": "sourceJson",
              "type": "string",
              "value": "{\"id\":\"r037\",\"x\":2112,\"y\":208,\"w\":64,\"h\":16,\"collision\":\"solid\"}"
            }
          ]
        },
        {
          "id": 35,
          "name": "r038",
          "type": "solid",
          "x": 2112,
          "y": 80,
          "width": 48,
          "height": 16,
          "rotation": 0,
          "visible": true,
          "properties": [
            {
              "name": "sourceJson",
              "type": "string",
              "value": "{\"id\":\"r038\",\"x\":2112,\"y\":80,\"w\":48,\"h\":16,\"collision\":\"solid\"}"
            }
          ]
        },
        {
          "id": 36,
          "name": "r039",
          "type": "solid",
          "x": 2160,
          "y": 144,
          "width": 64,
          "height": 16,
          "rotation": 0,
          "visible": true,
          "properties": [
            {
              "name": "sourceJson",
              "type": "string",
              "value": "{\"id\":\"r039\",\"x\":2160,\"y\":144,\"w\":64,\"h\":16,\"collision\":\"solid\"}"
            }
          ]
        },
        {
          "id": 37,
          "name": "r040",
          "type": "oneway",
          "x": 2256,
          "y": 114,
          "width": 32,
          "height": 8,
          "rotation": 0,
          "visible": true,
          "properties": [
            {
              "name": "sourceJson",
              "type": "string",
              "value": "{\"id\":\"r040\",\"x\":2256,\"y\":114,\"w\":32,\"h\":8,\"collision\":\"oneway\"}"
            }
          ]
        },
        {
          "id": 38,
          "name": "r041",
          "type": "oneway",
          "x": 2320,
          "y": 98,
          "width": 32,
          "height": 8,
          "rotation": 0,
          "visible": true,
          "properties": [
            {
              "name": "sourceJson",
              "type": "string",
              "value": "{\"id\":\"r041\",\"x\":2320,\"y\":98,\"w\":32,\"h\":8,\"collision\":\"oneway\"}"
            }
          ]
        },
        {
          "id": 39,
          "name": "r043",
          "type": "oneway",
          "x": 2384,
          "y": 106,
          "width": 32,
          "height": 8,
          "rotation": 0,
          "visible": true,
          "properties": [
            {
              "name": "sourceJson",
              "type": "string",
              "value": "{\"id\":\"r043\",\"x\":2384,\"y\":106,\"w\":32,\"h\":8,\"collision\":\"oneway\"}"
            }
          ]
        },
        {
          "id": 40,
          "name": "r044",
          "type": "oneway",
          "x": 2448,
          "y": 90,
          "width": 32,
          "height": 8,
          "rotation": 0,
          "visible": true,
          "properties": [
            {
              "name": "sourceJson",
              "type": "string",
              "value": "{\"id\":\"r044\",\"x\":2448,\"y\":90,\"w\":32,\"h\":8,\"collision\":\"oneway\"}"
            }
          ]
        },
        {
          "id": 41,
          "name": "r046",
          "type": "solid",
          "x": 2492,
          "y": 64,
          "width": 48,
          "height": 16,
          "rotation": 0,
          "visible": true,
          "properties": [
            {
              "name": "sourceJson",
              "type": "string",
              "value": "{\"id\":\"r046\",\"x\":2492,\"y\":64,\"w\":48,\"h\":16,\"collision\":\"solid\"}"
            }
          ]
        },
        {
          "id": 42,
          "name": "r047",
          "type": "solid",
          "x": 2560,
          "y": 208,
          "width": 512,
          "height": 32,
          "rotation": 0,
          "visible": true,
          "properties": [
            {
              "name": "sourceJson",
              "type": "string",
              "value": "{\"id\":\"r047\",\"x\":2560,\"y\":208,\"w\":512,\"h\":32,\"collision\":\"solid\"}"
            }
          ]
        },
        {
          "id": 43,
          "name": "r049-base",
          "type": "solid",
          "x": 2672,
          "y": 192,
          "width": 16,
          "height": 16,
          "rotation": 0,
          "visible": true,
          "properties": [
            {
              "name": "sourceJson",
              "type": "string",
              "value": "{\"id\":\"r049-base\",\"x\":2672,\"y\":192,\"w\":16,\"h\":16,\"collision\":\"solid\"}"
            }
          ]
        }
      ]
    },
    {
      "id": 2,
      "name": "objects",
      "type": "objectgroup",
      "visible": true,
      "opacity": 1,
      "x": 0,
      "y": 0,
      "draworder": "index",
      "objects": [
        {
          "id": 44,
          "name": "r006-0-0",
          "type": "coin",
          "x": 452,
          "y": 34,
          "width": 10,
          "height": 14,
          "rotation": 0,
          "visible": true,
          "properties": [
            {
              "name": "sourceJson",
              "type": "string",
              "value": "{\"id\":\"r006-0-0\",\"kind\":\"coin\",\"x\":452,\"y\":34,\"w\":10,\"h\":14}"
            }
          ]
        },
        {
          "id": 45,
          "name": "r006-1-0",
          "type": "coin",
          "x": 468,
          "y": 34,
          "width": 10,
          "height": 14,
          "rotation": 0,
          "visible": true,
          "properties": [
            {
              "name": "sourceJson",
              "type": "string",
              "value": "{\"id\":\"r006-1-0\",\"kind\":\"coin\",\"x\":468,\"y\":34,\"w\":10,\"h\":14}"
            }
          ]
        },
        {
          "id": 46,
          "name": "r011-0-0",
          "type": "coin",
          "x": 690,
          "y": 66,
          "width": 10,
          "height": 14,
          "rotation": 0,
          "visible": true,
          "properties": [
            {
              "name": "sourceJson",
              "type": "string",
              "value": "{\"id\":\"r011-0-0\",\"kind\":\"coin\",\"x\":690,\"y\":66,\"w\":10,\"h\":14}"
            }
          ]
        },
        {
          "id": 47,
          "name": "r011-1-0",
          "type": "coin",
          "x": 706,
          "y": 66,
          "width": 10,
          "height": 14,
          "rotation": 0,
          "visible": true,
          "properties": [
            {
              "name": "sourceJson",
              "type": "string",
              "value": "{\"id\":\"r011-1-0\",\"kind\":\"coin\",\"x\":706,\"y\":66,\"w\":10,\"h\":14}"
            }
          ]
        },
        {
          "id": 48,
          "name": "r011-2-0",
          "type": "coin",
          "x": 722,
          "y": 66,
          "width": 10,
          "height": 14,
          "rotation": 0,
          "visible": true,
          "properties": [
            {
              "name": "sourceJson",
              "type": "string",
              "value": "{\"id\":\"r011-2-0\",\"kind\":\"coin\",\"x\":722,\"y\":66,\"w\":10,\"h\":14}"
            }
          ]
        },
        {
          "id": 49,
          "name": "r011-3-0",
          "type": "coin",
          "x": 738,
          "y": 66,
          "width": 10,
          "height": 14,
          "rotation": 0,
          "visible": true,
          "properties": [
            {
              "name": "sourceJson",
              "type": "string",
              "value": "{\"id\":\"r011-3-0\",\"kind\":\"coin\",\"x\":738,\"y\":66,\"w\":10,\"h\":14}"
            }
          ]
        },
        {
          "id": 50,
          "name": "r011-4-0",
          "type": "coin",
          "x": 754,
          "y": 66,
          "width": 10,
          "height": 14,
          "rotation": 0,
          "visible": true,
          "properties": [
            {
              "name": "sourceJson",
              "type": "string",
              "value": "{\"id\":\"r011-4-0\",\"kind\":\"coin\",\"x\":754,\"y\":66,\"w\":10,\"h\":14}"
            }
          ]
        },
        {
          "id": 51,
          "name": "r011-5-0",
          "type": "coin",
          "x": 770,
          "y": 66,
          "width": 10,
          "height": 14,
          "rotation": 0,
          "visible": true,
          "properties": [
            {
              "name": "sourceJson",
              "type": "string",
              "value": "{\"id\":\"r011-5-0\",\"kind\":\"coin\",\"x\":770,\"y\":66,\"w\":10,\"h\":14}"
            }
          ]
        },
        {
          "id": 52,
          "name": "r011-6-0",
          "type": "coin",
          "x": 786,
          "y": 66,
          "width": 10,
          "height": 14,
          "rotation": 0,
          "visible": true,
          "properties": [
            {
              "name": "sourceJson",
              "type": "string",
              "value": "{\"id\":\"r011-6-0\",\"kind\":\"coin\",\"x\":786,\"y\":66,\"w\":10,\"h\":14}"
            }
          ]
        },
        {
          "id": 53,
          "name": "r020-0-0",
          "type": "coin",
          "x": 1170,
          "y": 82,
          "width": 10,
          "height": 14,
          "rotation": 0,
          "visible": true,
          "properties": [
            {
              "name": "sourceJson",
              "type": "string",
              "value": "{\"id\":\"r020-0-0\",\"kind\":\"coin\",\"x\":1170,\"y\":82,\"w\":10,\"h\":14}"
            }
          ]
        },
        {
          "id": 54,
          "name": "r020-1-0",
          "type": "coin",
          "x": 1186,
          "y": 82,
          "width": 10,
          "height": 14,
          "rotation": 0,
          "visible": true,
          "properties": [
            {
              "name": "sourceJson",
              "type": "string",
              "value": "{\"id\":\"r020-1-0\",\"kind\":\"coin\",\"x\":1186,\"y\":82,\"w\":10,\"h\":14}"
            }
          ]
        },
        {
          "id": 55,
          "name": "r024-0-0",
          "type": "coin",
          "x": 1362,
          "y": 34,
          "width": 10,
          "height": 14,
          "rotation": 0,
          "visible": true,
          "properties": [
            {
              "name": "sourceJson",
              "type": "string",
              "value": "{\"id\":\"r024-0-0\",\"kind\":\"coin\",\"x\":1362,\"y\":34,\"w\":10,\"h\":14}"
            }
          ]
        },
        {
          "id": 56,
          "name": "r024-1-0",
          "type": "coin",
          "x": 1378,
          "y": 34,
          "width": 10,
          "height": 14,
          "rotation": 0,
          "visible": true,
          "properties": [
            {
              "name": "sourceJson",
              "type": "string",
              "value": "{\"id\":\"r024-1-0\",\"kind\":\"coin\",\"x\":1378,\"y\":34,\"w\":10,\"h\":14}"
            }
          ]
        },
        {
          "id": 57,
          "name": "r024-2-0",
          "type": "coin",
          "x": 1394,
          "y": 34,
          "width": 10,
          "height": 14,
          "rotation": 0,
          "visible": true,
          "properties": [
            {
              "name": "sourceJson",
              "type": "string",
              "value": "{\"id\":\"r024-2-0\",\"kind\":\"coin\",\"x\":1394,\"y\":34,\"w\":10,\"h\":14}"
            }
          ]
        },
        {
          "id": 58,
          "name": "r028-0-0",
          "type": "coin",
          "x": 1602,
          "y": 130,
          "width": 10,
          "height": 14,
          "rotation": 0,
          "visible": true,
          "properties": [
            {
              "name": "sourceJson",
              "type": "string",
              "value": "{\"id\":\"r028-0-0\",\"kind\":\"coin\",\"x\":1602,\"y\":130,\"w\":10,\"h\":14}"
            }
          ]
        },
        {
          "id": 59,
          "name": "r028-1-0",
          "type": "coin",
          "x": 1618,
          "y": 130,
          "width": 10,
          "height": 14,
          "rotation": 0,
          "visible": true,
          "properties": [
            {
              "name": "sourceJson",
              "type": "string",
              "value": "{\"id\":\"r028-1-0\",\"kind\":\"coin\",\"x\":1618,\"y\":130,\"w\":10,\"h\":14}"
            }
          ]
        },
        {
          "id": 60,
          "name": "r028-2-0",
          "type": "coin",
          "x": 1634,
          "y": 130,
          "width": 10,
          "height": 14,
          "rotation": 0,
          "visible": true,
          "properties": [
            {
              "name": "sourceJson",
              "type": "string",
              "value": "{\"id\":\"r028-2-0\",\"kind\":\"coin\",\"x\":1634,\"y\":130,\"w\":10,\"h\":14}"
            }
          ]
        },
        {
          "id": 61,
          "name": "r028-3-0",
          "type": "coin",
          "x": 1650,
          "y": 130,
          "width": 10,
          "height": 14,
          "rotation": 0,
          "visible": true,
          "properties": [
            {
              "name": "sourceJson",
              "type": "string",
              "value": "{\"id\":\"r028-3-0\",\"kind\":\"coin\",\"x\":1650,\"y\":130,\"w\":10,\"h\":14}"
            }
          ]
        },
        {
          "id": 62,
          "name": "r036-0-0",
          "type": "coin",
          "x": 2050,
          "y": 82,
          "width": 10,
          "height": 14,
          "rotation": 0,
          "visible": true,
          "properties": [
            {
              "name": "sourceJson",
              "type": "string",
              "value": "{\"id\":\"r036-0-0\",\"kind\":\"coin\",\"x\":2050,\"y\":82,\"w\":10,\"h\":14}"
            }
          ]
        },
        {
          "id": 63,
          "name": "r036-1-0",
          "type": "coin",
          "x": 2066,
          "y": 82,
          "width": 10,
          "height": 14,
          "rotation": 0,
          "visible": true,
          "properties": [
            {
              "name": "sourceJson",
              "type": "string",
              "value": "{\"id\":\"r036-1-0\",\"kind\":\"coin\",\"x\":2066,\"y\":82,\"w\":10,\"h\":14}"
            }
          ]
        },
        {
          "id": 64,
          "name": "r042-0-0",
          "type": "coin",
          "x": 2322,
          "y": 114,
          "width": 10,
          "height": 14,
          "rotation": 0,
          "visible": true,
          "properties": [
            {
              "name": "sourceJson",
              "type": "string",
              "value": "{\"id\":\"r042-0-0\",\"kind\":\"coin\",\"x\":2322,\"y\":114,\"w\":10,\"h\":14}"
            }
          ]
        },
        {
          "id": 65,
          "name": "r042-1-0",
          "type": "coin",
          "x": 2338,
          "y": 114,
          "width": 10,
          "height": 14,
          "rotation": 0,
          "visible": true,
          "properties": [
            {
              "name": "sourceJson",
              "type": "string",
              "value": "{\"id\":\"r042-1-0\",\"kind\":\"coin\",\"x\":2338,\"y\":114,\"w\":10,\"h\":14}"
            }
          ]
        },
        {
          "id": 66,
          "name": "r045-0-0",
          "type": "coin",
          "x": 2466,
          "y": 34,
          "width": 10,
          "height": 14,
          "rotation": 0,
          "visible": true,
          "properties": [
            {
              "name": "sourceJson",
              "type": "string",
              "value": "{\"id\":\"r045-0-0\",\"kind\":\"coin\",\"x\":2466,\"y\":34,\"w\":10,\"h\":14}"
            }
          ]
        },
        {
          "id": 67,
          "name": "r045-1-0",
          "type": "coin",
          "x": 2482,
          "y": 34,
          "width": 10,
          "height": 14,
          "rotation": 0,
          "visible": true,
          "properties": [
            {
              "name": "sourceJson",
              "type": "string",
              "value": "{\"id\":\"r045-1-0\",\"kind\":\"coin\",\"x\":2482,\"y\":34,\"w\":10,\"h\":14}"
            }
          ]
        },
        {
          "id": 68,
          "name": "inspection-start",
          "type": "spawn",
          "x": 24,
          "y": 184,
          "width": 12,
          "height": 24,
          "rotation": 0,
          "visible": true,
          "properties": [
            {
              "name": "sourceJson",
              "type": "string",
              "value": "{\"id\":\"inspection-start\",\"kind\":\"spawn\",\"x\":24,\"y\":184,\"w\":12,\"h\":24}"
            }
          ]
        }
      ]
    },
    {
      "id": 3,
      "name": "pending-mechanics",
      "type": "objectgroup",
      "visible": true,
      "opacity": 1,
      "x": 0,
      "y": 0,
      "draworder": "index",
      "objects": [
        {
          "id": 69,
          "name": "r001",
          "type": "spawn-zone-BulletBillsStart",
          "x": 256,
          "y": 208,
          "width": 0,
          "height": 0,
          "rotation": 0,
          "visible": true,
          "point": true,
          "properties": [
            {
              "name": "sourceJson",
              "type": "string",
              "value": "{\"id\":\"r001\",\"kind\":\"spawn-zone-BulletBillsStart\",\"source\":{\"macro\":\"BulletBillsStart\",\"x\":128,\"y\":0},\"sourcePath\":{\"area\":0,\"part\":\"base\",\"record\":\"r001\"},\"x\":256,\"y\":208}"
            }
          ]
        },
        {
          "id": 70,
          "name": "r002-trunk",
          "type": "decorative-trunk",
          "x": 288,
          "y": 208,
          "width": 0,
          "height": 0,
          "rotation": 0,
          "visible": true,
          "point": true,
          "properties": [
            {
              "name": "sourceJson",
              "type": "string",
              "value": "{\"id\":\"r002-trunk\",\"kind\":\"decorative-trunk\",\"source\":{\"macro\":\"Tree\",\"width\":24,\"x\":144,\"y\":0},\"sourcePath\":{\"area\":0,\"part\":\"base\",\"record\":\"r002\"},\"x\":288,\"y\":208}"
            }
          ]
        },
        {
          "id": 71,
          "name": "r003-trunk",
          "type": "decorative-trunk",
          "x": 336,
          "y": 144,
          "width": 0,
          "height": 0,
          "rotation": 0,
          "visible": true,
          "point": true,
          "properties": [
            {
              "name": "sourceJson",
              "type": "string",
              "value": "{\"id\":\"r003-trunk\",\"kind\":\"decorative-trunk\",\"source\":{\"macro\":\"Tree\",\"width\":24,\"x\":168,\"y\":32},\"sourcePath\":{\"area\":0,\"part\":\"base\",\"record\":\"r003\"},\"x\":336,\"y\":144}"
            }
          ]
        },
        {
          "id": 72,
          "name": "r004-trunk",
          "type": "decorative-trunk",
          "x": 384,
          "y": 208,
          "width": 0,
          "height": 0,
          "rotation": 0,
          "visible": true,
          "point": true,
          "properties": [
            {
              "name": "sourceJson",
              "type": "string",
              "value": "{\"id\":\"r004-trunk\",\"kind\":\"decorative-trunk\",\"source\":{\"macro\":\"Tree\",\"width\":24,\"x\":192,\"y\":0},\"sourcePath\":{\"area\":0,\"part\":\"base\",\"record\":\"r004\"},\"x\":384,\"y\":208}"
            }
          ]
        },
        {
          "id": 73,
          "name": "r005-timing",
          "type": "platform-timing",
          "x": 448,
          "y": 208,
          "width": 0,
          "height": 0,
          "rotation": 0,
          "visible": true,
          "point": true,
          "properties": [
            {
              "name": "sourceJson",
              "type": "string",
              "value": "{\"id\":\"r005-timing\",\"kind\":\"platform-timing\",\"source\":{\"thing\":\"Platform\",\"width\":16,\"floating\":true,\"begin\":0,\"end\":56,\"x\":224,\"y\":0},\"sourcePath\":{\"area\":0,\"part\":\"base\",\"record\":\"r005\"},\"x\":448,\"y\":208}"
            }
          ]
        },
        {
          "id": 74,
          "name": "r007-trunk",
          "type": "decorative-trunk",
          "x": 496,
          "y": 144,
          "width": 0,
          "height": 0,
          "rotation": 0,
          "visible": true,
          "point": true,
          "properties": [
            {
              "name": "sourceJson",
              "type": "string",
              "value": "{\"id\":\"r007-trunk\",\"kind\":\"decorative-trunk\",\"source\":{\"macro\":\"Tree\",\"width\":32,\"x\":248,\"y\":32},\"sourcePath\":{\"area\":0,\"part\":\"base\",\"record\":\"r007\"},\"x\":496,\"y\":144}"
            }
          ]
        },
        {
          "id": 75,
          "name": "r008-trunk",
          "type": "decorative-trunk",
          "x": 592,
          "y": 208,
          "width": 0,
          "height": 0,
          "rotation": 0,
          "visible": true,
          "point": true,
          "properties": [
            {
              "name": "sourceJson",
              "type": "string",
              "value": "{\"id\":\"r008-trunk\",\"kind\":\"decorative-trunk\",\"source\":{\"macro\":\"Tree\",\"width\":24,\"x\":296,\"y\":0},\"sourcePath\":{\"area\":0,\"part\":\"base\",\"record\":\"r008\"},\"x\":592,\"y\":208}"
            }
          ]
        },
        {
          "id": 76,
          "name": "r009-spring",
          "type": "springboard",
          "x": 608,
          "y": 179,
          "width": 0,
          "height": 0,
          "rotation": 0,
          "visible": true,
          "point": true,
          "properties": [
            {
              "name": "sourceJson",
              "type": "string",
              "value": "{\"id\":\"r009-spring\",\"kind\":\"springboard\",\"source\":{\"thing\":\"Springboard\",\"x\":304,\"y\":14.5},\"sourcePath\":{\"area\":0,\"part\":\"base\",\"record\":\"r009\"},\"x\":608,\"y\":179}"
            }
          ]
        },
        {
          "id": 77,
          "name": "r010-trunk",
          "type": "decorative-trunk",
          "x": 688,
          "y": 208,
          "width": 0,
          "height": 0,
          "rotation": 0,
          "visible": true,
          "point": true,
          "properties": [
            {
              "name": "sourceJson",
              "type": "string",
              "value": "{\"id\":\"r010-trunk\",\"kind\":\"decorative-trunk\",\"source\":{\"macro\":\"Tree\",\"width\":24,\"x\":344,\"y\":0},\"sourcePath\":{\"area\":0,\"part\":\"base\",\"record\":\"r010\"},\"x\":688,\"y\":208}"
            }
          ]
        },
        {
          "id": 78,
          "name": "r012-timing",
          "type": "platform-timing",
          "x": 696,
          "y": 80,
          "width": 0,
          "height": 0,
          "rotation": 0,
          "visible": true,
          "point": true,
          "properties": [
            {
              "name": "sourceJson",
              "type": "string",
              "value": "{\"id\":\"r012-timing\",\"kind\":\"platform-timing\",\"source\":{\"thing\":\"Platform\",\"width\":16,\"sliding\":true,\"begin\":312,\"end\":364,\"x\":348,\"y\":64},\"sourcePath\":{\"area\":0,\"part\":\"base\",\"record\":\"r012\"},\"x\":696,\"y\":80}"
            }
          ]
        },
        {
          "id": 79,
          "name": "r013-timing",
          "type": "platform-timing",
          "x": 776,
          "y": 114,
          "width": 0,
          "height": 0,
          "rotation": 0,
          "visible": true,
          "point": true,
          "properties": [
            {
              "name": "sourceJson",
              "type": "string",
              "value": "{\"id\":\"r013-timing\",\"kind\":\"platform-timing\",\"source\":{\"thing\":\"Platform\",\"width\":16,\"sliding\":true,\"begin\":356,\"end\":400,\"x\":388,\"y\":47},\"sourcePath\":{\"area\":0,\"part\":\"base\",\"record\":\"r013\"},\"x\":776,\"y\":114}"
            }
          ]
        },
        {
          "id": 80,
          "name": "r014-trunk",
          "type": "decorative-trunk",
          "x": 784,
          "y": 176,
          "width": 0,
          "height": 0,
          "rotation": 0,
          "visible": true,
          "point": true,
          "properties": [
            {
              "name": "sourceJson",
              "type": "string",
              "value": "{\"id\":\"r014-trunk\",\"kind\":\"decorative-trunk\",\"source\":{\"macro\":\"Tree\",\"width\":32,\"x\":392,\"y\":16},\"sourcePath\":{\"area\":0,\"part\":\"base\",\"record\":\"r014\"},\"x\":784,\"y\":176}"
            }
          ]
        },
        {
          "id": 81,
          "name": "r015-contents",
          "type": "block-contents",
          "x": 880,
          "y": 48,
          "width": 0,
          "height": 0,
          "rotation": 0,
          "visible": true,
          "point": true,
          "properties": [
            {
              "name": "sourceJson",
              "type": "string",
              "value": "{\"id\":\"r015-contents\",\"kind\":\"block-contents\",\"source\":{\"thing\":\"Block\",\"contents\":\"Mushroom\",\"x\":440,\"y\":80},\"sourcePath\":{\"area\":0,\"part\":\"base\",\"record\":\"r015\"},\"x\":880,\"y\":48}"
            }
          ]
        },
        {
          "id": 82,
          "name": "r016-timing",
          "type": "platform-timing",
          "x": 888,
          "y": 96,
          "width": 0,
          "height": 0,
          "rotation": 0,
          "visible": true,
          "point": true,
          "properties": [
            {
              "name": "sourceJson",
              "type": "string",
              "value": "{\"id\":\"r016-timing\",\"kind\":\"platform-timing\",\"source\":{\"thing\":\"Platform\",\"width\":16,\"sliding\":true,\"begin\":408,\"end\":464,\"x\":444,\"y\":56},\"sourcePath\":{\"area\":0,\"part\":\"base\",\"record\":\"r016\"},\"x\":888,\"y\":96}"
            }
          ]
        },
        {
          "id": 83,
          "name": "r017-timing",
          "type": "platform-timing",
          "x": 960,
          "y": 194,
          "width": 0,
          "height": 0,
          "rotation": 0,
          "visible": true,
          "point": true,
          "properties": [
            {
              "name": "sourceJson",
              "type": "string",
              "value": "{\"id\":\"r017-timing\",\"kind\":\"platform-timing\",\"source\":{\"thing\":\"Platform\",\"width\":16,\"floating\":true,\"begin\":-8,\"end\":52,\"x\":480,\"y\":7},\"sourcePath\":{\"area\":0,\"part\":\"base\",\"record\":\"r017\"},\"x\":960,\"y\":194}"
            }
          ]
        },
        {
          "id": 84,
          "name": "r018-trunk",
          "type": "decorative-trunk",
          "x": 1040,
          "y": 144,
          "width": 0,
          "height": 0,
          "rotation": 0,
          "visible": true,
          "point": true,
          "properties": [
            {
              "name": "sourceJson",
              "type": "string",
              "value": "{\"id\":\"r018-trunk\",\"kind\":\"decorative-trunk\",\"source\":{\"macro\":\"Tree\",\"width\":40,\"x\":520,\"y\":32},\"sourcePath\":{\"area\":0,\"part\":\"base\",\"record\":\"r018\"},\"x\":1040,\"y\":144}"
            }
          ]
        },
        {
          "id": 85,
          "name": "r019",
          "type": "coupled-scale",
          "x": 1144,
          "y": 36,
          "width": 0,
          "height": 0,
          "rotation": 0,
          "visible": true,
          "point": true,
          "properties": [
            {
              "name": "sourceJson",
              "type": "string",
              "value": "{\"id\":\"r019\",\"kind\":\"coupled-scale\",\"source\":{\"macro\":\"Scale\",\"widthLeft\":16,\"widthRight\":16,\"between\":32,\"dropRight\":56,\"x\":572,\"y\":86},\"sourcePath\":{\"area\":0,\"part\":\"base\",\"record\":\"r019\"},\"x\":1144,\"y\":36}"
            }
          ]
        },
        {
          "id": 86,
          "name": "r021",
          "type": "coupled-scale",
          "x": 1272,
          "y": 36,
          "width": 0,
          "height": 0,
          "rotation": 0,
          "visible": true,
          "point": true,
          "properties": [
            {
              "name": "sourceJson",
              "type": "string",
              "value": "{\"id\":\"r021\",\"kind\":\"coupled-scale\",\"source\":{\"macro\":\"Scale\",\"widthLeft\":16,\"widthRight\":16,\"between\":24,\"dropRight\":56,\"x\":636,\"y\":86},\"sourcePath\":{\"area\":0,\"part\":\"base\",\"record\":\"r021\"},\"x\":1272,\"y\":36}"
            }
          ]
        },
        {
          "id": 87,
          "name": "r022-trunk",
          "type": "decorative-trunk",
          "x": 1360,
          "y": 160,
          "width": 0,
          "height": 0,
          "rotation": 0,
          "visible": true,
          "point": true,
          "properties": [
            {
              "name": "sourceJson",
              "type": "string",
              "value": "{\"id\":\"r022-trunk\",\"kind\":\"decorative-trunk\",\"source\":{\"macro\":\"Tree\",\"width\":40,\"x\":680,\"y\":24},\"sourcePath\":{\"area\":0,\"part\":\"base\",\"record\":\"r022\"},\"x\":1360,\"y\":160}"
            }
          ]
        },
        {
          "id": 88,
          "name": "r023-trunk",
          "type": "decorative-trunk",
          "x": 1360,
          "y": 48,
          "width": 0,
          "height": 0,
          "rotation": 0,
          "visible": true,
          "point": true,
          "properties": [
            {
              "name": "sourceJson",
              "type": "string",
              "value": "{\"id\":\"r023-trunk\",\"kind\":\"decorative-trunk\",\"source\":{\"macro\":\"Tree\",\"width\":24,\"x\":680,\"y\":80},\"sourcePath\":{\"area\":0,\"part\":\"base\",\"record\":\"r023\"},\"x\":1360,\"y\":48}"
            }
          ]
        },
        {
          "id": 89,
          "name": "r025-trunk",
          "type": "decorative-trunk",
          "x": 1440,
          "y": 128,
          "width": 0,
          "height": 0,
          "rotation": 0,
          "visible": true,
          "point": true,
          "properties": [
            {
              "name": "sourceJson",
              "type": "string",
              "value": "{\"id\":\"r025-trunk\",\"kind\":\"decorative-trunk\",\"source\":{\"macro\":\"Tree\",\"width\":24,\"x\":720,\"y\":40},\"sourcePath\":{\"area\":0,\"part\":\"base\",\"record\":\"r025\"},\"x\":1440,\"y\":128}"
            }
          ]
        },
        {
          "id": 90,
          "name": "r026-trunk",
          "type": "decorative-trunk",
          "x": 1488,
          "y": 208,
          "width": 0,
          "height": 0,
          "rotation": 0,
          "visible": true,
          "point": true,
          "properties": [
            {
              "name": "sourceJson",
              "type": "string",
              "value": "{\"id\":\"r026-trunk\",\"kind\":\"decorative-trunk\",\"source\":{\"macro\":\"Tree\",\"width\":24,\"x\":744,\"y\":0},\"sourcePath\":{\"area\":0,\"part\":\"base\",\"record\":\"r026\"},\"x\":1488,\"y\":208}"
            }
          ]
        },
        {
          "id": 91,
          "name": "r027-trunk",
          "type": "decorative-trunk",
          "x": 1552,
          "y": 208,
          "width": 0,
          "height": 0,
          "rotation": 0,
          "visible": true,
          "point": true,
          "properties": [
            {
              "name": "sourceJson",
              "type": "string",
              "value": "{\"id\":\"r027-trunk\",\"kind\":\"decorative-trunk\",\"source\":{\"macro\":\"Tree\",\"width\":32,\"x\":776,\"y\":0},\"sourcePath\":{\"area\":0,\"part\":\"base\",\"record\":\"r027\"},\"x\":1552,\"y\":208}"
            }
          ]
        },
        {
          "id": 92,
          "name": "r029-trunk",
          "type": "decorative-trunk",
          "x": 1648,
          "y": 208,
          "width": 0,
          "height": 0,
          "rotation": 0,
          "visible": true,
          "point": true,
          "properties": [
            {
              "name": "sourceJson",
              "type": "string",
              "value": "{\"id\":\"r029-trunk\",\"kind\":\"decorative-trunk\",\"source\":{\"macro\":\"Tree\",\"width\":24,\"x\":824,\"y\":0},\"sourcePath\":{\"area\":0,\"part\":\"base\",\"record\":\"r029\"},\"x\":1648,\"y\":208}"
            }
          ]
        },
        {
          "id": 93,
          "name": "r030-trunk",
          "type": "decorative-trunk",
          "x": 1712,
          "y": 144,
          "width": 0,
          "height": 0,
          "rotation": 0,
          "visible": true,
          "point": true,
          "properties": [
            {
              "name": "sourceJson",
              "type": "string",
              "value": "{\"id\":\"r030-trunk\",\"kind\":\"decorative-trunk\",\"source\":{\"macro\":\"Tree\",\"width\":40,\"x\":856,\"y\":32},\"sourcePath\":{\"area\":0,\"part\":\"base\",\"record\":\"r030\"},\"x\":1712,\"y\":144}"
            }
          ]
        },
        {
          "id": 94,
          "name": "r031-trunk",
          "type": "decorative-trunk",
          "x": 1808,
          "y": 208,
          "width": 0,
          "height": 0,
          "rotation": 0,
          "visible": true,
          "point": true,
          "properties": [
            {
              "name": "sourceJson",
              "type": "string",
              "value": "{\"id\":\"r031-trunk\",\"kind\":\"decorative-trunk\",\"source\":{\"macro\":\"Tree\",\"width\":40,\"x\":904,\"y\":0},\"sourcePath\":{\"area\":0,\"part\":\"base\",\"record\":\"r031\"},\"x\":1808,\"y\":208}"
            }
          ]
        },
        {
          "id": 95,
          "name": "r032-spring",
          "type": "springboard",
          "x": 1856,
          "y": 179,
          "width": 0,
          "height": 0,
          "rotation": 0,
          "visible": true,
          "point": true,
          "properties": [
            {
              "name": "sourceJson",
              "type": "string",
              "value": "{\"id\":\"r032-spring\",\"kind\":\"springboard\",\"source\":{\"thing\":\"Springboard\",\"x\":928,\"y\":14.5},\"sourcePath\":{\"area\":0,\"part\":\"base\",\"record\":\"r032\"},\"x\":1856,\"y\":179}"
            }
          ]
        },
        {
          "id": 96,
          "name": "r033-timing",
          "type": "platform-timing",
          "x": 1944,
          "y": 82,
          "width": 0,
          "height": 0,
          "rotation": 0,
          "visible": true,
          "point": true,
          "properties": [
            {
              "name": "sourceJson",
              "type": "string",
              "value": "{\"id\":\"r033-timing\",\"kind\":\"platform-timing\",\"source\":{\"thing\":\"Platform\",\"width\":16,\"sliding\":true,\"begin\":940,\"end\":992,\"x\":972,\"y\":63},\"sourcePath\":{\"area\":0,\"part\":\"base\",\"record\":\"r033\"},\"x\":1944,\"y\":82}"
            }
          ]
        },
        {
          "id": 97,
          "name": "r034-trunk",
          "type": "decorative-trunk",
          "x": 1968,
          "y": 208,
          "width": 0,
          "height": 0,
          "rotation": 0,
          "visible": true,
          "point": true,
          "properties": [
            {
              "name": "sourceJson",
              "type": "string",
              "value": "{\"id\":\"r034-trunk\",\"kind\":\"decorative-trunk\",\"source\":{\"macro\":\"Tree\",\"width\":24,\"x\":984,\"y\":0},\"sourcePath\":{\"area\":0,\"part\":\"base\",\"record\":\"r034\"},\"x\":1968,\"y\":208}"
            }
          ]
        },
        {
          "id": 98,
          "name": "r035",
          "type": "coupled-scale",
          "x": 2040,
          "y": 36,
          "width": 0,
          "height": 0,
          "rotation": 0,
          "visible": true,
          "point": true,
          "properties": [
            {
              "name": "sourceJson",
              "type": "string",
              "value": "{\"id\":\"r035\",\"kind\":\"coupled-scale\",\"source\":{\"macro\":\"Scale\",\"widthLeft\":16,\"widthRight\":16,\"between\":24,\"dropLeft\":32,\"dropRight\":56,\"x\":1020,\"y\":86},\"sourcePath\":{\"area\":0,\"part\":\"base\",\"record\":\"r035\"},\"x\":2040,\"y\":36}"
            }
          ]
        },
        {
          "id": 99,
          "name": "r037-trunk",
          "type": "decorative-trunk",
          "x": 2112,
          "y": 208,
          "width": 0,
          "height": 0,
          "rotation": 0,
          "visible": true,
          "point": true,
          "properties": [
            {
              "name": "sourceJson",
              "type": "string",
              "value": "{\"id\":\"r037-trunk\",\"kind\":\"decorative-trunk\",\"source\":{\"macro\":\"Tree\",\"width\":32,\"x\":1056,\"y\":0},\"sourcePath\":{\"area\":0,\"part\":\"base\",\"record\":\"r037\"},\"x\":2112,\"y\":208}"
            }
          ]
        },
        {
          "id": 100,
          "name": "r038-trunk",
          "type": "decorative-trunk",
          "x": 2112,
          "y": 80,
          "width": 0,
          "height": 0,
          "rotation": 0,
          "visible": true,
          "point": true,
          "properties": [
            {
              "name": "sourceJson",
              "type": "string",
              "value": "{\"id\":\"r038-trunk\",\"kind\":\"decorative-trunk\",\"source\":{\"macro\":\"Tree\",\"width\":24,\"x\":1056,\"y\":64},\"sourcePath\":{\"area\":0,\"part\":\"base\",\"record\":\"r038\"},\"x\":2112,\"y\":80}"
            }
          ]
        },
        {
          "id": 101,
          "name": "r039-trunk",
          "type": "decorative-trunk",
          "x": 2160,
          "y": 144,
          "width": 0,
          "height": 0,
          "rotation": 0,
          "visible": true,
          "point": true,
          "properties": [
            {
              "name": "sourceJson",
              "type": "string",
              "value": "{\"id\":\"r039-trunk\",\"kind\":\"decorative-trunk\",\"source\":{\"macro\":\"Tree\",\"width\":32,\"x\":1080,\"y\":32},\"sourcePath\":{\"area\":0,\"part\":\"base\",\"record\":\"r039\"},\"x\":2160,\"y\":144}"
            }
          ]
        },
        {
          "id": 102,
          "name": "r040-motion",
          "type": "falling-platform",
          "x": 2256,
          "y": 114,
          "width": 0,
          "height": 0,
          "rotation": 0,
          "visible": true,
          "point": true,
          "properties": [
            {
              "name": "sourceJson",
              "type": "string",
              "value": "{\"id\":\"r040-motion\",\"kind\":\"falling-platform\",\"source\":{\"thing\":\"Platform\",\"width\":16,\"falling\":true,\"x\":1128,\"y\":47},\"sourcePath\":{\"area\":0,\"part\":\"base\",\"record\":\"r040\"},\"x\":2256,\"y\":114}"
            }
          ]
        },
        {
          "id": 103,
          "name": "r041-motion",
          "type": "falling-platform",
          "x": 2320,
          "y": 98,
          "width": 0,
          "height": 0,
          "rotation": 0,
          "visible": true,
          "point": true,
          "properties": [
            {
              "name": "sourceJson",
              "type": "string",
              "value": "{\"id\":\"r041-motion\",\"kind\":\"falling-platform\",\"source\":{\"thing\":\"Platform\",\"width\":16,\"falling\":true,\"x\":1160,\"y\":55},\"sourcePath\":{\"area\":0,\"part\":\"base\",\"record\":\"r041\"},\"x\":2320,\"y\":98}"
            }
          ]
        },
        {
          "id": 104,
          "name": "r043-motion",
          "type": "falling-platform",
          "x": 2384,
          "y": 106,
          "width": 0,
          "height": 0,
          "rotation": 0,
          "visible": true,
          "point": true,
          "properties": [
            {
              "name": "sourceJson",
              "type": "string",
              "value": "{\"id\":\"r043-motion\",\"kind\":\"falling-platform\",\"source\":{\"thing\":\"Platform\",\"width\":16,\"falling\":true,\"x\":1192,\"y\":51},\"sourcePath\":{\"area\":0,\"part\":\"base\",\"record\":\"r043\"},\"x\":2384,\"y\":106}"
            }
          ]
        },
        {
          "id": 105,
          "name": "r044-motion",
          "type": "falling-platform",
          "x": 2448,
          "y": 90,
          "width": 0,
          "height": 0,
          "rotation": 0,
          "visible": true,
          "point": true,
          "properties": [
            {
              "name": "sourceJson",
              "type": "string",
              "value": "{\"id\":\"r044-motion\",\"kind\":\"falling-platform\",\"source\":{\"thing\":\"Platform\",\"width\":16,\"falling\":true,\"x\":1224,\"y\":59},\"sourcePath\":{\"area\":0,\"part\":\"base\",\"record\":\"r044\"},\"x\":2448,\"y\":90}"
            }
          ]
        },
        {
          "id": 106,
          "name": "r046-trunk",
          "type": "decorative-trunk",
          "x": 2492,
          "y": 64,
          "width": 0,
          "height": 0,
          "rotation": 0,
          "visible": true,
          "point": true,
          "properties": [
            {
              "name": "sourceJson",
              "type": "string",
              "value": "{\"id\":\"r046-trunk\",\"kind\":\"decorative-trunk\",\"source\":{\"macro\":\"Tree\",\"width\":24,\"x\":1246,\"y\":72},\"sourcePath\":{\"area\":0,\"part\":\"base\",\"record\":\"r046\"},\"x\":2492,\"y\":64}"
            }
          ]
        },
        {
          "id": 107,
          "name": "r048",
          "type": "spawn-zone-BulletBillsStop",
          "x": 2560,
          "y": 208,
          "width": 0,
          "height": 0,
          "rotation": 0,
          "visible": true,
          "point": true,
          "properties": [
            {
              "name": "sourceJson",
              "type": "string",
              "value": "{\"id\":\"r048\",\"kind\":\"spawn-zone-BulletBillsStop\",\"source\":{\"macro\":\"BulletBillsStop\",\"x\":1280,\"y\":0},\"sourcePath\":{\"area\":0,\"part\":\"base\",\"record\":\"r048\"},\"x\":2560,\"y\":208}"
            }
          ]
        },
        {
          "id": 108,
          "name": "r049",
          "type": "flagpole-finish",
          "x": 2672,
          "y": 208,
          "width": 0,
          "height": 0,
          "rotation": 0,
          "visible": true,
          "point": true,
          "properties": [
            {
              "name": "sourceJson",
              "type": "string",
              "value": "{\"id\":\"r049\",\"kind\":\"flagpole-finish\",\"source\":{\"macro\":\"EndOutsideCastle\",\"large\":true,\"walls\":15,\"transport\":{\"map\":\"6-4\"},\"x\":1336,\"y\":0},\"sourcePath\":{\"area\":0,\"part\":\"base\",\"record\":\"r049\"},\"x\":2672,\"y\":208}"
            }
          ]
        },
        {
          "id": 109,
          "name": "r049-transport",
          "type": "source-transport-not-simulated",
          "x": 2672,
          "y": 208,
          "width": 0,
          "height": 0,
          "rotation": 0,
          "visible": true,
          "point": true,
          "properties": [
            {
              "name": "sourceJson",
              "type": "string",
              "value": "{\"id\":\"r049-transport\",\"kind\":\"source-transport-not-simulated\",\"source\":{\"macro\":\"EndOutsideCastle\",\"large\":true,\"walls\":15,\"transport\":{\"map\":\"6-4\"},\"x\":1336,\"y\":0},\"sourcePath\":{\"area\":0,\"part\":\"base\",\"record\":\"r049\"},\"x\":2672,\"y\":208}"
            }
          ]
        }
      ]
    }
  ],
  "properties": [
    {
      "name": "room",
      "type": "string",
      "value": "area-0"
    },
    {
      "name": "underwater",
      "type": "bool",
      "value": false
    },
    {
      "name": "inspectionOnly",
      "type": "bool",
      "value": true
    },
    {
      "name": "referenceReview",
      "type": "string",
      "value": "pending"
    }
  ]
}
