{
  "type": "map",
  "version": "1.10",
  "orientation": "orthogonal",
  "renderorder": "right-down",
  "width": 88,
  "height": 15,
  "tilewidth": 16,
  "tileheight": 16,
  "infinite": false,
  "nextlayerid": 4,
  "nextobjectid": 68,
  "tilesets": [],
  "layers": [
    {
      "id": 1,
      "name": "collision",
      "type": "objectgroup",
      "visible": true,
      "opacity": 1,
      "x": 0,
      "y": 0,
      "draworder": "index",
      "objects": [
        {
          "id": 1,
          "name": "r000",
          "type": "solid",
          "x": 0,
          "y": 208,
          "width": 64,
          "height": 16,
          "rotation": 0,
          "visible": true,
          "properties": [
            {
              "name": "sourceJson",
              "type": "string",
              "value": "{\"id\":\"r000\",\"x\":0,\"y\":208,\"w\":64,\"h\":16,\"collision\":\"solid\"}"
            }
          ]
        },
        {
          "id": 2,
          "name": "r001",
          "type": "solid",
          "x": 80,
          "y": 208,
          "width": 1248,
          "height": 16,
          "rotation": 0,
          "visible": true,
          "properties": [
            {
              "name": "sourceJson",
              "type": "string",
              "value": "{\"id\":\"r001\",\"x\":80,\"y\":208,\"w\":1248,\"h\":16,\"collision\":\"solid\"}"
            }
          ]
        },
        {
          "id": 3,
          "name": "r002",
          "type": "oneway",
          "x": 256,
          "y": 160,
          "width": 48,
          "height": 8,
          "rotation": 0,
          "visible": true,
          "properties": [
            {
              "name": "sourceJson",
              "type": "string",
              "value": "{\"id\":\"r002\",\"x\":256,\"y\":160,\"w\":48,\"h\":8,\"collision\":\"oneway\"}"
            }
          ]
        },
        {
          "id": 4,
          "name": "r004",
          "type": "solid",
          "x": 512,
          "y": 128,
          "width": 16,
          "height": 16,
          "rotation": 0,
          "visible": true,
          "properties": [
            {
              "name": "sourceJson",
              "type": "string",
              "value": "{\"id\":\"r004\",\"x\":512,\"y\":128,\"w\":16,\"h\":16,\"collision\":\"solid\"}"
            }
          ]
        },
        {
          "id": 5,
          "name": "r006",
          "type": "solid",
          "x": 816,
          "y": 112,
          "width": 16,
          "height": 32,
          "rotation": 0,
          "visible": true,
          "properties": [
            {
              "name": "sourceJson",
              "type": "string",
              "value": "{\"id\":\"r006\",\"x\":816,\"y\":112,\"w\":16,\"h\":32,\"collision\":\"solid\"}"
            }
          ]
        },
        {
          "id": 6,
          "name": "r008",
          "type": "solid",
          "x": 976,
          "y": 112,
          "width": 16,
          "height": 32,
          "rotation": 0,
          "visible": true,
          "properties": [
            {
              "name": "sourceJson",
              "type": "string",
              "value": "{\"id\":\"r008\",\"x\":976,\"y\":112,\"w\":16,\"h\":32,\"collision\":\"solid\"}"
            }
          ]
        },
        {
          "id": 7,
          "name": "r009",
          "type": "solid",
          "x": 1072,
          "y": 96,
          "width": 32,
          "height": 16,
          "rotation": 0,
          "visible": true,
          "properties": [
            {
              "name": "sourceJson",
              "type": "string",
              "value": "{\"id\":\"r009\",\"x\":1072,\"y\":96,\"w\":32,\"h\":16,\"collision\":\"solid\"}"
            }
          ]
        },
        {
          "id": 8,
          "name": "r010-0-0",
          "type": "solid",
          "x": 1136,
          "y": 96,
          "width": 16,
          "height": 16,
          "rotation": 0,
          "visible": true,
          "properties": [
            {
              "name": "sourceJson",
              "type": "string",
              "value": "{\"id\":\"r010-0-0\",\"x\":1136,\"y\":96,\"w\":16,\"h\":16,\"collision\":\"solid\"}"
            }
          ]
        },
        {
          "id": 9,
          "name": "r010-1-0",
          "type": "solid",
          "x": 1168,
          "y": 96,
          "width": 16,
          "height": 16,
          "rotation": 0,
          "visible": true,
          "properties": [
            {
              "name": "sourceJson",
              "type": "string",
              "value": "{\"id\":\"r010-1-0\",\"x\":1168,\"y\":96,\"w\":16,\"h\":16,\"collision\":\"solid\"}"
            }
          ]
        },
        {
          "id": 10,
          "name": "r010-2-0",
          "type": "solid",
          "x": 1200,
          "y": 96,
          "width": 16,
          "height": 16,
          "rotation": 0,
          "visible": true,
          "properties": [
            {
              "name": "sourceJson",
              "type": "string",
              "value": "{\"id\":\"r010-2-0\",\"x\":1200,\"y\":96,\"w\":16,\"h\":16,\"collision\":\"solid\"}"
            }
          ]
        },
        {
          "id": 11,
          "name": "r010-3-0",
          "type": "solid",
          "x": 1232,
          "y": 96,
          "width": 16,
          "height": 16,
          "rotation": 0,
          "visible": true,
          "properties": [
            {
              "name": "sourceJson",
              "type": "string",
              "value": "{\"id\":\"r010-3-0\",\"x\":1232,\"y\":96,\"w\":16,\"h\":16,\"collision\":\"solid\"}"
            }
          ]
        },
        {
          "id": 12,
          "name": "r010-4-0",
          "type": "solid",
          "x": 1264,
          "y": 96,
          "width": 16,
          "height": 16,
          "rotation": 0,
          "visible": true,
          "properties": [
            {
              "name": "sourceJson",
              "type": "string",
              "value": "{\"id\":\"r010-4-0\",\"x\":1264,\"y\":96,\"w\":16,\"h\":16,\"collision\":\"solid\"}"
            }
          ]
        }
      ]
    },
    {
      "id": 2,
      "name": "objects",
      "type": "objectgroup",
      "visible": true,
      "opacity": 1,
      "x": 0,
      "y": 0,
      "draworder": "index",
      "objects": [
        {
          "id": 13,
          "name": "r003-0-0",
          "type": "coin",
          "x": 242,
          "y": 98,
          "width": 10,
          "height": 14,
          "rotation": 0,
          "visible": true,
          "properties": [
            {
              "name": "sourceJson",
              "type": "string",
              "value": "{\"id\":\"r003-0-0\",\"kind\":\"coin\",\"x\":242,\"y\":98,\"w\":10,\"h\":14}"
            }
          ]
        },
        {
          "id": 14,
          "name": "r003-1-0",
          "type": "coin",
          "x": 258,
          "y": 98,
          "width": 10,
          "height": 14,
          "rotation": 0,
          "visible": true,
          "properties": [
            {
              "name": "sourceJson",
              "type": "string",
              "value": "{\"id\":\"r003-1-0\",\"kind\":\"coin\",\"x\":258,\"y\":98,\"w\":10,\"h\":14}"
            }
          ]
        },
        {
          "id": 15,
          "name": "r003-2-0",
          "type": "coin",
          "x": 274,
          "y": 98,
          "width": 10,
          "height": 14,
          "rotation": 0,
          "visible": true,
          "properties": [
            {
              "name": "sourceJson",
              "type": "string",
              "value": "{\"id\":\"r003-2-0\",\"kind\":\"coin\",\"x\":274,\"y\":98,\"w\":10,\"h\":14}"
            }
          ]
        },
        {
          "id": 16,
          "name": "r003-3-0",
          "type": "coin",
          "x": 290,
          "y": 98,
          "width": 10,
          "height": 14,
          "rotation": 0,
          "visible": true,
          "properties": [
            {
              "name": "sourceJson",
              "type": "string",
              "value": "{\"id\":\"r003-3-0\",\"kind\":\"coin\",\"x\":290,\"y\":98,\"w\":10,\"h\":14}"
            }
          ]
        },
        {
          "id": 17,
          "name": "r003-4-0",
          "type": "coin",
          "x": 306,
          "y": 98,
          "width": 10,
          "height": 14,
          "rotation": 0,
          "visible": true,
          "properties": [
            {
              "name": "sourceJson",
              "type": "string",
              "value": "{\"id\":\"r003-4-0\",\"kind\":\"coin\",\"x\":306,\"y\":98,\"w\":10,\"h\":14}"
            }
          ]
        },
        {
          "id": 18,
          "name": "r003-5-0",
          "type": "coin",
          "x": 322,
          "y": 98,
          "width": 10,
          "height": 14,
          "rotation": 0,
          "visible": true,
          "properties": [
            {
              "name": "sourceJson",
              "type": "string",
              "value": "{\"id\":\"r003-5-0\",\"kind\":\"coin\",\"x\":322,\"y\":98,\"w\":10,\"h\":14}"
            }
          ]
        },
        {
          "id": 19,
          "name": "r003-6-0",
          "type": "coin",
          "x": 338,
          "y": 98,
          "width": 10,
          "height": 14,
          "rotation": 0,
          "visible": true,
          "properties": [
            {
              "name": "sourceJson",
              "type": "string",
              "value": "{\"id\":\"r003-6-0\",\"kind\":\"coin\",\"x\":338,\"y\":98,\"w\":10,\"h\":14}"
            }
          ]
        },
        {
          "id": 20,
          "name": "r003-7-0",
          "type": "coin",
          "x": 354,
          "y": 98,
          "width": 10,
          "height": 14,
          "rotation": 0,
          "visible": true,
          "properties": [
            {
              "name": "sourceJson",
              "type": "string",
              "value": "{\"id\":\"r003-7-0\",\"kind\":\"coin\",\"x\":354,\"y\":98,\"w\":10,\"h\":14}"
            }
          ]
        },
        {
          "id": 21,
          "name": "r003-8-0",
          "type": "coin",
          "x": 370,
          "y": 98,
          "width": 10,
          "height": 14,
          "rotation": 0,
          "visible": true,
          "properties": [
            {
              "name": "sourceJson",
              "type": "string",
              "value": "{\"id\":\"r003-8-0\",\"kind\":\"coin\",\"x\":370,\"y\":98,\"w\":10,\"h\":14}"
            }
          ]
        },
        {
          "id": 22,
          "name": "r003-9-0",
          "type": "coin",
          "x": 386,
          "y": 98,
          "width": 10,
          "height": 14,
          "rotation": 0,
          "visible": true,
          "properties": [
            {
              "name": "sourceJson",
              "type": "string",
              "value": "{\"id\":\"r003-9-0\",\"kind\":\"coin\",\"x\":386,\"y\":98,\"w\":10,\"h\":14}"
            }
          ]
        },
        {
          "id": 23,
          "name": "r003-10-0",
          "type": "coin",
          "x": 402,
          "y": 98,
          "width": 10,
          "height": 14,
          "rotation": 0,
          "visible": true,
          "properties": [
            {
              "name": "sourceJson",
              "type": "string",
              "value": "{\"id\":\"r003-10-0\",\"kind\":\"coin\",\"x\":402,\"y\":98,\"w\":10,\"h\":14}"
            }
          ]
        },
        {
          "id": 24,
          "name": "r003-11-0",
          "type": "coin",
          "x": 418,
          "y": 98,
          "width": 10,
          "height": 14,
          "rotation": 0,
          "visible": true,
          "properties": [
            {
              "name": "sourceJson",
              "type": "string",
              "value": "{\"id\":\"r003-11-0\",\"kind\":\"coin\",\"x\":418,\"y\":98,\"w\":10,\"h\":14}"
            }
          ]
        },
        {
          "id": 25,
          "name": "r003-12-0",
          "type": "coin",
          "x": 434,
          "y": 98,
          "width": 10,
          "height": 14,
          "rotation": 0,
          "visible": true,
          "properties": [
            {
              "name": "sourceJson",
              "type": "string",
              "value": "{\"id\":\"r003-12-0\",\"kind\":\"coin\",\"x\":434,\"y\":98,\"w\":10,\"h\":14}"
            }
          ]
        },
        {
          "id": 26,
          "name": "r003-13-0",
          "type": "coin",
          "x": 450,
          "y": 98,
          "width": 10,
          "height": 14,
          "rotation": 0,
          "visible": true,
          "properties": [
            {
              "name": "sourceJson",
              "type": "string",
              "value": "{\"id\":\"r003-13-0\",\"kind\":\"coin\",\"x\":450,\"y\":98,\"w\":10,\"h\":14}"
            }
          ]
        },
        {
          "id": 27,
          "name": "r003-14-0",
          "type": "coin",
          "x": 466,
          "y": 98,
          "width": 10,
          "height": 14,
          "rotation": 0,
          "visible": true,
          "properties": [
            {
              "name": "sourceJson",
              "type": "string",
              "value": "{\"id\":\"r003-14-0\",\"kind\":\"coin\",\"x\":466,\"y\":98,\"w\":10,\"h\":14}"
            }
          ]
        },
        {
          "id": 28,
          "name": "r003-15-0",
          "type": "coin",
          "x": 482,
          "y": 98,
          "width": 10,
          "height": 14,
          "rotation": 0,
          "visible": true,
          "properties": [
            {
              "name": "sourceJson",
              "type": "string",
              "value": "{\"id\":\"r003-15-0\",\"kind\":\"coin\",\"x\":482,\"y\":98,\"w\":10,\"h\":14}"
            }
          ]
        },
        {
          "id": 29,
          "name": "r005-0-0",
          "type": "coin",
          "x": 546,
          "y": 98,
          "width": 10,
          "height": 14,
          "rotation": 0,
          "visible": true,
          "properties": [
            {
              "name": "sourceJson",
              "type": "string",
              "value": "{\"id\":\"r005-0-0\",\"kind\":\"coin\",\"x\":546,\"y\":98,\"w\":10,\"h\":14}"
            }
          ]
        },
        {
          "id": 30,
          "name": "r005-1-0",
          "type": "coin",
          "x": 562,
          "y": 98,
          "width": 10,
          "height": 14,
          "rotation": 0,
          "visible": true,
          "properties": [
            {
              "name": "sourceJson",
              "type": "string",
              "value": "{\"id\":\"r005-1-0\",\"kind\":\"coin\",\"x\":562,\"y\":98,\"w\":10,\"h\":14}"
            }
          ]
        },
        {
          "id": 31,
          "name": "r005-2-0",
          "type": "coin",
          "x": 578,
          "y": 98,
          "width": 10,
          "height": 14,
          "rotation": 0,
          "visible": true,
          "properties": [
            {
              "name": "sourceJson",
              "type": "string",
              "value": "{\"id\":\"r005-2-0\",\"kind\":\"coin\",\"x\":578,\"y\":98,\"w\":10,\"h\":14}"
            }
          ]
        },
        {
          "id": 32,
          "name": "r005-3-0",
          "type": "coin",
          "x": 594,
          "y": 98,
          "width": 10,
          "height": 14,
          "rotation": 0,
          "visible": true,
          "properties": [
            {
              "name": "sourceJson",
              "type": "string",
              "value": "{\"id\":\"r005-3-0\",\"kind\":\"coin\",\"x\":594,\"y\":98,\"w\":10,\"h\":14}"
            }
          ]
        },
        {
          "id": 33,
          "name": "r005-4-0",
          "type": "coin",
          "x": 610,
          "y": 98,
          "width": 10,
          "height": 14,
          "rotation": 0,
          "visible": true,
          "properties": [
            {
              "name": "sourceJson",
              "type": "string",
              "value": "{\"id\":\"r005-4-0\",\"kind\":\"coin\",\"x\":610,\"y\":98,\"w\":10,\"h\":14}"
            }
          ]
        },
        {
          "id": 34,
          "name": "r005-5-0",
          "type": "coin",
          "x": 626,
          "y": 98,
          "width": 10,
          "height": 14,
          "rotation": 0,
          "visible": true,
          "properties": [
            {
              "name": "sourceJson",
              "type": "string",
              "value": "{\"id\":\"r005-5-0\",\"kind\":\"coin\",\"x\":626,\"y\":98,\"w\":10,\"h\":14}"
            }
          ]
        },
        {
          "id": 35,
          "name": "r005-6-0",
          "type": "coin",
          "x": 642,
          "y": 98,
          "width": 10,
          "height": 14,
          "rotation": 0,
          "visible": true,
          "properties": [
            {
              "name": "sourceJson",
              "type": "string",
              "value": "{\"id\":\"r005-6-0\",\"kind\":\"coin\",\"x\":642,\"y\":98,\"w\":10,\"h\":14}"
            }
          ]
        },
        {
          "id": 36,
          "name": "r005-7-0",
          "type": "coin",
          "x": 658,
          "y": 98,
          "width": 10,
          "height": 14,
          "rotation": 0,
          "visible": true,
          "properties": [
            {
              "name": "sourceJson",
              "type": "string",
              "value": "{\"id\":\"r005-7-0\",\"kind\":\"coin\",\"x\":658,\"y\":98,\"w\":10,\"h\":14}"
            }
          ]
        },
        {
          "id": 37,
          "name": "r005-8-0",
          "type": "coin",
          "x": 674,
          "y": 98,
          "width": 10,
          "height": 14,
          "rotation": 0,
          "visible": true,
          "properties": [
            {
              "name": "sourceJson",
              "type": "string",
              "value": "{\"id\":\"r005-8-0\",\"kind\":\"coin\",\"x\":674,\"y\":98,\"w\":10,\"h\":14}"
            }
          ]
        },
        {
          "id": 38,
          "name": "r005-9-0",
          "type": "coin",
          "x": 690,
          "y": 98,
          "width": 10,
          "height": 14,
          "rotation": 0,
          "visible": true,
          "properties": [
            {
              "name": "sourceJson",
              "type": "string",
              "value": "{\"id\":\"r005-9-0\",\"kind\":\"coin\",\"x\":690,\"y\":98,\"w\":10,\"h\":14}"
            }
          ]
        },
        {
          "id": 39,
          "name": "r005-10-0",
          "type": "coin",
          "x": 706,
          "y": 98,
          "width": 10,
          "height": 14,
          "rotation": 0,
          "visible": true,
          "properties": [
            {
              "name": "sourceJson",
              "type": "string",
              "value": "{\"id\":\"r005-10-0\",\"kind\":\"coin\",\"x\":706,\"y\":98,\"w\":10,\"h\":14}"
            }
          ]
        },
        {
          "id": 40,
          "name": "r005-11-0",
          "type": "coin",
          "x": 722,
          "y": 98,
          "width": 10,
          "height": 14,
          "rotation": 0,
          "visible": true,
          "properties": [
            {
              "name": "sourceJson",
              "type": "string",
              "value": "{\"id\":\"r005-11-0\",\"kind\":\"coin\",\"x\":722,\"y\":98,\"w\":10,\"h\":14}"
            }
          ]
        },
        {
          "id": 41,
          "name": "r005-12-0",
          "type": "coin",
          "x": 738,
          "y": 98,
          "width": 10,
          "height": 14,
          "rotation": 0,
          "visible": true,
          "properties": [
            {
              "name": "sourceJson",
              "type": "string",
              "value": "{\"id\":\"r005-12-0\",\"kind\":\"coin\",\"x\":738,\"y\":98,\"w\":10,\"h\":14}"
            }
          ]
        },
        {
          "id": 42,
          "name": "r005-13-0",
          "type": "coin",
          "x": 754,
          "y": 98,
          "width": 10,
          "height": 14,
          "rotation": 0,
          "visible": true,
          "properties": [
            {
              "name": "sourceJson",
              "type": "string",
              "value": "{\"id\":\"r005-13-0\",\"kind\":\"coin\",\"x\":754,\"y\":98,\"w\":10,\"h\":14}"
            }
          ]
        },
        {
          "id": 43,
          "name": "r005-14-0",
          "type": "coin",
          "x": 770,
          "y": 98,
          "width": 10,
          "height": 14,
          "rotation": 0,
          "visible": true,
          "properties": [
            {
              "name": "sourceJson",
              "type": "string",
              "value": "{\"id\":\"r005-14-0\",\"kind\":\"coin\",\"x\":770,\"y\":98,\"w\":10,\"h\":14}"
            }
          ]
        },
        {
          "id": 44,
          "name": "r005-15-0",
          "type": "coin",
          "x": 786,
          "y": 98,
          "width": 10,
          "height": 14,
          "rotation": 0,
          "visible": true,
          "properties": [
            {
              "name": "sourceJson",
              "type": "string",
              "value": "{\"id\":\"r005-15-0\",\"kind\":\"coin\",\"x\":786,\"y\":98,\"w\":10,\"h\":14}"
            }
          ]
        },
        {
          "id": 45,
          "name": "r007-0-0",
          "type": "coin",
          "x": 850,
          "y": 82,
          "width": 10,
          "height": 14,
          "rotation": 0,
          "visible": true,
          "properties": [
            {
              "name": "sourceJson",
              "type": "string",
              "value": "{\"id\":\"r007-0-0\",\"kind\":\"coin\",\"x\":850,\"y\":82,\"w\":10,\"h\":14}"
            }
          ]
        },
        {
          "id": 46,
          "name": "r007-1-0",
          "type": "coin",
          "x": 866,
          "y": 82,
          "width": 10,
          "height": 14,
          "rotation": 0,
          "visible": true,
          "properties": [
            {
              "name": "sourceJson",
              "type": "string",
              "value": "{\"id\":\"r007-1-0\",\"kind\":\"coin\",\"x\":866,\"y\":82,\"w\":10,\"h\":14}"
            }
          ]
        },
        {
          "id": 47,
          "name": "r007-2-0",
          "type": "coin",
          "x": 882,
          "y": 82,
          "width": 10,
          "height": 14,
          "rotation": 0,
          "visible": true,
          "properties": [
            {
              "name": "sourceJson",
              "type": "string",
              "value": "{\"id\":\"r007-2-0\",\"kind\":\"coin\",\"x\":882,\"y\":82,\"w\":10,\"h\":14}"
            }
          ]
        },
        {
          "id": 48,
          "name": "r007-3-0",
          "type": "coin",
          "x": 898,
          "y": 82,
          "width": 10,
          "height": 14,
          "rotation": 0,
          "visible": true,
          "properties": [
            {
              "name": "sourceJson",
              "type": "string",
              "value": "{\"id\":\"r007-3-0\",\"kind\":\"coin\",\"x\":898,\"y\":82,\"w\":10,\"h\":14}"
            }
          ]
        },
        {
          "id": 49,
          "name": "r007-4-0",
          "type": "coin",
          "x": 914,
          "y": 82,
          "width": 10,
          "height": 14,
          "rotation": 0,
          "visible": true,
          "properties": [
            {
              "name": "sourceJson",
              "type": "string",
              "value": "{\"id\":\"r007-4-0\",\"kind\":\"coin\",\"x\":914,\"y\":82,\"w\":10,\"h\":14}"
            }
          ]
        },
        {
          "id": 50,
          "name": "r007-5-0",
          "type": "coin",
          "x": 930,
          "y": 82,
          "width": 10,
          "height": 14,
          "rotation": 0,
          "visible": true,
          "properties": [
            {
              "name": "sourceJson",
              "type": "string",
              "value": "{\"id\":\"r007-5-0\",\"kind\":\"coin\",\"x\":930,\"y\":82,\"w\":10,\"h\":14}"
            }
          ]
        },
        {
          "id": 51,
          "name": "r007-6-0",
          "type": "coin",
          "x": 946,
          "y": 82,
          "width": 10,
          "height": 14,
          "rotation": 0,
          "visible": true,
          "properties": [
            {
              "name": "sourceJson",
              "type": "string",
              "value": "{\"id\":\"r007-6-0\",\"kind\":\"coin\",\"x\":946,\"y\":82,\"w\":10,\"h\":14}"
            }
          ]
        },
        {
          "id": 52,
          "name": "r011-0-0",
          "type": "coin",
          "x": 1138,
          "y": 82,
          "width": 10,
          "height": 14,
          "rotation": 0,
          "visible": true,
          "properties": [
            {
              "name": "sourceJson",
              "type": "string",
              "value": "{\"id\":\"r011-0-0\",\"kind\":\"coin\",\"x\":1138,\"y\":82,\"w\":10,\"h\":14}"
            }
          ]
        },
        {
          "id": 53,
          "name": "r011-1-0",
          "type": "coin",
          "x": 1154,
          "y": 82,
          "width": 10,
          "height": 14,
          "rotation": 0,
          "visible": true,
          "properties": [
            {
              "name": "sourceJson",
              "type": "string",
              "value": "{\"id\":\"r011-1-0\",\"kind\":\"coin\",\"x\":1154,\"y\":82,\"w\":10,\"h\":14}"
            }
          ]
        },
        {
          "id": 54,
          "name": "r011-2-0",
          "type": "coin",
          "x": 1170,
          "y": 82,
          "width": 10,
          "height": 14,
          "rotation": 0,
          "visible": true,
          "properties": [
            {
              "name": "sourceJson",
              "type": "string",
              "value": "{\"id\":\"r011-2-0\",\"kind\":\"coin\",\"x\":1170,\"y\":82,\"w\":10,\"h\":14}"
            }
          ]
        },
        {
          "id": 55,
          "name": "r011-3-0",
          "type": "coin",
          "x": 1186,
          "y": 82,
          "width": 10,
          "height": 14,
          "rotation": 0,
          "visible": true,
          "properties": [
            {
              "name": "sourceJson",
              "type": "string",
              "value": "{\"id\":\"r011-3-0\",\"kind\":\"coin\",\"x\":1186,\"y\":82,\"w\":10,\"h\":14}"
            }
          ]
        },
        {
          "id": 56,
          "name": "r011-4-0",
          "type": "coin",
          "x": 1202,
          "y": 82,
          "width": 10,
          "height": 14,
          "rotation": 0,
          "visible": true,
          "properties": [
            {
              "name": "sourceJson",
              "type": "string",
              "value": "{\"id\":\"r011-4-0\",\"kind\":\"coin\",\"x\":1202,\"y\":82,\"w\":10,\"h\":14}"
            }
          ]
        },
        {
          "id": 57,
          "name": "r011-5-0",
          "type": "coin",
          "x": 1218,
          "y": 82,
          "width": 10,
          "height": 14,
          "rotation": 0,
          "visible": true,
          "properties": [
            {
              "name": "sourceJson",
              "type": "string",
              "value": "{\"id\":\"r011-5-0\",\"kind\":\"coin\",\"x\":1218,\"y\":82,\"w\":10,\"h\":14}"
            }
          ]
        },
        {
          "id": 58,
          "name": "r011-6-0",
          "type": "coin",
          "x": 1234,
          "y": 82,
          "width": 10,
          "height": 14,
          "rotation": 0,
          "visible": true,
          "properties": [
            {
              "name": "sourceJson",
              "type": "string",
              "value": "{\"id\":\"r011-6-0\",\"kind\":\"coin\",\"x\":1234,\"y\":82,\"w\":10,\"h\":14}"
            }
          ]
        },
        {
          "id": 59,
          "name": "r011-7-0",
          "type": "coin",
          "x": 1250,
          "y": 82,
          "width": 10,
          "height": 14,
          "rotation": 0,
          "visible": true,
          "properties": [
            {
              "name": "sourceJson",
              "type": "string",
              "value": "{\"id\":\"r011-7-0\",\"kind\":\"coin\",\"x\":1250,\"y\":82,\"w\":10,\"h\":14}"
            }
          ]
        },
        {
          "id": 60,
          "name": "r011-8-0",
          "type": "coin",
          "x": 1266,
          "y": 82,
          "width": 10,
          "height": 14,
          "rotation": 0,
          "visible": true,
          "properties": [
            {
              "name": "sourceJson",
              "type": "string",
              "value": "{\"id\":\"r011-8-0\",\"kind\":\"coin\",\"x\":1266,\"y\":82,\"w\":10,\"h\":14}"
            }
          ]
        },
        {
          "id": 61,
          "name": "r011-9-0",
          "type": "coin",
          "x": 1282,
          "y": 82,
          "width": 10,
          "height": 14,
          "rotation": 0,
          "visible": true,
          "properties": [
            {
              "name": "sourceJson",
              "type": "string",
              "value": "{\"id\":\"r011-9-0\",\"kind\":\"coin\",\"x\":1282,\"y\":82,\"w\":10,\"h\":14}"
            }
          ]
        },
        {
          "id": 62,
          "name": "r012-0-0",
          "type": "coin",
          "x": 1362,
          "y": 178,
          "width": 10,
          "height": 14,
          "rotation": 0,
          "visible": true,
          "properties": [
            {
              "name": "sourceJson",
              "type": "string",
              "value": "{\"id\":\"r012-0-0\",\"kind\":\"coin\",\"x\":1362,\"y\":178,\"w\":10,\"h\":14}"
            }
          ]
        },
        {
          "id": 63,
          "name": "r012-1-0",
          "type": "coin",
          "x": 1378,
          "y": 178,
          "width": 10,
          "height": 14,
          "rotation": 0,
          "visible": true,
          "properties": [
            {
              "name": "sourceJson",
              "type": "string",
              "value": "{\"id\":\"r012-1-0\",\"kind\":\"coin\",\"x\":1378,\"y\":178,\"w\":10,\"h\":14}"
            }
          ]
        },
        {
          "id": 64,
          "name": "r012-2-0",
          "type": "coin",
          "x": 1394,
          "y": 178,
          "width": 10,
          "height": 14,
          "rotation": 0,
          "visible": true,
          "properties": [
            {
              "name": "sourceJson",
              "type": "string",
              "value": "{\"id\":\"r012-2-0\",\"kind\":\"coin\",\"x\":1394,\"y\":178,\"w\":10,\"h\":14}"
            }
          ]
        },
        {
          "id": 65,
          "name": "inspection-start",
          "type": "spawn",
          "x": 24,
          "y": 184,
          "width": 12,
          "height": 24,
          "rotation": 0,
          "visible": true,
          "properties": [
            {
              "name": "sourceJson",
              "type": "string",
              "value": "{\"id\":\"inspection-start\",\"kind\":\"spawn\",\"x\":24,\"y\":184,\"w\":12,\"h\":24}"
            }
          ]
        }
      ]
    },
    {
      "id": 3,
      "name": "pending-mechanics",
      "type": "objectgroup",
      "visible": true,
      "opacity": 1,
      "x": 0,
      "y": 0,
      "draworder": "index",
      "objects": [
        {
          "id": 66,
          "name": "r002-transport",
          "type": "source-transport-not-simulated",
          "x": 256,
          "y": 160,
          "width": 0,
          "height": 0,
          "rotation": 0,
          "visible": true,
          "point": true,
          "properties": [
            {
              "name": "sourceJson",
              "type": "string",
              "value": "{\"id\":\"r002-transport\",\"kind\":\"source-transport-not-simulated\",\"source\":{\"thing\":\"Platform\",\"width\":24,\"transport\":true,\"x\":128,\"y\":24},\"sourcePath\":{\"area\":2,\"part\":\"base\",\"record\":\"r002\"},\"x\":256,\"y\":160}"
            }
          ]
        },
        {
          "id": 67,
          "name": "r002-motion",
          "type": "ride-platform",
          "x": 256,
          "y": 160,
          "width": 0,
          "height": 0,
          "rotation": 0,
          "visible": true,
          "point": true,
          "properties": [
            {
              "name": "sourceJson",
              "type": "string",
              "value": "{\"id\":\"r002-motion\",\"kind\":\"ride-platform\",\"source\":{\"thing\":\"Platform\",\"width\":24,\"transport\":true,\"x\":128,\"y\":24},\"sourcePath\":{\"area\":2,\"part\":\"base\",\"record\":\"r002\"},\"x\":256,\"y\":160}"
            }
          ]
        }
      ]
    }
  ],
  "properties": [
    {
      "name": "room",
      "type": "string",
      "value": "area-2"
    },
    {
      "name": "underwater",
      "type": "bool",
      "value": false
    },
    {
      "name": "inspectionOnly",
      "type": "bool",
      "value": true
    },
    {
      "name": "referenceReview",
      "type": "string",
      "value": "pending"
    }
  ]
}
